pablosanchezmart/TrEvol/tests/outputs/outputs_simulationsphylo_eigenvectors.csv
"taxon","phylo_G1_trait1","phylo_G1_trait2","phylo_G1_envPred","phylo_G2_trait1","phylo_G2_trait2","phylo_G2_envPred","nonPhylo_G1_trait1","nonPhylo_G1_trait2","nonPhylo_G1_envPred","nonPhylo_G2_trait1","nonPhylo_G2_trait2","nonPhylo_G2_envPred","animal","Phylo_axis_1","Phylo_axis_2","Phylo_axis_3","Phylo_axis_4","Phylo_axis_5","Phylo_axis_6","Phylo_axis_7","Phylo_axis_8","Phylo_axis_9","Phylo_axis_10","Phylo_axis_11","Phylo_axis_12","Phylo_axis_13","Phylo_axis_14","Phylo_axis_15","Phylo_axis_16","Phylo_axis_17","Phylo_axis_18","Phylo_axis_19","Phylo_axis_20","Phylo_axis_21","Phylo_axis_22","Phylo_axis_23","Phylo_axis_24","Phylo_axis_25","Phylo_axis_26","Phylo_axis_27","Phylo_axis_28","Phylo_axis_29","Phylo_axis_30","Phylo_axis_31","Phylo_axis_32","Phylo_axis_33","Phylo_axis_34","Phylo_axis_35","Phylo_axis_36","Phylo_axis_37","Phylo_axis_38","Phylo_axis_39","Phylo_axis_40","Phylo_axis_41","Phylo_axis_42","Phylo_axis_43","Phylo_axis_44","Phylo_axis_45","Phylo_axis_46","Phylo_axis_47","Phylo_axis_48","Phylo_axis_49","Phylo_axis_50"
"t1",-0.129620787635909,0.616463584882415,-1.4115671982006,-0.565483808555606,1.06656977368452,1.391378928669,0.253775523437477,0.558781830121674,-0.108500138433446,0.540744800386692,-0.629144941523981,-0.559977261160121,"t1",0.217935544040806,-0.104451043336163,-0.370768588824829,0.366646737961819,0.251089079214735,0.107821034310665,-0.291599479898827,-0.38411318264175,-0.00431768290940207,0.041028783721534,0.0828241888674267,-0.0242636173531055,0.0514126552949713,-0.151258103889957,0.102802816091101,-0.0544687020227028,0.262671517081486,-0.286481798656356,4.13541146913275,0.0864568089187764,0.0450673536693013,-0.37221359869087,0.0156321844237719,0.0032787095495586,-0.0369826164375622,0.0173112302746771,0.0252317645120591,0.0322693597591663,-0.00516802189473815,-0.0151113271590246,0.00145559018489169,-0.00936715378479512,0.00928391913519991,-0.00219510574681609,0.000695825429259909,-0.0119136254085635,-0.000496590451100923,0.000784597918269229,-0.0000230993544849121,0.000000000000000137737606504718,0.000171132331619662,0.000515837598758328,0.000177547634864594,0.000000000000000197943705551177,0.00160589069224778,0.000121854723058149,-0.000649121758418217,-0.000108024617782222,0.000321728897744754,-0.0000547336075992816
"t10",2.52952103112615,1.84016325745504,0.401726109461861,0.850628675014661,-1.0305260370091,1.38297231778752,1.11607326566067,1.16266742801712,0.989331260396205,-0.184002353926219,-0.0741651728204459,0.292546106589205,"t10",-0.00375654962796459,0.150072853082241,-0.509795226175569,0.793952718599335,0.589119604590693,0.3116515745485,-0.716365002955642,-3.78124957862317,0.0279325772267816,-0.196623339389905,-0.280753651686572,0.0830458326925646,-0.0523284797071579,0.0448580530610243,-0.0279505394986152,0.00999564116598174,-0.0485676813971928,0.0216281961773871,-0.177392802805485,0.00264218451416555,0.00235479271755442,-0.018543136470523,0.00223739737884369,0.000266039649906648,-0.00533686274273274,0.00137367520891933,0.00338412249237828,0.00232472048657077,-0.000614026442829448,-0.000989654484501044,0.0000264093571715123,0.000274488560090532,-0.00125193592906877,0.00115461775181407,-0.000783353048362818,1.61716576343031,-0.000677952016363798,0.00078122700814697,-0.0000132532873117914,0.000000000000000319741948991014,0.000171995344956655,0.000258410462657418,0.000147108453476456,0.000000000000000387482629725704,0.000701158812921169,0.0000860513557414192,-0.000276269713887799,-0.0000727177258661092,0.000129710862113091,-0.0000214610067785917
"t100",1.05332189209604,0.674084214594329,0.466894922458606,-1.44486791930221,1.76981998731488,1.08695322258258,0.337890538923491,0.0132540740039488,1.20656729753483,-0.348041809166714,0.709529715736591,0.841177568963344,"t100",0.393898674574238,2.70534717016524,0.717837738717927,-1.88000412457647,0.870818207563113,-0.00205245845626379,-0.0101901407407943,0.0176307256311107,0.0000923004129775205,-0.00138874348777707,-0.231084281754925,-0.00374386856533165,-0.122758195082927,0.00103681534642771,-0.000758635477015727,0.000458579626203374,-0.0162438614363857,0.00124437387228634,-0.0128800369952449,0.00432008449105623,0.0142999811485233,-0.00316226342668104,0.727428087625016,-0.00016005846955734,0.0130839680649503,-0.00017229590469399,-0.00135189356668054,0.0000450488638394019,-0.00131040495396737,-0.000068356686793118,0.0000336719443841969,-0.00122024678720537,0.157360848667867,0.0000997046150658752,-0.0000148944517164508,0.0000316491878347687,-0.0000308025746487244,0.352889841281182,0.00000297100036425578,0.00000000000000239714476816351,-0.0000195708229980649,-0.0000751010331453305,-0.342147757524555,-0.000000000000000129051854111353,0.00000115427761917912,0.00000871908701804754,-0.00000144243158328306,-0.0789837362110762,-0.00000162200061777826,-0.000000082565471200837
"t11",0.58902431443832,2.44489155239833,1.66004419303441,1.23831986395907,-2.48724811900469,-1.64420420030514,-0.112658473966967,0.165777187128791,-0.119529311917142,-0.392150676059718,1.02527683845884,0.471918966281397,"t11",1.1243359173144,-1.61060250083836,0.913453848177038,0.0581724669447661,-0.0222894621260091,-0.00628220267597751,-0.0140486251844377,-0.0154631874273053,-0.0446342861793719,1.20997766457582,-0.0136718672698088,0.00294277666375643,-0.000942411309317835,-0.942792545409386,-0.243581874048141,0.253602440256072,0.00186739066604835,-2.07337663991392,-0.218718317002469,0.000283038270919411,0.000786390536879395,-0.205018636324144,0.000282106973877907,0.0162474318879012,-0.000961351454682591,0.00296435281359507,0.00108215386846162,0.0102344211800516,-0.000477229856918812,-0.0676500232052463,0.00575012216327789,-0.000375861057840099,0.000402619209576235,-0.000102914284457014,0.000033936006362279,-0.00061251762464005,-0.0000265649329312319,0.0000346686904544366,1.32777131712088,0.000000000000136301969452713,0.0000110752622385791,0.00199748154152055,0.0000108612396239539,0.000000000000000614021417951418,0.000542087930107678,0.00000789265589068723,-0.000220396949700215,-0.00000717765028810262,0.00250353294596473,-0.000200585499735116
"t12",3.67779188153505,4.24416654334931,3.68903641602657,-1.81699815256329,0.380550385536955,1.77784292942556,0.281298952880603,0.65391837241262,0.115800384088379,-0.454591872418771,0.646938300539065,-0.0654149696878316,"t12",1.12443099125139,-1.61075968901321,0.913674946252101,0.0581887995231925,-0.0222968876846804,-0.00628472668722477,-0.0140548565930554,-0.0154712595172302,-0.0446606425681142,1.21070924042731,-0.0136814133131169,0.00294493196811881,-0.000943262074957802,-0.943845451215472,-0.243861264784064,0.253929153089265,0.0018700210679333,-2.07665466649011,-0.219096379339824,0.000283615358619367,0.000788101595875566,-0.205558866416238,0.000283156668163204,0.01631307074571,-0.000965358347214534,0.0029778498405947,0.00108762286358976,0.0102898149588196,-0.000479986409931455,-0.0680494128490393,0.00579638576936129,-0.000379299665105919,0.000406915042131621,-0.000104311100375087,0.0000344864283964395,-0.000626771004439075,-0.0000291660333968783,0.0000510896887926585,-0.663013398942885,-1.14176574100007,0.0000101816406993923,0.00185093222836499,0.0000101055634164038,-0.00000000000000113480801748356,0.000526588492717109,0.00000769501017080469,-0.000214971829665238,-0.00000703999288566519,0.00245870745683191,-0.000197559305299954
"t13",5.85182249444418,6.01246348196814,5.00740391224808,0.52694107636249,-2.12795976165578,1.16035931487426,0.786398055953062,0.622803297029915,-0.265363358803286,0.106744704652273,0.0680989100176018,0.0380264094039299,"t13",1.12443099125139,-1.61075968901321,0.913674946252101,0.0581887995231925,-0.0222968876846803,-0.00628472668722466,-0.0140548565930556,-0.01547125951723,-0.0446606425681144,1.21070924042731,-0.0136814133131174,0.00294493196811838,-0.000943262074957768,-0.943845451215473,-0.243861264784064,0.253929153089266,0.00187002106793337,-2.07665466649011,-0.219096379339823,0.000283615358619249,0.00078810159587562,-0.205558866416238,0.000283156668162708,0.0163130707457104,-0.000965358347213296,0.00297784984059391,0.00108762286358988,0.0102898149588199,-0.000479986409931613,-0.0680494128490407,0.00579638576936085,-0.000379299665104406,0.000406915042131466,-0.000104311100368989,0.0000344864284005292,-0.00062677100443924,-0.0000291660333872169,0.0000510896887814673,-0.663013398943122,1.14176574099993,0.000010181640689337,0.00185093222836101,0.0000101055634181356,0.000000000000000494841710403982,0.000526588492715696,0.00000769501017125004,-0.000214971829663454,-0.00000703999288612042,0.00245870745683191,-0.000197559305300234
"t14",-1.46689761427054,-2.37135721814852,-1.72933740183593,-1.33821577611927,1.61679295848589,1.91675389017547,-0.143018265861472,-0.106141222654534,-0.62764962796136,-1.09368765604092,0.684990929282598,1.1964143826572,"t14",0.382923331608027,2.61840514490247,0.661049117303525,-1.70782942456995,0.776442142813605,-0.00178513681894821,-0.00872799773445208,0.0146653357883441,0.0000748004660122349,-0.00111933606226319,-0.179559032328837,-0.00286973532484438,-0.0877296335549787,0.000674684738941528,-0.000486902063973187,0.000275367484419958,-0.00918961706204848,0.000642890995692575,-0.0061216213524011,0.00168554175337973,0.00505368077232402,-0.000738540297147211,-0.0221605664517568,0.0000165255964421673,-0.00172550501532386,0.0000372336792724246,0.000434606119754787,-0.0000177604378364989,0.000610402656331158,0.0000335230993021557,-0.0000292093888482137,0.00126692319375651,-0.196978469082754,-0.000159536014366542,0.0000277541357051861,-0.0000755516855271656,0.000114779346017764,-1.39585738952742,-0.0000116750290922654,-0.00000000000000587301132280284,0.0000106538112939901,-0.0000613925060002291,-0.646779073402407,-0.00000000000000192430977695443,0.00012894951784882,0.000328565257782998,-0.0000485012797527331,-0.128982193520677,0.0000157230919278995,-0.0000029101358551444
"t15",-3.7076254262507,-3.53973816633934,-5.14709058986435,-0.116955549863718,-2.25899307955681,-2.1953023328804,-1.63347726421252,-1.30037012690449,-1.85918180416352,-1.05188585434236,0.433015219145438,0.165940801214215,"t15",0.288528682570137,1.85674741199788,0.00789512841546924,0.521075902758488,-0.814729927060138,-0.378701218476864,-0.0108037250332589,-0.009742249725948,-0.000130412924788322,0.00222141411578284,0.725394871695673,0.014708434204988,1.99392438433034,0.0150871524758121,-0.00911440476628086,0.00313661009122836,-0.0815424626593041,0.00425042120467895,-0.0291228674236068,-0.0125971865717685,-2.14445984628437,-0.0127307330367032,0.0423605677396791,0.00025254195623906,-0.0331034783554566,0.00143534458355479,0.207337234376127,-0.000132404421269969,-0.205126810292825,0.000714019217459782,0.0000557989242414366,-0.00122474367357807,0.0185807814842805,-0.000168715474996428,0.0000576612858370312,-0.0010644508051009,-0.0000487799970392028,0.00179641803254444,-0.00000137459725495409,-0.000000000000000586073924548663,0.0000175935221306555,0.0000320012886933601,0.00041091874511777,0.9768774891,0.000104249594697137,0.000672757698877934,-0.0000424255746626374,-0.000255054560502617,0.0000217432613940615,-0.00000377471379451683
"t16",-3.66631125112466,-3.35240753042585,-6.06250198287654,-0.824846220648123,-0.499861516541036,-1.15060081583884,-1.81408121073418,-1.50863041905605,-1.37298407962428,-0.844685484140741,0.908872776533155,1.07460585035237,"t16",0.288528682570137,1.85674741199788,0.00789512841546902,0.521075902758488,-0.814729927060137,-0.378701218476864,-0.0108037250332592,-0.00974224972594791,-0.000130412924788367,0.00222141411578276,0.725394871695673,0.0147084342049882,1.99392438433034,0.0150871524758122,-0.00911440476628111,0.00313661009122823,-0.0815424626593044,0.00425042120468002,-0.0291228674236064,-0.0125971865717674,-2.14445984628437,-0.0127307330367037,0.0423605677396782,0.000252541956238747,-0.0331034783554577,0.001435344583553,0.207337234376126,-0.000132404421270815,-0.205126810292824,0.000714019217460224,0.0000557989242412033,-0.00122474367358059,0.018580781484281,-0.000168715475000025,0.0000576612858315788,-0.00106445080510044,-0.0000487799970416059,0.00179641803254598,-0.00000137459725381498,0.00000000000000107950670728192,0.000017593522113582,0.0000320012886957979,0.000410918745122473,-0.9768774891,0.000104249594703395,0.000672757698872459,-0.0000424255746685402,-0.000255054560503129,0.0000217432613952814,-0.00000377471379243756
"t17",-2.83932461421368,-0.43931627330853,-1.11926566696824,0.352725014271147,-3.04694821373139,-2.01346909960643,-0.390635388780472,-0.140523685212719,-0.583347299783585,1.41306163801442,-1.35324791291257,-1.02738317230373,"t17",1.29505495102655,-1.90353724912211,1.62595874497166,0.123751249853635,-0.067149339350786,-0.0525897461249503,0.420056120885309,0.0392010638416005,0.0525449422456756,-1.24479317451843,0.00549547304312067,-0.000712379321393012,-0.00149737975195578,0.317681929436897,0.0585532088973735,0.522881611452069,0.00274106442097557,-0.00374260408894197,-0.00262475881955792,0.0000158955373964999,0.0000551604549655164,-0.0190231755012688,-0.00006751950307757,-0.758246050318457,-0.00176786417391934,0.00236165595611714,0.000828334344578113,0.00963431999282848,-0.000749502291999479,-0.151814747398301,-0.022346809583675,0.00000578333632819758,0.00000350644641853705,-0.00000102396314412398,-0.000000194382928742881,0.0000392607888836968,0.0000133298229710509,-0.0000388894905491883,0.0000936217679224211,-0.00000000000000253534121351897,-0.000146366438159619,-1.37538409848987,0.000262680573140311,-0.00000000000000141025117494778,0.000616547812220756,0.00000779543619836694,-0.000214074480904536,-0.00000567039620252472,0.000907276946864467,-0.0779449021279829
"t18",3.7726215643913,2.93835202551716,4.4460285317198,1.4263212173358,-0.619102660440446,0.227096327621332,-1.19069247366868,-1.99898399912994,-1.3537514375477,0.847973845290255,0.33610257271036,-0.991808798803299,"t18",0.925825561975488,-1.25249512337942,-1.83145427813711,-0.806214600161704,-0.247695453237163,-0.0828150967547683,0.482933576454441,0.0241041286369541,0.831774023494467,-0.0222152594344674,-0.00356583874046794,0.000802194399810134,0.00205413601550563,-0.503291920539337,2.23970942392784,0.045236270755681,-0.025440115831943,0.0389001094277705,-0.111184509704443,0.000208723375044161,0.000582099777049145,-0.0901145490582232,0.000892279355992668,0.00166252747644665,-0.00298859933354673,0.0103025499315827,0.00628087122443444,0.446569944581549,0.00116555130160262,0.0152032941733696,-0.0000217025638355617,-0.0000763302849467315,0.000145215809328194,-0.0000483530931903357,0.0000170600029840978,-0.000315327814008529,-0.0000105812327216494,0.000012974509516857,-0.00000177621688361386,-0.00000000000000108370402226321,-0.000000324255090778339,-0.0000125840516171833,-0.00000111894690387028,-0.00000000000000382276905717105,-0.031437254460969,-0.000278140862126269,1.04923944438531,-0.000023555019617293,0.000305684001142766,-0.0000392915486833152
"t19",1.33686118510887,1.12382212228774,2.8790834258472,0.330370972331953,-1.04009223981855,1.21290409036401,0.370475159719307,0.906386939925389,-0.127650507968207,0.0647896015465155,0.193064951989879,0.787278089615065,"t19",0.962955256132646,-1.31163974744325,-2.10577404776245,-0.957251334030173,-0.309173419722095,-0.111972618991674,0.692782452526395,0.0398518949090157,1.63715708898739,-0.0457252623664311,-0.0113426081266976,0.00335422971163597,-0.00701599952786748,0.277183829131362,-1.01060099537183,-0.00724056621772891,0.000659853954567857,0.00342246387287537,-0.0164258472110983,0.0000456040983515398,0.000137579950770013,-0.0239642517197548,0.000225838681494359,0.000395881255212564,-0.000690491868432815,0.0021237751853641,0.00103662112770329,0.0572380136281329,0.000095750111862343,0.000962265400718859,0.0000678191301886286,-0.0000730826804659763,0.0000639799762185576,-0.00000862662166429572,0.000000607932224998643,0.000081599095124756,0.0000202924616344175,-0.0000468333343189962,0.00000851099227338175,-0.000000000000000876358524115783,-0.0000221036379845738,-0.000383686849437634,-0.0000258969149394055,-0.00000000000000380887599658004,-1.19368531009077,0.000120631214426873,-0.0431571828415089,-0.000031700449979898,0.000421921812214193,-0.00005350083712661
"t2",0.96574962759418,1.78776090442831,-0.356064286429341,0.600948946786246,-0.810305693133437,-1.43238169485553,0.320014078904418,0.429098574027927,0.672327533015392,-0.0196866968224275,0.606346534018703,0.232348482124888,"t2",0.85973545376312,-1.16600300997676,0.108493254342224,-0.00832194376197446,0.01571140272257,0.0218096210201958,-0.207137885109034,-0.0207640651945864,-0.0176563491901157,0.308755881820469,0.00845523055481431,-0.00289665298114366,0.00835654756690855,-0.289468735926602,0.0393268911519643,-0.0918330578972531,0.0349247393056378,-0.197810452770033,0.362700900281585,-0.00133346152098172,-0.00500921559922212,3.48000928043566,0.00897942703911972,0.0514182875156885,-0.0192866251437413,0.0453191994998134,0.0127710251134196,0.0976227529082544,-0.0026636636568079,-0.145567575673957,0.0110546542319651,-0.0036321750568674,0.00358339400431276,-0.000841029100343256,0.000265408010201402,-0.00451441327061391,-0.000186335187338482,0.000293830665574523,-0.000130054223197732,0.000000000000000464294354643712,0.0000641517093457669,0.00283893067872637,0.0000657357459106043,0.0000000000000000403188157369727,0.0031344109931903,0.0000452142996500677,-0.00126087498274701,-0.0000399068572407136,0.00166533826203396,-0.000279244654613821
"t20",0.457247948398011,-0.434022186411792,-1.40922851635699,-2.18346968649249,1.24849630121147,1.97217517890778,-0.379247754878732,-0.559481679659575,-0.489035694017292,-0.996233635333897,0.883268793891958,1.13045735406148,"t20",0.390128091777786,2.67548381145979,0.698371811265772,-1.82101857829104,0.838509587325457,-0.0019610314468513,-0.00969036131103503,0.0166182128264523,0.0000863307649197444,-0.00129685987874899,-0.213533425859009,-0.00344625254513099,-0.110859005593293,0.000914142125981727,-0.000666620414691925,0.000396651385381388,-0.0138630292782183,0.00104180360007623,-0.0106079841508199,0.00343765690124503,0.0112078892462096,-0.00235590922683332,0.480843030454257,-0.000102148269969849,0.00823312445242503,-0.000103907783944115,-0.000771371560496111,0.0000247008930187381,-0.000689978741900612,-0.0000354827343135973,0.0000136914530217201,-0.000435308696376699,0.0464612658066928,0.0000196250187214053,-0.00000184360716516377,-0.000000604999491172645,0.0000125270092522031,-0.189759751201239,-0.00000173674524615753,-0.00000000000000041132766395849,0.0000145880092804579,0.0000562718187440153,0.256162680808509,0.0000000000000000552374062431389,-0.00000870804396294634,-0.0000579548747642843,0.00000969475983081685,1.0476045461432,0.0000354591459070781,-0.00000226021494786744
"t21",3.29276338879265,3.01284038650609,5.87264117254156,0.333134305245613,-0.0452992366375654,2.06299713989636,1.07101623983933,0.0455716939513626,0.492610826379821,-1.85927128075131,1.89435487327377,1.42871219057854,"t21",1.13735056516638,-1.63236176449435,0.948342441852934,0.0608484145133226,-0.0235719986231589,-0.00675109212047766,-0.0152615393212303,-0.0171874312677941,-0.0507802660209151,1.38383712367475,-0.0162668213772709,0.00356079014000689,-0.00127612596813661,-1.69246229998663,-0.467855995427331,0.891055400836676,-0.0242746084852839,1.33375563748569,0.00577746176357394,0.000100433565206761,0.000335460316832899,-0.112701762927345,0.000180787927758366,0.0105918009601787,-0.000630123973273713,0.00196803582273415,0.000726442883168076,0.00690722832230431,-0.00032334512302537,-0.0458857195986601,0.00392214272188466,-0.000255914734051237,0.000272917864677842,-0.0000690134390256426,0.0000225281552079543,-0.000397200173670926,-0.0000162159913384087,0.0000247979415193502,-0.0000995743470697407,0.0000000000000000389604119761445,0.00000483279537975854,0.000857562359260801,0.00000461159191518626,-0.000000000000000915109191141989,0.0000502519788429424,-0.000000987309220729747,0.0000367806078301691,0.0000225729630191372,-0.901982463249579,-0.000449508308063646
"t22",-1.29187804699567,-1.63399937870708,-3.69203289942256,-0.768176343552439,2.18877447395912,1.17092163614946,-0.744147343775189,-1.00781236734381,0.482377524116927,-0.21511538304912,0.177083352274974,0.73976287480357,"t22",-4.54154412996354,-0.840724654729855,0.176293737688854,-0.199885324108079,-0.100433393048616,-0.0321993618095375,0.0530405236191636,0.118088677924893,0.00004131656417583,-0.00171387449229188,-0.0330704752971241,1.28093866034644,-0.000342270718179008,0.00179821941460526,-0.00120476241671944,0.000547230925682678,-0.00303477944706329,0.00154440937136293,-0.0137796083112143,0.000233356827023372,0.000217309574336911,-0.00192339160741323,0.000283898792087937,0.0000356359060477589,-0.000730721379016853,0.000201281979767404,0.000545511714263944,0.000404430953599175,-0.000116530121501158,-0.000194207399134417,0.0000183575944256795,-0.00018651295525846,0.00014597195857716,0.00147583238831258,-0.512275736395612,-0.000508368309482226,0.956035411804404,0.00012773677350272,-0.00000187648278407255,-0.00000000000000283844555050683,0.0932798779076934,0.0000174008137592728,0.0000119210070586227,-0.000000000000000835799807179359,0.000067710381717251,0.00000833978927986389,-0.0000267908388117656,-0.00000713847782267408,0.0000127925956022994,-0.00000214646476912129
"t23",-0.946148440605544,-0.944715116417588,-3.24638146407418,-0.6625723148391,2.02638165959211,0.51533689432045,-0.980306050598711,-1.42491713077154,-1.39963054429711,-1.34457025465019,1.25087630070387,1.24657707546782,"t23",-4.54154412996354,-0.840724654729855,0.176293737688855,-0.199885324108083,-0.100433393048611,-0.0321993618095368,0.0530405236191591,0.11808867792489,0.0000413165641751658,-0.00171387449229134,-0.0330704752971246,1.28093866034644,-0.000342270718179804,0.00179821941460297,-0.00120476241671956,0.000547230925683607,-0.00303477944706159,0.0015444093713599,-0.0137796083112093,0.000233356827022289,0.000217309574336975,-0.00192339160741172,0.000283898792088585,0.0000356359060500884,-0.00073072137901661,0.000201281979766712,0.000545511714263335,0.000404430953600468,-0.000116530121502182,-0.000194207399132569,0.000018357594422995,-0.000186512955264276,0.000145971958574627,0.00147583238831729,-0.512275736395619,-0.000508368309482346,0.956035411804398,0.000127736773495614,-0.00000187648278603332,-0.00000000000000188930094656418,0.0932798779076818,0.0000174008137609562,0.0000119210070654702,-0.000000000000000886816903827475,0.0000677103817204696,0.00000833978929118581,-0.0000267908388160174,-0.00000713847781076717,0.000012792595604128,-0.00000214646479503697
"t24",-2.12105813082072,-1.24992938084248,-1.01844985661404,1.2719283012582,-3.55679641237505,-1.60373203345791,1.40251971246689,1.59756487666196,0.357997566321954,-0.347592048157946,-0.530893392572605,0.232834314417882,"t24",1.30389505674105,-1.91854827580797,1.65809684578183,0.126596605318848,-0.0689883981910541,-0.0543355971296429,0.435499196244334,0.0409071113515208,0.0551449236300684,-1.30792661392029,0.00581960797468763,-0.000756567020450391,-0.00161334517343579,0.348619356450064,0.0644232786666255,0.582402976336316,0.00308543155127454,-0.00427751899971794,-0.00303971840858081,0.0000189343335537138,0.0000665396161291734,-0.0239595893072921,-0.0000947152168341278,-1.09968285270651,-0.00259902175714763,0.00361988351182391,0.00134302168629799,0.0162858679415145,-0.00132344880120222,-0.272296748368704,-0.0538005983050499,0.0000167119580167327,0.0000137678547568182,-0.0000110005365661697,0.00000475938153638834,-0.000113842081081432,-0.00000814793703990602,0.0000162828503343075,-0.0000341175478711046,0.00000000000000091281818749766,0.0000268965344570271,0.231774906984488,-0.0000419400465648728,0.00000000000000213449910663466,0.00000164607093566061,0.000000120415946592825,-0.00000344725258975627,0.000000266187447775269,-0.000122106284941833,0.815387834566227
"t25",2.37679575516014,2.27245768787276,3.2819152431935,-0.938813333082303,1.43031423529547,2.62102978557605,-1.08641179434895,-1.14576647717816,-1.04886660852303,-0.192434383729025,0.686107275583001,-0.513500407190118,"t25",0.241388898002308,1.4688616948517,-0.321339078109559,1.32390913077762,-0.292113354782593,2.59787798065828,0.47716205022133,0.496282593628223,0.000930839071746419,-0.0121479542959414,-0.67575877633356,-0.00204182554355503,-0.150009768391254,0.018773735740751,-0.0128761125453598,0.00864541020703212,-1.21647807019555,-0.00482124510441089,-0.0159020242358815,1.17480002562272,-0.00988871964982288,-0.00162730262570122,0.00936231462506378,0.000470998810078708,-0.235131096394173,-0.000648631027303074,-0.00233229572020187,0.0000105504265063156,-0.000328426873539256,-0.0000858527678997317,0.0000239955366895759,-0.000517349202755524,0.00235848776483533,-0.000087040085661836,0.0000294128094523339,-0.00054285017753684,-0.0000243878157823468,0.000255514745602074,-0.000000679334403720682,0.00000000000000119529419490925,0.00000828299701425257,0.0000149566097471657,0.0000558139561116299,0.00000000000000148086566963904,0.0000390442518536663,0.0000280089086623496,-0.0000137518158894287,-0.00000810125348355888,-0.000000926271228407237,0.00000815890172978877
"t26",2.22405777526296,1.23418596845659,-1.12434902526096,-0.607975354678133,0.100371883449323,1.69537386878779,1.05143865563294,0.210041874151994,1.00533889556031,-0.345511453577036,0.842032878395844,1.54057343616736,"t26",0.328498237623048,2.16350349217426,0.013036197344777,0.988953225899027,-1.98171115961623,-1.5751753316638,-0.0872441173577024,0.0764505527301083,0.000333550461915939,-0.00491740975550384,-0.782068550684478,-0.0128833201227191,-0.707604028086447,-0.00129569651142542,0.000550640553151922,0.000123460643410823,-0.0090185781971976,0.000914588164724256,-0.0103855663013108,0.00385476094124546,0.0358503563986009,-0.00228424320812454,0.0155505691400726,0.0001099098144782,-0.0155307185331953,0.000885845699613383,0.244369806813581,-0.00258905691179385,0.0455926364426806,0.000240954723349142,-0.00000451243433014228,0.000000621326184294197,0.000946452335752169,-0.0000157217798353733,0.00000637702193680612,-0.000137487320238541,-0.00000673723241108893,0.000240635405434862,-0.000000180889253214493,0.000000000000000690843143094128,0.00000199745071327851,0.0000035370082070784,0.0000446164065210326,0.000000000000000474754815090368,-0.0000140765144233007,-0.2930902923489,-0.0000842370196554554,-0.0000323908550863714,0.00000103210839242909,0.00000193980593404079
"t27",-1.30489104472939,-1.5311579703581,-3.06478404464445,0.145372847055582,-0.240169307193653,0.763577805870295,1.44955009386278,1.26311305133383,0.892518586952912,1.37468058002105,-0.396826678667509,-0.715411185175578,"t27",-4.55537270107874,-0.843682263036714,0.177849577712053,-0.201937856647822,-0.101662241058368,-0.0326771240456872,0.0539123136177346,0.120387509050387,0.0000422314618379703,-0.00175277835807899,-0.0339440476974337,1.31653150073664,-0.000354160049564469,0.00187689704844441,-0.00125903954659107,0.00057525751788538,-0.00320649402516247,0.00164397680246222,-0.0147636008835048,0.000253568933534433,0.000237649286833695,-0.00215101375850141,0.000336822199564496,0.0000431008357677201,-0.00089088627278405,0.000251626929888221,0.000706264798211793,0.000537936288948346,-0.000159587003670631,-0.000268829035656922,0.0000319479445116152,-0.000386328315163536,0.000440207267379384,-0.0164398452362668,0.605081113217476,-0.000136100974006408,-0.0573259855845177,0.00000292637576980611,-0.00000000350447860880375,-0.00000000000000514645221052422,-0.819645010736139,0.0000986119917931087,0.0000376667962726299,0.0000000000000044987947651412,0.000053102231533934,0.00000642573275908337,-0.0000206118587622881,-0.00000546083941212831,0.00000980912025655801,-0.00000166353790900295
"t28",-2.62951428782758,-2.78237907345135,-4.03684095595951,0.664337933409068,-0.547235855768092,-0.645038766689088,1.50473947411612,1.28815205299567,0.919244037948513,0.685893312857003,-0.752886222312821,0.210505718087978,"t28",-4.55537270107874,-0.843682263036713,0.177849577712053,-0.201937856647822,-0.101662241058368,-0.0326771240456879,0.0539123136177371,0.120387509050391,0.0000422314618388124,-0.00175277835807977,-0.0339440476974323,1.31653150073664,-0.000354160049563836,0.00187689704844563,-0.00125903954658823,0.000575257517884328,-0.00320649402515992,0.00164397680246088,-0.0147636008835045,0.000253568933534899,0.00023764928683319,-0.00215101375850258,0.000336822199565843,0.0000431008357679766,-0.000890886272785783,0.000251626929889374,0.000706264798212374,0.000537936288948398,-0.000159587003669475,-0.000268829035654425,0.0000319479445134101,-0.000386328315160672,0.000440207267379307,-0.0164398452362723,0.60508111321748,-0.000136100974003588,-0.0573259855845106,0.00000292637577306512,-0.0000000035044820974781,-0.00000000000000328325479966021,-0.81964501073613,0.0000986119917986411,0.0000376667962726741,0.00000000000000643557793525636,0.0000531022315340829,0.00000642573276062337,-0.0000206118587622001,-0.00000546083940936532,0.00000980912025099309,-0.00000166353791090291
"t29",1.90059255272435,0.89963010529211,1.41846942876782,0.972803378757401,-2.0018675544929,0.824680322593829,-0.0544941316354713,-0.752347679869982,-0.350621462174227,3.06609299703475,-2.25871386314271,-2.23277258972142,"t29",0.766259234520439,-0.989075227366315,-0.723592392758205,-0.0225062805325079,0.170945308310808,0.234521418739903,-3.23130580057356,0.77982848545617,0.0543763576249476,-0.393301338009025,-0.0427047690401036,0.0110080534952655,-0.0138017233346935,0.0928467087532865,-0.0572558572364524,0.0191258604864522,-0.0191984475958642,0.0311342427000721,-0.114313262875908,0.000233738275167736,0.000661736706381443,-0.0912983139906586,0.00140697462683418,0.00241808860467687,-0.00633785497794309,1.02086200495322,-0.00153835076620883,-0.00179075632848025,-0.0000498919659190724,-0.00112144465490945,0.000335760883035158,-0.000507674926639916,0.000560645672863705,-0.000147853045924259,0.0000495019518011736,-0.000912288131782795,-0.0000422316102111127,0.0000682181866779211,-0.00000890481931838315,0.0000000000000000316085682835102,0.0000154422474806336,0.000203392087618397,0.0000160474357946635,0.00000000000000124035568108403,0.000651499346695692,0.0000115660398005256,-0.00026457674662133,-0.0000103246780055101,0.000130918964297927,-0.0000214520532499862
"t3",-3.48580099545753,-3.91762032186757,-3.41528407651074,-1.62904665364552,1.13900643702319,1.84696659247743,1.26618975429534,1.2897714219392,2.18296864370834,0.517549445094314,-0.347209897937605,0.297620460468647,"t3",0.229320881952527,1.38390117093935,-0.273983699752056,1.09595077935625,-0.231841839598581,1.94303081716842,0.343322407888687,0.330012588454007,0.000573482588597527,-0.00735997645520648,-0.362710094512135,-0.0010432508944222,-0.0566703172018099,0.00375695945240631,-0.00224293221752129,0.00043868835251659,0.0684764711828622,0.00100481738329424,0.00523068153197097,-0.510877084318648,0.00215344901653435,0.00718872133002347,-0.0713582880607982,-0.00490755229795443,2.81422111141058,0.012675614425734,0.129681105680152,0.00910626598607339,-0.0186910066957276,-0.00377615274474786,0.000298570996291163,-0.00530260904407498,0.0206265914052921,-0.000648974831855951,0.000203001860642536,-0.00339969271164302,-0.000137537879039153,0.00142682365640034,-0.00000378836772004986,-0.000000000000000256967396147686,0.000046643864300486,0.0000844680852018271,0.000315825778572422,0.000000000000000228826747685543,0.000261639414874474,0.000210571158803504,-0.000105626181695907,-0.000184726698272028,0.0000523460788708243,-0.00000895332937535275
"t30",0.11820125843978,0.257880869933413,0.799253985650223,1.17323988184129,-2.02648040217366,-2.44331032085512,0.0832625942087269,0.156886098987766,0.511230651161256,-0.650958501805353,1.08402205811286,0.482839200688827,"t30",1.31162960435631,-1.93174626305861,1.68795201352476,0.129279951007912,-0.0707588362678732,-0.0560629682567364,0.451039331962063,0.0426801255570458,0.0579255960568686,-1.3758528583661,0.00618267743021745,-0.000806809100814209,-0.00175575004149657,0.390730446740449,0.0725355329678883,0.670909578395658,0.0036322582600917,-0.00521650810138762,-0.0038387618219807,0.0000262315525461505,0.0000971052433929821,-0.0454726960714489,0.000245468235364899,0.979939958870489,0.0016155076119032,-0.000659104280877686,0.000101563717880734,0.00291500623873892,-0.000331715218436099,-0.0736836356671546,-0.0233122650639448,0.00000777907019902858,0.00000675500453676039,-0.00000562670909808108,0.00000246314796962114,-0.0000586336548745578,-0.0000036134802484785,0.00000640309819058474,-0.0000125948258533379,0.00000000000000038045938930153,0.00000502408570192763,0.0356507399237355,-0.00000552883650563433,0.000000000000000224661698221971,0.0000397599364801011,0.000000542647073307311,-0.000014924951569726,-0.000000226803792147723,0.00000956542509907665,0.00358176898820597
"t31",-0.213573229977531,-0.947641547459384,-0.121320272555142,-0.530937502195973,0.984132311418036,2.37113160976238,-0.18635393774442,-0.244630320425464,-0.0138114675622802,1.21488338174582,-1.02821965028528,-0.0456591060876121,"t31",0.766426818892408,-0.989324634299845,-0.724039835499946,-0.0225223752054828,0.171089774850296,0.234759183939551,-3.23491099395523,0.780846338669215,0.0544562249127818,-0.393892198721261,-0.0427783368178266,0.011027894481565,-0.013831999557714,0.0930947492895175,-0.0574126102599442,0.0191840749081101,-0.0192617925143187,0.0312481437462929,-0.114765788812776,0.000234806603264755,0.000664934525227519,-0.0918165433807616,0.00141750289157508,0.00243735834729881,-0.00638956460792087,1.02975672048039,-0.00155280695100759,-0.00180842041922352,-0.000050406788960196,-0.00113319077038091,0.000340056980861307,-0.000514687017131895,0.000569087223233685,-0.000150371138292551,0.0000504169850399863,-0.000931730091003337,-0.0000434613678826632,0.0000704025818168113,-0.00000920004488067665,0.000000000000000370035483905868,0.0000160440756942701,0.000211468316543184,0.0000166919431898976,-0.000000000000000581846517281979,0.000689853804660904,0.0000123329269668033,-0.000282434166578392,-0.0000113180966803515,0.000145516623296298,-0.0000257755547985411
"t32",0.640463259135262,-0.0927327626773444,-0.0469557790157659,1.05676288427074,-1.068392304023,0.046782663438085,0.270985464608203,0.461375668587985,-0.208710531964068,-1.35287216554154,0.662840713386578,1.33487661971286,"t32",0.766426818892408,-0.989324634299845,-0.724039835499946,-0.0225223752054829,0.171089774850296,0.23475918393955,-3.23491099395523,0.780846338669215,0.0544562249127814,-0.393892198721261,-0.0427783368178267,0.011027894481565,-0.0138319995577142,0.0930947492895178,-0.0574126102599444,0.0191840749081101,-0.019261792514319,0.0312481437462929,-0.114765788812776,0.000234806603264336,0.000664934525227157,-0.0918165433807617,0.00141750289157527,0.00243735834729902,-0.00638956460792071,1.02975672048039,-0.00155280695100771,-0.00180842041922353,-0.0000504067889598633,-0.00113319077038073,0.000340056980861581,-0.000514687017132704,0.000569087223233735,-0.000150371138291635,0.0000504169850375583,-0.000931730091003015,-0.0000434613678827747,0.0000704025818172235,-0.00000920004488064377,0.000000000000000491611261009504,0.0000160440756908217,0.000211468316543138,0.0000166919431899758,-0.000000000000000768776011680878,0.000689853804660815,0.0000123329269681186,-0.000282434166578065,-0.0000113180966797645,0.000145516623295788,-0.0000257755547980881
"t33",0.282582878192631,0.46073474297491,3.95579241401889,-0.435571656655325,-0.710029773447809,0.126466684297938,-1.79479211380561,-1.66096919172879,-1.47367681137824,1.27052192511695,-1.56582864759678,-2.17476146848552,"t33",1.2255836484757,-1.78429533268038,1.33674193609035,0.0972240494914115,-0.0491380994567003,-0.034301937012119,0.251251134378878,0.0189248986500515,0.019155650932751,-0.420501305984834,0.000747029422543918,-0.000035482570199759,0.000780958978952346,-0.592829557405805,-0.126655493368598,-2.26254839509999,-0.0236579024109132,0.277399171305805,-0.0631771771843738,0.000150006458239461,0.000456580919565565,-0.143015606663533,0.000277403063694041,0.0854839759767949,-0.000915842837372213,0.00368342430812947,0.0018323011403784,0.0241260191215357,-0.00204236279946837,-0.423276099183713,0.228969520723466,0.000137446039307713,-0.0000354827301382511,-0.00000867239009031924,0.00000509931801454778,-0.000137508447167266,-0.00000847273499605538,0.0000142634898293566,-0.0000271059054006392,0.00000000000000040130328207761,0.00000375721995061348,0.00373305918228526,0.00000280886692740723,0.0000000000000000319154547533008,0.000175952997027792,0.0000025455321260407,-0.0000709685575774408,-0.00000216292540019022,0.000344589589981478,-0.000229188510688869
"t34",-0.226262087248959,-0.308372115726608,-0.588158842434149,2.12099909192219,-2.13923605342725,0.616526582955719,-0.110781485338486,-0.70931621547672,-0.45210507254056,-0.0634994193395517,0.0925443056211372,0.20293215061506,"t34",0.229123240676012,1.38214791146857,-0.270548288412771,1.07586252709171,-0.225181727390095,1.84980550455013,0.321459945962211,0.295679634266711,0.000484579474872573,-0.0061241202069975,-0.260590536107618,-0.00068961277169988,-0.00750388404235006,-0.009423677307233,0.00783998659070445,-0.0111521345931919,2.85213337122555,0.0383405838902758,-0.225115246929772,0.565018356085543,0.0184866098097104,-0.0146312767522984,0.0200330636341381,0.000669068957543099,-0.255733332169278,0.000218771501759924,0.0149750154172372,0.00152457298716803,-0.00391782663281284,-0.000840103244899077,0.000105981768223331,-0.00207512137939391,0.00878509073458848,-0.000302490354735511,0.000099099249278487,-0.00176704713788967,-0.0000781721479567983,0.000826441356965164,-0.00000220801542450215,0.000000000000000165933346934633,0.0000278749174239113,0.0000506066164099546,0.000189502964387742,-0.000000000000000985929020002075,0.000163215161758511,0.000132490008912056,-0.0000665373904225699,-0.00011855868394817,0.000033784990004604,-0.00000585035024009459
"t35",-0.31204024163074,-0.0189206318302292,-0.461674230336999,2.73655698683748,-1.78255608936675,-0.510414608122841,-0.351737474130502,-0.367011675333353,-0.101779291048668,1.88652410332369,-1.8465386315258,-1.4101086182926,"t35",0.229123240676012,1.38214791146857,-0.270548288412771,1.07586252709171,-0.225181727390095,1.84980550455013,0.321459945962211,0.295679634266711,0.000484579474875276,-0.00612412020699775,-0.260590536107618,-0.000689612771700181,-0.00750388404234916,-0.00942367730723267,0.00783998659070389,-0.0111521345931916,2.85213337122556,0.0383405838902754,-0.225115246929773,0.565018356085541,0.0184866098097086,-0.0146312767522976,0.0200330636341386,0.000669068957543732,-0.25573333216928,0.000218771501759919,0.0149750154172389,0.00152457298716913,-0.00391782663281175,-0.000840103244900212,0.000105981768224181,-0.00207512137939417,0.00878509073459072,-0.000302490354735825,0.000099099249273353,-0.00176704713789028,-0.0000781721479488803,0.000826441356963395,-0.00000220801542310573,0.00000000000000030046768175638,0.0000278749174311891,0.0000506066164085527,0.000189502964387776,0.000000000000000964892470538706,0.00016321516176027,0.000132490008907343,-0.0000665373904205907,-0.000118558683950811,0.0000337849900029079,-0.00000585035024280178
"t36",-4.25024255603417,-3.54274761091654,-4.23095952950338,-1.83472984810262,-0.178487921263562,-0.472425637903303,-1.3835409556671,-0.832004367877287,-0.307748529640641,0.239154752271663,-1.15790337306623,-0.59235829923476,"t36",0.291967785081188,1.88244565172536,0.00818584700933924,0.543779364302793,-0.858033694004254,-0.403910633899259,-0.0116169076455295,-0.0106466060278116,-0.000144710875118682,0.00247308852238941,0.826540427050232,0.0169131180677306,2.41534740759155,0.019940546578725,-0.0122295066050856,0.00457716074582288,-0.131026089688717,0.00844970368431434,-0.081943340905369,0.0361632254766228,1.60145632543648,-0.00459492956693676,0.035820604283138,0.000239436959733321,-0.0328645201216276,0.00165596630363753,0.310171121436553,-0.000265539332691917,-0.721236306435631,0.00366687914038413,-0.00000140044582211947,-0.000239891192599601,0.00609217122064261,-0.0000731844223049589,0.0000276107522146568,-0.000567159181759813,-0.0000292375688200969,0.00109990977334146,-0.000000847385994560104,0.00000000000000013326089050939,0.0000111351388283448,0.0000203061554461297,0.000261144013977863,-0.0000000000000000315665083995226,0.0000688120411990642,0.000447639633894858,-0.0000282598764882828,-0.000172829957628841,0.0000148098506321667,-0.00000260643533877391
"t37",-4.17727297188044,-3.87599838545896,-3.89292966848255,-4.89602524704098,2.24550451733188,2.3222292192983,0.590707812426137,0.541742880168428,0.81156580446166,1.37850044156635,-0.556602028966224,-0.809401597942484,"t37",0.291967785081187,1.88244565172536,0.00818584700933905,0.543779364302793,-0.858033694004254,-0.403910633899258,-0.0116169076455293,-0.0106466060278114,-0.00014471087511873,0.00247308852238903,0.826540427050232,0.0169131180677307,2.41534740759155,0.0199405465787251,-0.0122295066050849,0.00457716074582362,-0.131026089688717,0.00844970368431438,-0.0819433409053694,0.0361632254766262,1.60145632543648,-0.00459492956693576,0.0358206042831388,0.000239436959733897,-0.0328645201216278,0.00165596630363701,0.310171121436551,-0.000265539332691592,-0.721236306435633,0.00366687914038382,-0.00000140044582211424,-0.000239891192600992,0.0060921712206433,-0.0000731844223074801,0.0000276107522166415,-0.000567159181758512,-0.0000292375688179371,0.00109990977334218,-0.000000847385993962425,0.000000000000000238171889124577,0.0000111351388278289,0.0000203061554463202,0.000261144013977697,0.000000000000000765687594608925,0.0000688120411973744,0.000447639633894566,-0.0000282598764881737,-0.000172829957627403,0.0000148098506318695,-0.00000260643534113298
"t38",3.08731010270888,2.8376606450479,2.64004576731967,0.75149020471601,-1.17138230871673,0.321392078595178,0.0355132016034733,-0.0464980968068067,-0.359125791708968,0.581173079871626,-0.257740383925097,-0.0429140993279133,"t38",0.971303948084852,-1.32477539636479,-2.15855746927066,-0.985152546668681,-0.319902008615986,-0.116679256419443,0.725018130210224,0.0420452956816706,1.7395357934274,-0.0486557323749877,-0.0121871986372344,0.00361680059977557,-0.00770054732988788,0.311117411018482,-1.13792424016129,-0.00827486071677424,0.00076375231961648,0.00403442162214364,-0.0196695074564893,0.0000564574951424124,0.000172859231859431,-0.0316543083067001,0.000336858112885169,0.000612546282497294,-0.0010843801529296,0.00348937071600797,0.00180832097895799,0.10432028440866,0.000182590140625104,0.00186475310415572,0.000175656084622341,-0.000224060170621339,0.000255655886726683,-0.0000697239019656419,0.0000238365171502453,-0.00045692813583588,-0.0000239901886967127,0.0000411120662152983,-0.00000674755372151422,0.000000000000000526011337290434,0.0000112425907316383,0.000185788600809689,0.0000121707902642278,0.000000000000000714975586526756,0.204947340885274,-0.0000146550926575712,0.00496411980059086,0.000000832760021509789,-0.00000235593625581574,-0.00000128085478854034
"t39",2.4871888931685,2.30374955574364,2.96441366184448,0.477889467511809,-0.708078949074942,0.876161492281017,1.68240972848315,1.18806312777401,0.578012751817879,0.962220908080586,-1.23904194269231,-0.190495485157117,"t39",1.13997561562264,-1.63670801882882,0.954571151346196,0.061311326834087,-0.0237843694025609,-0.00682426020688817,-0.0154438671738811,-0.0174283929940259,-0.0515835527128581,1.40623984429056,-0.0165698940111675,0.00363029312512115,-0.00130663883888082,-1.74214000962935,-0.481944902236809,0.921041465989619,-0.0251639748809265,1.38826830754897,0.00603429093675566,0.000105643017471704,0.000353941159339216,-0.120103324312986,0.000196955727774861,0.0116095747524092,-0.000692332880296149,0.00217766961664102,0.000810978955898483,0.00775846202525605,-0.000365395028414805,-0.0519609742421267,0.00458623527575611,-0.000303670930526389,0.000329898494825229,-0.0000860219708198435,0.0000287540371355043,-0.000532477056978321,-0.0000255369412329617,0.000041972846757575,-0.000173751640174462,0.000000000000000191113054804102,0.0000101197181529247,0.00184445805786153,0.0000100897029490961,0.000000000000000770967934879091,0.000612278858924999,0.00000978094834717052,-0.000277701992218575,-0.0000194197869299739,0.438238357540861,-0.0000230374041842223
"t4",-0.746634104193803,-0.468402082713961,-1.65868438123049,1.22622947887905,-1.76471513234756,-0.177589754319181,-0.79897654762195,-1.07031084015904,-1.19615736579063,0.872445629516669,-0.35543837681112,-1.77763951563945,"t4",0.286629721226221,1.84265856519599,0.00774889656228216,0.509944222080945,-0.794259023456982,-0.367383237658376,-0.0104507570264473,-0.00937583725498652,-0.000124995180763667,0.00212744405665153,0.691456462628117,0.0140002594850629,1.89052442740899,0.0144168090118942,-0.00873509684351914,0.00307787559844619,-0.0832592076582153,0.00490121605093467,-0.0434526719506757,0.0151054288353251,0.583410784566227,-0.000761839932443284,-0.016768325299372,-0.000172003115031135,0.0272812042936233,-0.00201120564656169,-0.576362234736138,0.000654609720999299,2.3580861342127,-0.0132522528473059,0.000232787965636277,-0.00398523063476998,0.0505995015703271,-0.000390598250199816,0.000123896824042226,-0.00208335565704961,-0.0000846980307917083,0.00304650310626606,-0.0000023133812398433,0.000000000000000301814276472671,0.0000287307915157174,0.0000521034313321919,0.000667856799750588,0.000000000000000122156065824437,0.000162006523302045,0.00103544377354559,-0.0000652115556721569,-0.000383958182145349,0.0000325263089145902,-0.00000555257528019163
"t40",2.28892662333746,2.26231845260083,3.74873026414778,0.489546748244555,-1.26256369383672,0.219129221598888,-0.715137293061729,-0.94086552438093,-0.755790409890726,-0.159877179290559,0.536126608166034,-0.29009642467106,"t40",1.13997561562264,-1.63670801882882,0.954571151346196,0.0613113268340873,-0.0237843694025606,-0.00682426020688827,-0.0154438671738811,-0.0174283929940261,-0.0515835527128575,1.40623984429056,-0.0165698940111674,0.00363029312512085,-0.00130663883888106,-1.74214000962936,-0.481944902236809,0.921041465989619,-0.0251639748809264,1.38826830754897,0.00603429093675576,0.000105643017472253,0.000353941159339027,-0.120103324312986,0.000196955727774803,0.0116095747524099,-0.000692332880297774,0.00217766961664085,0.000810978955898277,0.00775846202525598,-0.000365395028415128,-0.051960974242127,0.00458623527575597,-0.000303670930526597,0.000329898494825579,-0.0000860219708218574,0.0000287540371370129,-0.000532477056978532,-0.0000255369412350751,0.0000419728467577327,-0.000173751640175118,-0.000000000000000058662990305281,0.0000101197181523244,0.00184445805786049,0.0000100897029486108,0.000000000000000636760688835229,0.000612278858925306,0.00000978094834693131,-0.000277701992216747,-0.0000194197869295692,0.43823835754086,-0.000023037404182904
"t41",2.75232801804686,2.63777759315149,0.332282243450518,0.443028999017628,-1.29486083874411,1.14792181345887,-0.745709585844396,-1.25047409130952,-0.38170396537881,-0.212493701996663,-0.0818554666212143,-0.0433006743552795,"t41",0.329448364145245,2.17072247160405,0.0131435376424393,0.998386162616175,-2.00409930931712,-1.59658607576837,-0.088551468075606,0.0777951910688044,0.000340171107757526,-0.00501730181096436,-0.80035673837245,-0.0131989690418684,-0.728850486064201,-0.00134348105604034,0.000571476248671536,0.000128683074532226,-0.00943403653071956,0.000961609589948257,-0.0109665274360965,0.0041065616558452,0.038338459871518,-0.00247344406115916,0.0173091632490837,0.000123275409110984,-0.0174716991221676,0.00100540577529459,0.280444103804707,-0.00299415247139837,0.0531266574405552,0.000281503908563909,-0.00000548815867023068,0.000000769738084463107,0.00120016283664288,-0.0000207237150796206,0.00000866239984260969,-0.000198836845673678,-0.0000120389549338547,0.000474733033795281,-0.000000372474613983748,-0.000000000000000546699757968152,0.00000540396816125328,0.00000999055206592613,0.000129600283956156,-0.0000000000000017239089867251,0.0000725365361088235,0.500549829729712,0.000125247965940579,-0.0000234970434910188,0.00000308834812458736,-0.000000953901345206347
"t42",-2.3336689916503,-2.41775459544993,-2.40425401177609,0.919987589729831,0.253967278477249,0.212863098274124,-0.240790762261299,-1.01951623967136,-0.442953459019778,0.134734359357217,-0.372016231102361,0.0774014820332336,"t42",0.260090930436137,1.63262073366456,-0.0751543561430817,0.560197074368083,-0.383874610569017,0.284693811346316,0.0376343051183408,-0.0775050429118927,-0.000579679004626679,0.00948768665576824,3.17043435713806,0.0747627038448931,-1.29739338213934,0.0151599493422142,-0.0097224167670576,0.00399068896910652,-0.115399334933564,0.00716644449041338,-0.0643855466540835,0.0167299950878456,0.028768257851951,-0.00808986320226458,0.0197912536649421,0.00018272557964187,-0.023061388076631,0.000833453189521966,0.0372784837960619,0.00121959357521713,-0.00791890720734728,-0.000666156818716697,0.000084502450778636,-0.0016720221023345,0.0151817366196375,-0.000225855151281355,0.0000746687180908376,-0.00133570434443251,-0.0000589179232257413,0.00133939043514854,-0.00000165087041908882,-0.0000000000000000501893554742422,0.0000207955699145053,0.0000377494019775903,0.000302758507833336,0.00000000000000104541430781002,0.000119515321738541,0.000204553288308878,-0.0000483091617792163,-0.000177732498909507,0.0000236841252465222,-0.00000388859847483007
"t43",0.667122704860222,-0.22485994253245,-0.804157524306887,4.9022684690651,-5.4945433260772,-6.0866443476075,-0.990731807717328,-0.185721962821021,0.189388230864612,0.448878654229069,-0.3929777034733,-0.471292902983183,"t43",1.17320285429419,-1.69265395028319,1.05290662811584,0.06908220258641,-0.0276799135293179,-0.00834930025875703,-0.0195837433485541,-0.0239862137540798,-0.0779450136057417,2.17373260806624,-0.0311518241234511,0.00754459062357588,-0.0115135561548271,1.61937475852992,0.336642834845123,-0.13858288458314,-0.00129274448380133,0.259647446245295,-0.00226369454109887,0.0000471374866147577,0.000164750170777376,-0.0618764175005065,0.000112007281400051,0.00669529492791173,-0.000401133333233024,0.00127631094153736,0.000480468969205355,0.00462292884267878,-0.000218717502563262,-0.0311449763319952,0.00278123128783127,-0.000184448172339445,0.000200393184735187,-0.0000521005151230179,0.0000173478601123214,-0.000317904942145817,-0.0000146269876023518,0.0000235969698397488,-0.0000907644149831391,0.000000000000000118327369842075,0.00000540954196849167,0.000980270355474057,0.00000534292310196413,0.00000000000000140816197837623,0.000269769072912188,0.00000390573624740068,-0.000108953650721601,-0.0000034492790660677,0.00111438949544228,-0.0000882077187786023
"t44",-0.538503356336023,0.0600370544169349,-2.6834736649877,0.886031316014703,-1.15305554989186,0.280721403411942,1.23062325657005,1.47444832858924,0.916954451701272,-0.135781234009823,0.655011567223927,0.497604221687352,"t44",0.329465212960195,2.17085044663958,0.0131454338807852,0.998552648057247,-2.00449395580642,-1.59696288511402,-0.088574453855429,0.0778187896488948,0.000340287119447994,-0.00501905163004162,-0.800676419963991,-0.0132044824521986,-0.729220209447812,-0.0013443087914404,0.000571836940773785,0.000128773216630993,-0.00944119003209234,0.00096241643944222,-0.010976467588442,0.00411084469211616,0.0383806752564391,-0.00247662826794694,0.0173382487681267,0.000123495427036798,-0.0175035919469257,0.00100735978485468,0.281029775987146,-0.00300069948763616,0.0532478819544108,0.000282155369757204,-0.00000550348265561403,0.000000772045948143016,0.00120405945945787,-0.000020799041125602,0.00000869631720795633,-0.00019972153853296,-0.0000121093527930978,0.000477742952003423,-0.00000037490645740258,0.000000000000000240336813676171,0.00000544431750050022,0.0000100662947105251,0.000130592000450161,-0.00000000000000147784672526407,0.0000732851984343393,0.506189568844626,0.000126677425355186,-0.0000238389264697752,0.00000313764820358842,-0.000000974852040357483
"t45",1.48701034697956,1.72802726821913,-1.25957511422908,0.421783470516474,-1.0764959592264,0.820646535175554,0.38683805907745,0.20470003920103,0.118517842903747,-0.562347936245777,0.619081792884667,0.292408353122466,"t45",0.329465212960195,2.17085044663958,0.0131454338807845,0.998552648057247,-2.00449395580642,-1.59696288511402,-0.0885744538554289,0.0778187896488945,0.000340287119447558,-0.00501905163004225,-0.800676419963992,-0.0132044824521986,-0.729220209447812,-0.00134430879143917,0.000571836940773928,0.00012877321663092,-0.00944119003209258,0.000962416439441966,-0.0109764675884432,0.00411084469211588,0.0383806752564397,-0.00247662826794646,0.0173382487681268,0.000123495427037547,-0.0175035919469258,0.00100735978485362,0.281029775987145,-0.00300069948763525,0.0532478819544105,0.000282155369757641,-0.0000055034826541889,0.000000772045947236025,0.00120405945945816,-0.0000207990411264046,0.00000869631720723912,-0.000199721538532691,-0.0000121093527905811,0.000477742952003469,-0.000000374906456218491,0.00000000000000040762445516591,0.00000544431750060843,0.0000100662947104042,0.000130592000451162,-0.00000000000000124777881902709,0.0000732851984349682,0.506189568844625,0.00012667742535323,-0.0000238389264705962,0.00000313764820481368,-0.000000974852042288542
"t46",1.12794270376459,0.69687922660411,2.35587365294829,0.940496134072455,-2.87546932747536,-2.29017198020723,0.841537508578943,0.21129522069123,0.568662963710275,-2.28214836610956,2.29797721920252,1.2496691073139,"t46",1.31420594015862,-1.93612245486316,1.69736083883015,0.130114072266927,-0.0712990075755414,-0.0565772012797351,0.455596472318273,0.0431854864424865,0.0586985934675764,-1.39463804511695,0.00627967501891516,-0.000820062233716121,-0.00179097976508795,0.400321172009101,0.0743612538875239,0.689737729291253,0.00374302271711209,-0.00539348472697256,-0.00398008596852731,0.0000273530450994561,0.000101505625974706,-0.0479126928083592,0.000263137499711152,1.05541652569788,0.00174313752278618,-0.000715014476662268,0.000110918525298943,0.00319814418469824,-0.000365572950725033,-0.0813294580372373,-0.0263371369061856,0.00000888004119369637,0.00000781064820646665,-0.00000664206569625389,0.00000295307636663166,-0.00007249742385839,-0.00000488978641666693,0.00000897871227814269,-0.0000179141081958897,0.000000000000000257723825551816,0.00000771208963202309,0.0552761279471357,-0.00000862619010331759,0.000000000000000133102552585619,0.0000833108902692411,0.0000013131891546517,-0.0000370303198783927,-0.00000139539290588123,0.00024478923767485,-0.00576295794024015
"t47",3.01657045335777,3.88453897302782,4.31127557706854,1.45235924168681,-1.66571764374915,0.725015844847409,-0.45559700823421,-1.14502378053425,0.000659934674370101,0.101459647043681,-0.417038181415072,0.41097874045275,"t47",0.236812754375732,1.43652385274333,-0.302512455401323,1.23215832228971,-0.26743511530578,2.3234145428054,0.420233131371719,0.42349016858155,0.000770188509698454,-0.00998335262794798,-0.528624392997478,-0.0015654455689138,-0.101734502626715,0.0100112741132254,-0.00655146275833447,0.00325909169834231,-0.28651805912446,0.000181313505794956,0.00601248250788232,-2.26020647480608,0.0373374271461482,-0.0143018414234428,0.0257444639871191,0.0011941554743616,-0.581248508410025,-0.0015106142554505,-0.00514987429746255,0.0000226598342510007,-0.000689947468763612,-0.00017915848773915,0.000046937477807254,-0.00099642632617985,0.00448427836004781,-0.000163630692473278,0.0000551031191325694,-0.0010179521229553,-0.0000472290237652434,0.000504216214475318,-0.0000013514553530469,-0.00000000000000043228303895825,0.000017281902925028,0.0000314156903807655,0.000117730848163536,-0.00000000000000058907295592509,0.000103449960578431,0.0000843544500012861,-0.0000423897180860684,-0.0000763111484071078,0.0000218203655493582,-0.00000383375396414595
"t48",2.43251413920676,2.91766025326452,3.16774890423237,1.6226401665053,-1.48846374147013,0.776294772614594,0.0135382641605729,0.272310086644768,1.44537888334587,1.46219007861839,-1.04361883839615,-0.887394447939942,"t48",0.236812754375732,1.43652385274333,-0.302512455401323,1.23215832228971,-0.26743511530578,2.3234145428054,0.420233131371718,0.423490168581551,0.000770188509699143,-0.00998335262794895,-0.528624392997477,-0.00156544556891366,-0.101734502626715,0.0100112741132252,-0.00655146275833296,0.00325909169834286,-0.286518059124461,0.000181313505794889,0.00601248250788212,-2.26020647480608,0.0373374271461497,-0.014301841423442,0.0257444639871194,0.00119415547436252,-0.581248508410024,-0.00151061425545111,-0.00514987429746241,0.0000226598342491806,-0.000689947468763354,-0.000179158487738188,0.0000469374778053056,-0.000996426326178688,0.00448427836004561,-0.000163630692473156,0.0000551031191347711,-0.00101795212295726,-0.0000472290237656834,0.000504216214470662,-0.000001351455351713,0.000000000000000957625976742164,0.0000172819029249968,0.000031415690380356,0.000117730848162142,0.00000000000000122020060475485,0.000103449960581902,0.0000843544499956702,-0.0000423897180802308,-0.0000763111484101071,0.0000218203655522793,-0.00000383375396242343
"t49",0.552458730722665,0.110770077103,-1.62892650331346,-1.97372450953996,0.968094936503978,2.68580253039577,-0.294750541733497,-0.561483693579575,0.17101035303964,1.77343700000093,-2.03016739269557,-1.36426663112429,"t49",0.329044618542207,2.16765362040709,0.0130977058740409,0.994353846067167,-1.99451405959436,-1.58740068844044,-0.087989916042849,0.0772163031224195,0.000337315188660122,-0.00497419437591105,-0.792443612280309,-0.0130622590337438,-0.719604756652076,-0.00132256571399062,0.000562349079745773,0.000126386808480914,-0.00925079031723219,0.000940778403650392,-0.0107082014972528,0.00399374934875243,0.037220114923106,-0.00238750560927442,0.0164920234169937,0.000117026567906722,-0.016562032283779,0.000948974279950647,0.26326699143097,-0.00280009644270607,0.0494962418789602,0.000261924999271639,-0.00000500244125140374,0.000000694848648845935,0.00106997058136405,-0.0000180865585614349,0.00000743281700655451,-0.000164472671235526,-0.00000869718551007538,0.000320117120491756,-0.000000243545721969069,0.0000000000000001401829111125,0.00000286828810328731,0.00000512228507251704,0.0000649559312511295,0.00000000000000229036442600101,-0.0000263033250110895,-0.61859808882212,-0.000181575300308671,-0.000146938629466096,0.0000118835026790141,-0.00000254331604172943
"t5",2.39645224973913,1.42560917562305,0.231484680505085,3.7333314276711,-3.82756679084695,-2.44642233999283,0.584992588914448,0.966906865505958,1.37941545901742,-0.563500047853315,0.972086650763947,1.40914646355352,"t5",0.897917369664611,-1.20882526990868,-1.66923268319906,-0.722842517632141,-0.217033189843579,-0.0703072734879943,0.401834536333403,0.0192761381582614,0.64109107663023,-0.0169879444010633,-0.0025810703634807,0.000568425067590525,0.00129391608300699,-0.263885381496117,1.13950905486589,0.0196274979585242,-0.00933965846630326,0.0103608566736423,-0.019459414497995,-0.00000709322919273619,-0.0000781030934940597,0.0460937690557419,-0.00156219675711433,-0.00373822388628516,0.00738689135505544,-0.0334037396197132,-0.0284986848598435,-2.57160576890328,-0.00859078979891605,-0.122506887156801,0.00338954281009804,-0.00309874119869654,0.00274888007715016,-0.000585062187350847,0.000176626830763791,-0.00284725134137074,-0.000110507962103979,0.000172585584814545,-0.0000273165947418057,0.000000000000000412881809026848,0.0000372244236283992,0.000597851698220227,0.0000384592963114513,0.000000000000000322816366395525,0.027001473795658,0.0000302781129468909,-0.0277983002673447,-0.0000208730591851393,0.000325105178237173,-0.0000552043858389682
"t50",1.05604766641881,0.571944456199445,-1.10046323546503,-1.01028746410855,0.556082072429512,1.57099910985558,0.992433281405607,0.793112190760314,0.955544930041848,-0.189995772783306,-0.30941667348704,1.00424042140396,"t50",0.329044618542207,2.16765362040709,0.0130977058740411,0.994353846067168,-1.99451405959436,-1.58740068844044,-0.0879899160428491,0.0772163031224195,0.000337315188660467,-0.00497419437591127,-0.79244361228031,-0.0130622590337436,-0.719604756652075,-0.00132256571399138,0.00056234907974659,0.000126386808480324,-0.00925079031723229,0.000940778403649351,-0.0107082014972517,0.00399374934875233,0.0372201149231062,-0.00238750560927446,0.0164920234169942,0.000117026567905509,-0.0165620322837792,0.00094897427994989,0.263266991430971,-0.00280009644270455,0.0494962418789606,0.000261924999272332,-0.0000050024412517754,0.000000694848649363456,0.00106997058136506,-0.0000180865585640359,0.00000743281700740497,-0.000164472671235579,-0.00000869718551626073,0.000320117120491415,-0.000000243545724222801,0.000000000000000429939538226971,0.00000286828810600509,0.00000512228507249261,0.0000649559312516666,0.0000000000000022903640432647,-0.0000263033250108908,-0.61859808882212,-0.000181575300308559,-0.000146938629465963,0.0000118835026791326,-0.00000254331603908906
"t51",-0.259158318954656,-0.058175810137013,-1.20477773787492,-2.72760197381343,0.881574188731032,3.4064242813849,-0.291423421246851,-0.16631462425863,0.569607075423609,-2.19779388246157,2.3320824198016,1.54886313043394,"t51",-4.29981875321505,-0.788106507701804,0.141934787293918,-0.151472968357979,-0.0685338708223394,-0.0179360387281962,0.0244219182308786,0.0254774872236851,-0.000004523362981254,0.000337794316236506,0.0372955610855349,-2.26109202301022,-0.00800420205684436,0.00681448078873398,-0.00428156493811538,0.00159835866101141,-0.00805740257612716,0.00377072846571679,-0.0321683288853545,0.000516678919089729,0.000474998961887691,-0.00412869426495782,0.00062753620645215,0.0000802568761611956,-0.00165958789831892,0.000470204065971917,0.00132979406908221,0.00102050910410864,-0.000305569238183297,-0.00051661339169638,0.000067350133568718,-0.000881525351198143,0.00120247752887978,-0.754175351202611,-0.00542532957740412,-0.000107784454570721,-0.00182451336002461,0.0000312860460430106,-0.00000056694501197129,0.00000000000000125613691202676,0.000750805748987232,0.0000139495070375545,0.00000804746914211154,0.000000000000000911988842346727,0.000048843013615536,0.0000062507891177882,-0.0000201781765975818,-0.00000574273644416739,0.0000104521339147095,-0.00000180324428148037
"t52",2.25534028685344,1.24794383589717,4.15266745098585,-0.0346739845835139,-0.0311145662007096,0.775620818609155,1.43791198256329,1.40469798030251,0.445147817238619,-0.0490760029037118,-0.328902799923787,-1.07090939000181,"t52",0.929187812065134,-1.25774414979279,-1.85045847721907,-0.815914161506321,-0.251229324023455,-0.0842389072571345,0.492095762428657,0.0246418415172388,0.852746756350281,-0.0227887101117151,-0.00367202250986812,0.000827241742159704,0.00213303867787287,-0.527150044867592,2.3487161938903,0.047705162688833,-0.0269561915562903,0.0414970189919569,-0.119286186726206,0.000226601021216645,0.000635225235910552,-0.100023753920153,0.00102917895976176,0.0019385091872645,-0.00349971647546793,0.0122192672759178,0.00757085826326034,0.544418181720199,0.00143703128416699,0.0188177264194065,-0.0000285762797359553,-0.000103505995911513,0.000204577710569983,-0.00007277395775919,0.0000270934866852682,-0.000564451533624484,-0.0000315891698193143,0.0000541351733436026,-0.00000886435134068646,0.000000000000000934673981775577,0.000014284627985903,0.00023437468390255,0.0000152795541293338,0.00000000000000208490088638148,0.0259855146890159,0.000141492718202504,-0.496230067991282,0.00000132353268778692,0.00000978915832218522,-0.00000849301976824981
"t53",3.17503209649843,2.79966679762442,4.84647107327167,-0.945552458782844,0.461055065393213,1.90400229543079,0.887229586679145,1.35107922036044,1.82686818476466,0.41841224990999,-0.824217968709801,0.619027569826996,"t53",0.929187812065134,-1.25774414979279,-1.85045847721907,-0.815914161506322,-0.251229324023455,-0.0842389072571346,0.492095762428657,0.0246418415172385,0.852746756350282,-0.0227887101117156,-0.00367202250986837,0.000827241742159768,0.00213303867787349,-0.527150044867592,2.3487161938903,0.0477051626888326,-0.0269561915562906,0.0414970189919567,-0.119286186726206,0.000226601021217003,0.000635225235910724,-0.100023753920153,0.00102917895976169,0.00193850918726468,-0.00349971647546839,0.0122192672759187,0.00757085826326028,0.544418181720199,0.00143703128416697,0.0188177264194064,-0.0000285762797357045,-0.000103505995908516,0.000204577710569991,-0.0000727739577612559,0.0000270934866835397,-0.000564451533624187,-0.0000315891698184121,0.0000541351733435033,-0.00000886435134101938,0.00000000000000083407830153561,0.000014284627988982,0.000234374683902577,0.0000152795541292453,0.00000000000000187400463626082,0.0259855146890169,0.000141492718203147,-0.496230067991284,0.00000132353268770907,0.00000978915832384205,-0.00000849301976826941
"t54",1.6470906484976,0.461448021198054,-0.0452181375123525,4.87552508307475,-5.60570047177774,-5.66537831314616,0.563542771594087,0.999656040304704,0.383996198938694,0.843668005196556,-1.53787646493489,-1.13466872872715,"t54",1.17389698334801,-1.693808515789,1.05466612235269,0.0692156742691316,-0.0277430923463133,-0.00837215207556406,-0.019642713911496,-0.0240706680000129,-0.0782537125490319,2.18253733159861,-0.0312964328305586,0.00758122574863792,-0.0115815302198796,1.63100335305784,0.339119766519677,-0.139715601266755,-0.00130419093923793,0.262194159624077,-0.0022877012096991,0.0000477137448923457,0.000166878186682573,-0.0628131455238505,0.000114232200363157,0.00683675223589903,-0.000409806086612052,0.00130573751947362,0.000492395555531832,0.00474323909004564,-0.000224664992944253,-0.0320042941941872,0.00287441634719186,-0.000191102016538683,0.000208248706173307,-0.0000543991127042522,0.0000181754993953637,-0.000335266577603922,-0.0000156974313423504,0.0000254823797420559,-0.0000982522179821265,0.0000000000000000907866361970437,0.00000592675367561972,0.00107559233522071,0.00000586784630546596,-0.0000000000000000222839801539057,0.000306932690628629,0.00000450142878813708,-0.000125823059927908,-0.00000416360926035608,0.00137329892713383,-0.000119364432355246
"t55",2.38480185224621,2.4800619583044,1.41027358238327,1.47375920165167,-1.93265082553546,1.35710805677999,1.45054211182772,0.968601706450483,0.436712520912199,0.636324086216102,0.0879725808034615,-0.126830487053412,"t55",-0.00379091331964813,0.151659723415866,-0.523394217485174,0.818633079687227,0.610986139867866,0.325718439803266,-0.752244477714052,-4.00628876445629,0.0298290221986704,-0.21031611270603,-0.30359819741423,0.0901645447512535,-0.0579790960295756,0.0510209254468028,-0.0319103443455711,0.011616719685497,-0.0573231589810935,0.0261112648192611,-0.218451439439786,0.00339744491874219,0.00308832176052967,-0.0260731553874765,0.00380345420159401,0.000482235505759404,-0.00993929684395154,0.00278966050042149,0.00779632026355655,0.00593129915617459,-0.00175961743803705,-0.00296478625178927,0.000356098781785462,-0.00431745931497657,0.00484773034459997,-0.00178803527197797,0.000769030393765234,-0.764500013642541,0.0000104410542110865,0.0000445430749770939,-0.00000105401017879216,0.000000000000000289029299757577,0.0000281710395449376,0.0000443905219410641,0.0000259664400110165,0.000000000000000105682084183842,0.000202705592250861,0.0000268264799860414,-0.0000869685014297313,-0.0000263097938475828,0.0000487200712444631,-0.00000882900623065119
"t56",1.32698839149728,2.23026894179438,0.971731366580633,2.22602673581826,-2.34994480629162,-0.283435302904964,-0.869297914604942,-0.421085504922582,-0.693428214954379,-1.34987002100732,1.47260204155321,0.363113656941152,"t56",-0.00379091331964816,0.151659723415866,-0.523394217485175,0.818633079687226,0.610986139867866,0.325718439803266,-0.752244477714053,-4.00628876445629,0.0298290221986702,-0.210316112706029,-0.30359819741423,0.0901645447512535,-0.0579790960295756,0.0510209254468033,-0.0319103443455713,0.0116167196854973,-0.0573231589810938,0.0261112648192616,-0.218451439439788,0.00339744491874107,0.00308832176052933,-0.0260731553874761,0.00380345420159393,0.000482235505759167,-0.0099392968439511,0.00278966050042125,0.00779632026355675,0.00593129915617446,-0.001759617438037,-0.00296478625178911,0.000356098781785212,-0.00431745931497563,0.00484773034459921,-0.00178803527197699,0.000769030393763444,-0.764500013642539,0.0000104410542105639,0.0000445430749769487,-0.00000105401017864991,0.0000000000000000642402741009798,0.000028171039548581,0.0000443905219413618,0.0000259664400107748,-0.0000000000000000956276684414668,0.000202705592251107,0.0000268264799872065,-0.0000869685014297535,-0.0000263097938480467,0.0000487200712447948,-0.00000882900623087102
"t57",1.1107922803459,2.06535167696647,1.02827783924067,0.0470912659503095,0.144777816930056,1.80587921695532,-1.03530431499288,-1.99135751257044,-1.80321851080364,-1.03458583768561,1.16887024959026,0.293259801594754,"t57",0.241838551972691,1.47201741875249,-0.323037840316825,1.33201045309392,-0.29422835362162,2.62047865185761,0.481734713834979,0.501856285687139,0.00094262140413245,-0.0123052794362036,-0.685815185935277,-0.00207364106183808,-0.152865171760497,0.01921091873676,-0.0131835890981461,0.00887560625960542,-1.25167607614584,-0.00497645394455987,-0.0164575776050763,1.22246967804216,-0.0103140428727748,-0.0017101969988255,0.0100023928854663,0.000505459228785885,-0.252777905701253,-0.000700909278341757,-0.00253645145444269,0.0000115244691093308,-0.000360294409025705,-0.0000943220866047988,0.0000269581663816416,-0.000587050694134826,0.00270954491339601,-0.000102014697178006,0.0000349947892916911,-0.000665524260534191,-0.0000326692673762078,0.000354597622760883,-0.000000956244558405171,-0.00000000000000102879627037111,0.0000125894358987465,0.0000229653612389842,0.0000862473517256323,0.000000000000000520425575278879,0.0000822784019896521,0.0000692571910534169,-0.000034981310766392,-0.0000716820780984575,0.000022125487874179,-0.00000778995599700386
"t58",1.69400079384459,3.02536412103951,1.40980956875837,-0.91961292104111,1.19105988801384,2.93960626150086,0.428149439253133,0.274250054635344,1.29123583255446,-0.232203891775502,0.51923454658887,0.0395680422536005,"t58",0.241838551972691,1.47201741875249,-0.323037840316825,1.33201045309392,-0.29422835362162,2.62047865185761,0.481734713834978,0.501856285687139,0.000942621404133303,-0.0123052794362041,-0.685815185935277,-0.00207364106183751,-0.152865171760496,0.0192109187367588,-0.0131835890981467,0.00887560625960576,-1.25167607614584,-0.00497645394455942,-0.0164575776050768,1.22246967804216,-0.0103140428727751,-0.00171019699882319,0.0100023928854657,0.000505459228783955,-0.252777905701253,-0.000700909278341781,-0.00253645145444073,0.0000115244691114862,-0.000360294409027902,-0.0000943220866063921,0.000026958166382419,-0.000587050694134028,0.00270954491339668,-0.000102014697176627,0.0000349947892925615,-0.000665524260533053,-0.0000326692673766213,0.000354597622759455,-0.000000956244557693309,0.000000000000000721629217443309,0.0000125894359001025,0.0000229653612359272,0.0000862473517262494,-0.00000000000000194854363931869,0.0000822784019877193,0.0000692571910490263,-0.0000349813107686049,-0.0000716820781000255,0.0000221254878765416,-0.00000778995599604726
"t59",3.99242813635496,4.15420049849014,3.72960804933519,0.0875016934821337,-0.520992822090969,1.8466916277092,-0.844182791452317,-0.0655608034970209,-1.27784759014433,-1.10710414420606,-0.0670153618349706,0.653290315374397,"t59",0.97266816736217,-1.32692090884089,-2.16713844878594,-0.989682803300724,-0.321641078580608,-0.11744053413931,0.730225279393271,0.0423987405812189,1.7559983873796,-0.0491267512135862,-0.0123225656565495,0.00365884097455026,-0.00780959810890398,0.316489813060682,-1.15806489427633,-0.00843782272453357,0.000780068121237869,0.00413007356930186,-0.0201745279832197,0.0000581338645811933,0.000178289685663913,-0.0328249916698409,0.0003533606206434,0.000644545302852113,-0.00114240636546619,0.00368906536049761,0.00192014109471751,0.11109998075063,0.000195018628143075,0.00199364670071608,0.000190580419093189,-0.000244666336609838,0.000281372286194365,-0.0000776992271927348,0.0000268073881772563,-0.000523088806845808,-0.0000288386118000538,0.0000503218544764987,-0.00000831748942428645,0.000000000000000984446022389656,0.000014367611558567,0.00023851276584529,0.0000156687096245962,0.00000000000000105813546607619,0.296020924563033,-0.0000221516821365709,0.00755811804531619,0.00000151053530370628,-0.0000046920395766855,-0.00000455364177822952
"t6",1.72852133456685,-0.419003413935963,-0.151596839238709,-3.69773332532489,4.57089118410687,6.28874921587226,-0.881754298252776,-0.259438181884655,-0.746970846138472,-1.79986970365146,1.66789052885049,1.18700301667119,"t6",0.302610677158716,1.96636693651099,0.0100303248688191,0.723007590022886,-1.34469873160815,-0.958585424889108,-0.049316704798379,0.0368969485419031,0.000136419753518673,-0.00193563478038006,-0.226982937416285,-0.00324395878482135,-0.038584170514811,0.000268723817920432,-0.00013528922543904,-0.0000530029491203896,0.00533718658934025,-0.000763677131429,0.0109394091452265,-0.00595985655765414,-0.0637822731923434,0.0060296966193125,-0.0825221307370759,-0.000694593096304584,0.105054646805925,-0.00731484289748094,-2.59843865483633,0.0329771216606886,-0.699208555392607,-0.00394879533166006,0.000318462273527772,-0.00550055843783773,0.0694056220931015,-0.000526421217572693,0.000164862999140148,-0.00271488366413231,-0.000106438832277894,0.00379584386348143,-0.00000287409479642073,0.000000000000000279003412394391,0.0000352749187586218,0.000063894017664706,0.000818396813929663,0.0000000000000002803375986537,0.000195319668431296,0.0106047841046974,-0.0000753179030022525,-0.000453013054358287,0.0000382761179405322,-0.00000649337534632201
"t60",-6.97462507239236,-6.30861493595159,-4.04338491968947,1.02111914041502,-0.0401328662317757,-1.57748899665424,-0.910821536269942,-0.904685099811708,-0.938974826052674,0.344436437447477,-0.894987491082657,-0.124829556866424,"t60",0.126946373620121,0.554271380386142,-0.84660873956458,2.16617719086818,2.8770312809688,-1.28754052306919,0.480071740382284,0.601830135073577,0.00102150590937912,-0.0128179948985455,-0.117376714505897,0.0128736828066121,-0.0317712140574115,0.0185175439500454,-0.011791059642295,0.00460923925694846,-0.0356786825466353,0.0109567875456148,-0.0946953357862787,0.00385677799238021,0.0030046167587415,-0.0124743068812842,0.00341113277906878,0.000258774964581956,-0.00905365019014796,0.00150028033567512,0.0074687913234205,0.00340551450086744,-0.00181366439749984,-0.00181109352779474,0.00041392096797235,-0.839554029998363,-0.00296291360469106,-0.0000143239570505159,0.0000330208809409598,-0.00100237495064595,-0.0000595052028343677,0.000162775277116832,-0.00000177128818089191,0.00000000000000136119686423944,0.0000232562230675014,0.0000423658908136802,0.0000399313931591952,-0.000000000000000737275300283251,0.000144061852597299,0.0000300174275033,-0.0000593806282230852,-0.0000275278030539366,0.0000308252386627327,-0.00000538000808615048
"t61",-1.47510959072208,-2.06275629800722,-3.44235979310678,0.774013519173974,-0.742578072920101,0.545388809572746,-0.880476106372095,0.208549900045085,-0.223243736138095,0.527961015698903,-0.821337389346898,-0.263063633511367,"t61",-4.55238404307104,-0.843041471924434,0.177503216248946,-0.20147763146936,-0.101384035951453,-0.0325675985771637,0.0537109417169554,0.119848984371769,0.0000420145171272014,-0.00174353027853081,-0.0337329531111709,1.30787948381678,-0.000351184426129764,0.00185648959259491,-0.0012448910336964,0.000567782028696582,-0.00315980265478951,0.00161615918319001,-0.0144823564923799,0.000247515701967657,0.000231434044913425,-0.00207675274790316,0.000316874952959938,0.0000401722684124544,-0.000827050718115491,0.000230601722211998,0.000635050390621347,0.000476305962732629,-0.000138880215305815,-0.00023242980009693,0.0000236329435453513,-0.000249783836924119,0.000206932050084317,0.00235283587542053,-0.920169016702056,-0.0013662281733782,-0.719416374296466,-0.0000210922005700184,0.0000000844713617032691,0.00000000000000304249886606482,0.0253560073946711,0.00000512250701403154,0.00000366302382794529,0.000000000000000855119321709018,0.0000365802124778103,0.00000479266169348631,-0.0000155138353774065,-0.00000457492661703332,0.00000840602099005492,-0.00000149339399346908
"t62",-1.54479708962119,-2.18386065763839,-3.0717646780682,0.626280842173597,-0.582779304311947,0.702275470323429,2.28083195080249,2.86743450733868,2.97065582726361,-2.02241375879892,2.18061673556027,1.78045605056314,"t62",-4.55238404307104,-0.843041471924434,0.177503216248943,-0.201477631469357,-0.101384035951454,-0.032567598577162,0.0537109417169552,0.119848984371766,0.0000420145171247168,-0.00174353027853049,-0.0337329531111721,1.30787948381678,-0.000351184426131198,0.00185648959259578,-0.0012448910336961,0.000567782028697111,-0.00315980265479359,0.00161615918318819,-0.0144823564923794,0.000247515701966724,0.000231434044914836,-0.00207675274790151,0.000316874952962304,0.0000401722684135026,-0.000827050718113715,0.000230601722210774,0.00063505039062186,0.000476305962732346,-0.000138880215305726,-0.000232429800096996,0.0000236329435477138,-0.000249783836929037,0.000206932050082239,0.0023528358754236,-0.920169016702058,-0.00136622817338017,-0.719416374296461,-0.0000210922005702818,0.000000084471359417382,0.00000000000000512326057109083,0.0253560073946597,0.00000512250701629063,0.0000036630238262159,0.0000000000000022590561348372,0.0000365802124920727,0.00000479266169441121,-0.0000155138353795954,-0.00000457492662027337,0.00000840602099160654,-0.00000149339399056065
"t63",2.07162195495527,0.952486097726662,0.763327506580455,4.72540397509097,-5.62743433984838,-6.93253782090043,1.83918815288661,1.31082020508927,1.54665883382844,0.844422126450425,-0.74306725737685,-0.650257931315787,"t63",1.1740831333477,-1.69411813065539,1.05513772593208,0.0692514445241536,-0.0277600212463456,-0.00837827388824801,-0.0196585094924395,-0.0240932838139207,-0.0783363603832905,2.18489451157064,-0.0313351358352852,0.00759102972249113,-0.0115997114734854,1.63411174603683,0.339781807928351,-0.140018236418198,-0.00130724814703285,0.262874040206616,-0.00229410764689833,0.0000478674053046783,0.00016744543748641,-0.0630625769334468,0.000114823323518762,0.00687431270780835,-0.000412108388222272,0.00131354396578255,0.000495556904534256,0.0047751116474214,-0.000226239750395875,-0.0322317798509479,0.00289901849817533,-0.000192856687904895,0.000210317372197183,-0.0000550031070917672,0.0000183926340891933,-0.000339807944229471,-0.000015975276714091,0.0000259704381762852,-0.000100188517461237,0.000000000000000659481201586146,0.00000605982065978453,0.00110010130091208,0.00000600276169865071,-0.000000000000000461080074199007,0.000316348996402285,0.00000465161122701519,-0.000130072818540046,-0.0000043406646528627,0.0014370134353154,-0.000126807999688905
"t64",1.67601990668396,0.807429489050556,0.362077706203186,5.8756549121873,-6.59494258626424,-6.98705196856156,-0.589062583834523,-0.85328090946601,-0.535830430621088,-0.725019061383259,0.965920288920008,-0.0389491102422444,"t64",1.1740831333477,-1.69411813065539,1.05513772593208,0.0692514445241536,-0.0277600212463458,-0.00837827388824793,-0.0196585094924391,-0.024093283813921,-0.0783363603832908,2.18489451157065,-0.0313351358352854,0.00759102972249118,-0.0115997114734855,1.63411174603683,0.339781807928351,-0.140018236418198,-0.00130724814703325,0.262874040206616,-0.00229410764689778,0.0000478674053049051,0.000167445437486241,-0.0630625769334476,0.000114823323518732,0.00687431270780863,-0.000412108388221022,0.00131354396578271,0.000495556904533513,0.00477511164742078,-0.000226239750395736,-0.0322317798509473,0.00289901849817558,-0.00019285668790554,0.000210317372197579,-0.0000550031070934914,0.0000183926340887208,-0.000339807944229469,-0.0000159752767147083,0.0000259704381763096,-0.000100188517461349,-0.00000000000000000911404879252169,0.00000605982065708462,0.00110010130091124,0.00000600276169864052,-0.000000000000000336459784555572,0.000316348996402902,0.00000465161122676873,-0.000130072818538874,-0.00000434066465285795,0.00143701343531636,-0.000126807999686749
"t65",-0.807267725127176,-0.359235057994589,3.16022167874964,-0.420577587385912,-1.19904606981385,-0.621950125500453,1.0453448161582,0.569804310392999,0.484041627824195,-0.017397113926142,0.104599356505302,-0.122363875859577,"t65",1.22692489728374,-1.7865468806669,1.34088115730436,0.0975722721842579,-0.0493461347999469,-0.0344762091358009,0.252656157458069,0.0190487486602294,0.0192967626115017,-0.423669859685835,0.000753486846802452,-0.0000358035235730496,0.000789562653164805,-0.600790348232045,-0.128398677909154,-2.29718825948635,-0.0240507243924244,0.28250959086896,-0.0644372923916975,0.000153464895911198,0.000467715971232566,-0.147118858048939,0.000287930579717519,0.0889419827723126,-0.000953786672596869,0.00384656294540728,0.00191993869170866,0.0253383316597268,-0.00214981220345165,-0.445886600334706,0.243976162424641,0.000147188919705778,-0.0000382310289309544,-0.00000943502365594057,0.00000558736432558032,-0.000152763429419106,-0.0000097765336372516,0.0000166907352628069,-0.000031892323851539,0.000000000000000083134817362427,0.00000454611214848777,0.00453282013008352,0.00000341807520666153,0.000000000000000306009120441541,0.000234046596712241,0.00000350682354252087,-0.0000983177273864854,-0.0000034273183575565,0.000586265497360137,-0.000596016715157626
"t66",-0.962713761526658,-0.292679523832987,3.13646147067665,-0.164174270360499,-1.33211578213314,-1.14074686002197,3.23816814140219,3.0384535004183,2.46611620358874,0.951332009636079,-0.701741019238704,0.297819694695824,"t66",1.22692489728374,-1.7865468806669,1.34088115730436,0.0975722721842581,-0.0493461347999473,-0.0344762091358009,0.25265615745807,0.0190487486602293,0.0192967626115016,-0.423669859685836,0.000753486846802162,-0.0000358035235736515,0.000789562653164607,-0.600790348232045,-0.128398677909153,-2.29718825948635,-0.0240507243924245,0.282509590868961,-0.0644372923916983,0.000153464895911122,0.000467715971232499,-0.14711885804894,0.000287930579717086,0.0889419827723127,-0.000953786672597104,0.00384656294540699,0.00191993869170857,0.0253383316597267,-0.00214981220345133,-0.445886600334707,0.24397616242464,0.000147188919707164,-0.0000382310289313746,-0.00000943502365637903,0.00000558736432469591,-0.000152763429419028,-0.0000097765336380269,0.0000166907352624229,-0.0000318923238518326,-0.00000000000000000559961380021443,0.00000454611214987497,0.00453282013008287,0.00000341807520646311,0.0000000000000000567682860774809,0.000234046596712847,0.00000350682354263678,-0.0000983177273867019,-0.00000342731835733247,0.000586265497360455,-0.000596016715157715
"t67",-0.180452894073048,-0.438883187768494,0.0964173561599267,2.07139433962793,-4.27639585581016,-2.43852066944651,-1.70003412923958,-1.45896930329663,-0.548768574884576,-1.89472755341702,1.39480632227447,1.13170261839233,"t67",1.31476738566798,-1.93707598954881,1.69940759103474,0.130295444887259,-0.0714163952825942,-0.0566888683406041,0.456585619484377,0.0432950849878237,0.0588661133443364,-1.39870846619735,0.00630067221208423,-0.000822930146148715,-0.00179859015696638,0.402388630973674,0.0747547075628397,0.693789872350222,0.00376683451002903,-0.00543147110993899,-0.00401038029275678,0.000027592812152759,0.000102445332841117,-0.0484318696732535,0.000266868321607823,1.07132056467851,0.00177000956959964,-0.000726758838120403,0.000112877965427993,0.00325733469032092,-0.000372637645788036,-0.0829237976044496,-0.0269619272882631,0.00000910651411039971,0.00000802671555161108,-0.0000068482669138752,0.000003052007597841,-0.0000752665978452987,-0.00000513743476713873,0.00000947331403262904,-0.000018931511037288,0.00000000000000122457782896498,0.00000821601111106217,0.058946208832969,-0.00000920453228385146,0.000000000000000462763740155979,0.0000909762572252342,0.00000144590926475952,-0.0000408249878729008,-0.00000158153598198027,0.000280959296754794,-0.00698432532061286
"t68",0.0354016623767085,0.281113435614511,1.11384112751613,2.42414339954524,-4.72540950889095,-2.78566638439486,-0.859140474517466,-1.03340172015397,-0.779582895739383,0.374229647112197,0.134079615862301,-0.37555292150287,"t68",1.31476738566798,-1.93707598954881,1.69940759103474,0.130295444887259,-0.0714163952825937,-0.0566888683406041,0.456585619484377,0.0432950849878234,0.0588661133443365,-1.39870846619735,0.0063006722120841,-0.000822930146148801,-0.00179859015696626,0.402388630973674,0.0747547075628393,0.693789872350222,0.00376683451002869,-0.00543147110993899,-0.00401038029275634,0.0000275928121528077,0.000102445332841739,-0.0484318696732538,0.000266868321608276,1.0713205646785,0.0017700095695991,-0.000726758838120594,0.000112877965426891,0.00325733469031995,-0.000372637645788012,-0.0829237976044489,-0.0269619272882635,0.00000910651411052478,0.00000802671555163572,-0.00000684826691063134,0.00000305200759955537,-0.0000752665978449737,-0.0000051374347649907,0.00000947331403233732,-0.000018931511037461,-0.000000000000000999117296421097,0.0000082160111097913,0.0589462088329682,-0.00000920453228385965,-0.000000000000000299337030840659,0.0000909762572243415,0.00000144590926406411,-0.0000408249878717052,-0.0000015815359809086,0.000280959296754584,-0.00698432532061369
"t69",-0.218216637559171,-0.276157995735936,-0.0887453589977588,-1.73471359908143,1.31751875877133,1.4611842675211,0.780638190234127,-0.296222310569243,0.42679098988942,-0.276559981640659,0.492237947751573,-0.256573276087784,"t69",0.393863910195959,2.70507190694986,0.71765883829987,-1.87946244091819,0.870521815086821,-0.00205162085382689,-0.0101855657715254,0.0176214711205555,0.0000922459206900732,-0.00138790497771218,-0.230924397464201,-0.00374115907192836,-0.122650201615169,0.00103570621699983,-0.000757803975190249,0.000458021361436218,-0.0162224423172695,0.00124255661096567,-0.0128597025707778,0.00431222485877213,0.0142724969276294,-0.00315514322878886,0.725280976358047,-0.000159556101572912,0.0130419483699438,-0.000171706002547931,-0.00134691202843919,0.0000448748688365108,-0.0013051177845694,-0.0000680768657411915,0.0000335047552362161,-0.00121372660935971,0.156447705237494,0.0000990540745325019,-0.0000147894349213416,0.0000313940801515894,-0.0000304710228862491,0.348747889069345,0.00000293501294529986,0.00000000000000176336266080499,-0.0000192967357650157,-0.0000740316404435612,-0.337226276019052,-0.000000000000000243665399000923,0.00000113115848816716,0.00000852623539453419,-0.00000141005617681281,-0.0766330723886771,-0.00000156806497248644,-0.0000000784681061509117
"t7",1.58979986690388,2.43757325996888,3.13336825990001,0.446091327302886,-3.11782550243682,-1.76271698441286,1.02228541962476,1.08659112544537,0.668452519565991,0.468154278412557,-0.341764114104781,-0.168108974833905,"t7",1.20687444253937,-1.75348195617737,1.29688266650866,0.0944242972654375,-0.0480231498453265,-0.0342147746569258,0.256316366062412,0.02085630993146,0.0242364503108871,-0.55560585186535,0.0018945537652019,-0.000218276373370576,-0.000156538852955369,-0.0563921734815802,-0.012892742888761,-0.224992692290607,-0.00171129084761758,0.00348272181867887,0.00321252774020825,-0.0000312658040519577,-0.000130676449386421,0.082842346994701,-0.000421344018303909,-0.263860249899093,0.0015302591110185,-0.0085554835456983,-0.00563643702144308,-0.089718036868692,0.00920874771115581,2.04507201001259,1.43544806767086,-0.0012977477513305,0.00128106131079477,-0.000280119669106857,0.0000851011800503836,-0.00138045119085751,-0.0000541972768910732,0.0000852491900281406,-0.00015890789062596,0.000000000000000934684081085869,0.0000233558851756192,0.0508790677152059,0.00000887314691601156,0.000000000000000115552201089532,0.000843619721248487,0.0000121769036829456,-0.000339580800610726,-0.0000107652148552842,0.00177814943907148,-0.00368058153184113
"t70",0.526656078193457,-0.204046237503509,0.205870801419665,-2.0556756004448,1.7550781392146,1.85945615849249,-1.43896023359201,-1.11981992800391,-0.953455006754069,-1.43014856428063,1.08223125045228,-0.235848156409942,"t70",0.393863910195959,2.70507190694986,0.71765883829987,-1.87946244091819,0.870521815086822,-0.00205162085382709,-0.0101855657715253,0.0176214711205556,0.0000922459206898859,-0.00138790497771198,-0.230924397464201,-0.00374115907192832,-0.122650201615169,0.00103570621699957,-0.000757803975190596,0.000458021361435252,-0.0162224423172694,0.0012425566109661,-0.0128597025707774,0.00431222485877276,0.0142724969276295,-0.003155143228789,0.725280976358047,-0.000159556101573253,0.0130419483699437,-0.00017170600254734,-0.00134691202843926,0.0000448748688369506,-0.00130511778456945,-0.0000680768657410248,0.0000335047552357594,-0.00121372660935996,0.156447705237494,0.0000990540745301573,-0.0000147894349228043,0.0000313940801516966,-0.000030471022887733,0.348747889069344,0.00000293501294525106,0.00000000000000227775248835368,-0.0000192967357621467,-0.0000740316404441457,-0.337226276019053,-0.000000000000000111855515417156,0.00000113115848821889,0.00000852623539532178,-0.00000141005617681139,-0.0766330723886793,-0.00000156806497285302,-0.0000000784681076476484
"t71",-7.5686060908841,-7.83427833548657,-3.62330799137443,1.88899066054884,-0.0784798882833656,-2.59198168673037,1.92146710335698,1.61539869003563,1.22631440384206,0.0370331892248848,0.558462973628926,0.291321586916486,"t71",0.126014560195414,0.54957092903794,-0.828599741634683,2.11256443834034,2.79218925783614,-1.24149922363709,0.461055809653056,0.573597428198402,0.0009669998193455,-0.0121168871971195,-0.109906057275174,0.0120118089471839,-0.0291125110517376,0.0165660435431489,-0.0105115752653619,0.00404071429408671,-0.0308171749314575,0.00925593634459398,-0.0784148701192955,0.00305268115403718,0.00232774030731008,-0.00892211000017966,0.00188189480021464,0.000128431283895745,-0.00428226412952609,0.000598178425027789,0.00217900085017039,0.000704105791244058,-0.000203683965501947,-0.000139380527963251,-0.00031967698323545,1.30170588805116,0.010926879425929,-0.0009020249934459,0.000248267681095004,-0.00374120809316751,-0.000140410660469372,0.000359874872479277,-0.0000038388442966495,-0.000000000000000553446055978201,0.0000468427196521549,0.0000847519484283015,0.0000795600325802306,0.000000000000001309315964781,0.000261349687778548,0.000053476866306825,-0.000105533107950283,-0.0000471849812883084,0.0000523077372485152,-0.000008914269709505
"t72",-6.57065343880497,-7.12781924021499,-2.55096198807691,2.03757441516363,-0.263736597478007,-2.39978294244459,0.575768560371631,1.00321830239221,0.802458717827492,1.40573458727035,-1.31794154139169,-1.48198414009972,"t72",0.126014560195414,0.54957092903794,-0.828599741634682,2.11256443834034,2.79218925783614,-1.24149922363709,0.461055809653056,0.573597428198401,0.000966999819344749,-0.0121168871971197,-0.109906057275175,0.0120118089471842,-0.0291125110517356,0.0165660435431483,-0.0105115752653613,0.00404071429408526,-0.0308171749314606,0.00925593634459301,-0.0784148701192946,0.00305268115403721,0.00232774030730817,-0.00892211000017697,0.00188189480021416,0.00012843128389752,-0.00428226412952596,0.000598178425026992,0.00217900085017194,0.000704105791246206,-0.000203683965505171,-0.000139380527963945,-0.000319676983235564,1.30170588805116,0.0109268794259301,-0.000902024993448152,0.0002482676810973,-0.00374120809316795,-0.000140410660464552,0.000359874872478203,-0.00000383884429370816,0.000000000000000169161412362722,0.0000468427196461102,0.000084751948426769,0.0000795600325804382,-0.00000000000000166373988403408,0.000261349687776985,0.0000534768663142584,-0.00010553310794818,-0.0000471849812894338,0.0000523077372549309,-0.00000891426971135809
"t73",2.1957443022906,3.71932945897335,2.26463411781878,-1.89169843838177,0.183264644341666,2.38664776392466,0.112026355103575,1.07580010760096,1.21206041714929,1.88123625233194,-0.902922252449505,-1.90156216875763,"t73",0.951375673424275,-1.29300978432286,-2.0074118092247,-0.900627092788405,-0.284395629004602,-0.0985868097323327,0.584667383130539,0.0276167621432414,-2.4232606895053,-0.19199683698136,-0.0121900303067968,0.00337312075015883,-0.00552837574235824,0.100870265509108,-0.259265947925629,0.00589838014178892,-0.00617980689894907,0.0131475249058987,-0.0430885070656431,0.0000929257628451533,0.000267243141487445,-0.0430545153157325,0.000381056850411723,0.000652185198213402,-0.00112242385143632,0.00323829496330136,0.0012805446784516,0.0424288204802704,-0.00006128584909693,-0.00176952429739875,0.000315182412449069,-0.000358698848059142,0.000379239608182022,-0.0000962603866472463,0.0000317005120489306,-0.000573236786199847,-0.0000260431036850127,0.0000419818580853693,-0.00000671280072074041,0.000000000000000255583480628455,0.00000950355419711412,0.000153159375837733,0.00000987223699578083,0.000000000000000926913776872933,0.0025607660963988,0.0000071668481786905,-0.00103814747834882,-0.00000637747209340989,0.0000995686002525321,-0.000017168226051751
"t74",1.40358583830186,0.427308034595294,0.574908034534214,2.41782685330095,-1.58325658682678,-0.25844335384179,0.962987753376175,0.738113964172478,-0.233814927977802,-0.129569488170897,0.646708731344293,0.69532658263674,"t74",0.759553504486752,-0.979060632968353,-0.704913437726932,-0.0218272850004323,0.164762808791904,0.224152395411008,-3.07225440578613,0.733931720625213,0.0507050800826186,-0.366032646351448,-0.0392180697318356,0.0100584555544531,-0.0122792825716706,0.079553151842585,-0.0487775234688373,0.015837663688544,-0.015483029796872,0.0240734469094378,-0.0848613006315176,0.000156355895358085,0.000418373736767594,-0.0441888788036568,-0.000225938824907508,-0.00126700717394622,0.00453931985241106,-1.61879029188726,0.00714355301548098,0.0331714086875455,-0.000877462955087847,-0.0127900027461698,0.000975072102682682,-0.00126951397370612,0.00125095536527294,-0.000296058053265034,0.0000942036008278489,-0.001627890900979,-0.0000694161889385786,0.000110394086809367,-0.0000143388499305213,-0.0000000000000000263215766673136,0.0000244029330147835,0.000320846112294683,0.0000252880424083476,0.000000000000000307494692026955,0.00100436427391379,0.0000177837057059357,-0.000406706680120626,-0.0000159052405249356,0.000202624655589722,-0.0000346056397794411
"t75",1.46154102192678,0.324991909183736,0.663530760952548,2.17942717307635,-1.3243610621972,-0.0662762780274699,0.650910431174136,-0.0866222298769975,0.117643045165603,1.35048467119217,-1.12161419854108,-0.0479739353465267,"t75",0.759553504486752,-0.979060632968353,-0.704913437726932,-0.0218272850004324,0.164762808791903,0.224152395411008,-3.07225440578613,0.733931720625213,0.0507050800826188,-0.366032646351448,-0.0392180697318354,0.010058455554453,-0.0122792825716706,0.0795531518425849,-0.048777523468838,0.0158376636885434,-0.0154830297968722,0.0240734469094377,-0.0848613006315172,0.000156355895358144,0.000418373736767103,-0.0441888788036565,-0.000225938824907379,-0.00126700717394634,0.00453931985241116,-1.61879029188726,0.00714355301548035,0.0331714086875449,-0.000877462955087787,-0.0127900027461699,0.000975072102682696,-0.00126951397370546,0.00125095536527328,-0.000296058053264904,0.0000942036008242901,-0.00162789090097888,-0.0000694161889396706,0.000110394086809894,-0.000014338849930473,0.0000000000000000995086968447049,0.0000244029330146037,0.0003208461122947,0.0000252880424078022,0.000000000000000595080133501437,0.00100436427391374,0.0000177837057072305,-0.000406706680120632,-0.0000159052405245486,0.000202624655588892,-0.0000346056397795927
"t76",-1.47818794565581,-1.14509488125526,-1.41867409449108,-1.42163495954727,-0.205020814956119,1.45086994970678,0.510111487975048,1.31784309657288,0.618555936810063,1.10427304350959,-1.11149623104844,-0.449405961045784,"t76",-4.3011301481642,-0.78838358984186,0.142056908161241,-0.151623607270973,-0.0686143576268043,-0.0179612848198716,0.0244597264537791,0.0255235809310107,-0.0000045325637749201,0.000338496961770588,0.0373844121018042,-2.2667254591745,-0.0080284206820907,0.00683952500709702,-0.00429768470086678,0.00160503768367665,-0.00809384940972147,0.0037896031222529,-0.0323422795148312,0.000519894024052451,0.000478119586134725,-0.00416040908616569,0.000633829371204857,0.000081111774610001,-0.00167766866904757,0.000475658558724639,0.00134637101666071,0.00103382952914472,-0.000309731587359587,-0.000523750580037873,0.0000684730228799649,-0.000897307017824276,0.00122579443483318,-0.770550137687434,-0.005552238476585,-0.000110650219829698,-0.00188830878789955,0.000032472433748352,-0.00000058908557256427,0.00000000000000206701836296073,0.000784352488084956,0.0000145824020913141,0.00000841600261303085,0.00000000000000133925780508944,0.0000518637165170712,0.00000667298551576061,-0.0000215588170825142,-0.00000624440514333599,0.0000114545485411802,-0.0000020418553513691
"t77",-1.77662333037132,-1.51374145732038,-1.75701530418306,-2.01221993147268,0.423390074060021,1.88876170291725,-0.872823652760742,-1.28579512015511,-0.562974468619231,1.48330893363907,-1.48469396501739,-1.37924813617078,"t77",-4.30113014816421,-0.788383589841858,0.142056908161237,-0.151623607270969,-0.0686143576268067,-0.0179612848198709,0.024459726453782,0.0255235809310153,-0.00000453256377344996,0.000338496961768365,0.0373844121018025,-2.2667254591745,-0.00802842068209214,0.00683952500709683,-0.00429768470086725,0.00160503768367565,-0.00809384940971969,0.00378960312225247,-0.0323422795148193,0.000519894024054051,0.000478119586134455,-0.00416040908616068,0.000633829371200562,0.0000811117746109975,-0.00167766866904697,0.000475658558729588,0.00134637101666638,0.00103382952914607,-0.000309731587361397,-0.000523750580038051,0.0000684730228830722,-0.00089730701782315,0.00122579443483734,-0.770550137687472,-0.00555223847659857,-0.00011065021982979,-0.00188830878787606,0.0000324724337571114,-0.000000589085568901923,0.000000000000000762592054164115,0.00078435248806962,0.0000145824020884837,0.00000841600261111238,-0.000000000000000136598621779552,0.0000518637165189584,0.00000667298550775255,-0.0000215588170803015,-0.00000624440514532204,0.0000114545485284061,-0.00000204185534811039
"t78",-0.975800196576589,-0.646852746382015,-1.60514725455403,1.86239642997424,-0.334085667720461,-0.29140028511713,0.879114659889242,-0.106139529354367,0.259613856478298,-0.233644308011187,0.551778566053664,-0.00465336331515341,"t78",0.260229945507263,1.63362672015841,-0.0752677698214942,0.561174400153919,-0.384665691688889,0.285397220252298,0.0377365974498228,-0.0777513266547831,-0.000581750657200204,0.00952236349404684,3.18371178548562,0.0750901956314874,-1.30430067531248,0.0152580781071232,-0.00978689486037183,0.00402008141099928,-0.116319869192987,0.00722974996713603,-0.0650003408371986,0.0169140477345225,0.0291025754614689,-0.00819996874075811,0.0201441515803405,0.000186189626913459,-0.0235087022814744,0.000850684586990656,0.0381077912946031,0.00124802755565262,-0.00811174321798994,-0.000682614132724388,0.0000870327145579742,-0.00172588241075073,0.0157126294098904,-0.00023473002593762,0.0000778379166534914,-0.00140045895986,-0.0000627233411473227,0.00143364474131524,-0.00000177072350603765,-0.000000000000000388035407843896,0.000022538320557668,0.000040965275239777,0.000328809382018373,0.0000000000000000767721427909494,0.000133766018480437,0.000231440084124236,-0.0000547509886681412,-0.000208963706049928,0.0000283204446501405,-0.00000500918641182156
