pablosanchezmart/TrEvol/tests/outputs/outputs_simulationsphylo_eigenvectors.csv
"taxon","phylo_G1_trait1","phylo_G1_trait2","phylo_G1_envPred","phylo_G2_trait1","phylo_G2_trait2","phylo_G2_envPred","nonPhylo_G1_trait1","nonPhylo_G1_trait2","nonPhylo_G1_envPred","nonPhylo_G2_trait1","nonPhylo_G2_trait2","nonPhylo_G2_envPred","animal","Phylo_axis_1","Phylo_axis_2","Phylo_axis_3","Phylo_axis_4","Phylo_axis_5","Phylo_axis_6","Phylo_axis_7","Phylo_axis_8","Phylo_axis_9","Phylo_axis_10","Phylo_axis_11","Phylo_axis_12","Phylo_axis_13","Phylo_axis_14","Phylo_axis_15","Phylo_axis_16","Phylo_axis_17","Phylo_axis_18","Phylo_axis_19","Phylo_axis_20","Phylo_axis_21","Phylo_axis_22","Phylo_axis_23","Phylo_axis_24","Phylo_axis_25","Phylo_axis_26","Phylo_axis_27","Phylo_axis_28","Phylo_axis_29","Phylo_axis_30","Phylo_axis_31","Phylo_axis_32","Phylo_axis_33","Phylo_axis_34","Phylo_axis_35","Phylo_axis_36","Phylo_axis_37","Phylo_axis_38","Phylo_axis_39","Phylo_axis_40","Phylo_axis_41","Phylo_axis_42","Phylo_axis_43","Phylo_axis_44","Phylo_axis_45","Phylo_axis_46","Phylo_axis_47","Phylo_axis_48","Phylo_axis_49","Phylo_axis_50"
"t1",NA,NA,-1.92301681230765,0.607698015754111,0.936758408520165,0.827170697003048,-0.25313331936278,0.227505933209174,0.418143692945184,-0.299833577507924,0.128800604933401,1.1372125466375,"t1",0.639190361517805,-0.308867192473929,-0.112391928907719,-0.120643943571666,-0.161481408086693,0.0613613179100355,-0.169646545401862,-0.055607705052458,-1.40402118208641,0.0475583474458268,-4.90351908679686,-0.256463013755721,0.220558615839608,-0.11814827887798,-0.120192731624047,-0.00372050340514645,-1.12185381046104,0.155361939842752,-0.00337062050767411,-0.00547479790815116,-0.00364736077986769,0.00425996139893098,0.0194895082914701,0.00392769041723799,0.00208525171916309,-0.00159850609298147,0.0013100906456395,-0.00202945344116723,0.00962621525719574,0.00026774057223846,0.0000604977531091179,0.00216816853729575,0.00095652488889226,-0.00236507251673394,0.000000000000000110589406913896,-0.000351252051947392,0.000103067823391553,0.0000530067282004997,0.00000621935305673435,0.000376100079962545,-0.00000000000000223600050158296,-0.0000591853841451266,-0.00255304309565335,0.000274597307572656,-0.000106386051722783,0.000261273983608769,0.000102124881390939,0.0000254078971938384,-0.000307591857050575,0.000000000000000143755055436475
"t10",NA,NA,-0.124056696630794,-0.570809647162412,0.0968827060878787,0.622010612547207,-1.8600514130929,-1.39561001798658,-0.480835490575702,0.900761436315001,-0.160635777626873,-0.772790758969348,"t10",-2.34886993824919,0.671060794707706,-0.0315355482112432,0.0000255867491641651,-2.30482353264519,-0.0185326688000036,0.570887961609769,1.92683218035803,0.0127550529995138,-0.0164311440901802,0.0437542670014734,0.00245898020208088,0.434011052452393,-0.00790264120844492,0.00240678311422807,0.000812193416590279,-0.0000612604465547861,-0.00000217692767692602,-0.0135639834345337,-0.00258892485911362,-0.0000514280972876019,0.0000622920266768722,0.000437797810489,0.000152132176517273,0.0054946266173868,-0.0000266336481624387,0.000439832305738718,-0.000546345968700321,0.0000158459859313295,-0.00000129205362315654,-0.000000331646996820966,-0.0086974400659711,-1.24678621100008,-0.000431084561278081,-0.00000000000000182346296443312,-0.00161506361751209,0.000447363031749484,0.832671960043914,0.0000119230433406445,0.00491033910459652,0.0000000000000450181434318702,-0.103088264785914,-0.00034076634142964,0.0000250367571159385,-0.00000654789338202287,0.000442328753718139,0.000169788555858446,0.00000214296899072454,-0.000038004510460157,0.00000000000000222800769497888
"t100",NA,NA,4.13283049947937,4.82958170095054,-3.03626122653286,-3.10532412999957,1.05986089401453,0.0572951072786436,1.02301769749056,-1.14203948033892,0.85780926211395,1.67078915722318,"t100",2.83797682883121,1.33037828832445,0.27163595542727,1.8276200987334,0.05052568794507,-1.78213717405355,0.0111558456246091,0.0015645945762122,0.0562104597707178,0.0022974679578622,0.0652794707552843,-0.0060179787386343,-0.0220696067778978,-1.08345524994915,-0.00299087418863317,-0.00000619450733871299,-0.000283388036356832,0.00651162794709686,-0.0000223465382326598,-0.0000341111174637442,0.00191799507850101,-1.40133626255865,0.0010325448116741,0.000180133198811048,0.000095606294014989,-0.0000732406746680077,0.0000600737024469793,-0.0000938129909999645,0.00226006463570029,0.0000634070868499885,0.0000143388374717472,0.000104015960572345,0.0000532225600937051,-0.0239584415555619,0.000000000000000721394069887478,-0.00000305070865029059,0.00000238410207083978,0.00000229318944931467,0.000000279574293251082,0.0000175810746226619,0.0000000000000000894400200633183,-0.0000029043807220356,-0.000127072372972995,0.0000138330248935032,-0.00113055611290685,0.0000138497751204757,0.00000551382707077558,0.00000140593232857384,-0.0000173845494856,-0.000000000000000580016454841842
"t11",NA,NA,1.52002550590283,0.527313007291312,-0.1117806859313,-0.117517283521138,0.216011837799721,0.588794045225698,0.562635968974615,-0.257093909771508,-0.117813482018336,-0.511983979763003,"t11",-2.35197241137649,0.672492415975742,-0.0316138090059976,0.0000256940086072893,-2.31874008524012,-0.0186839740799901,0.578888452165368,1.97289128993247,0.0131059081139115,-0.0168886999560114,0.045079964628339,0.00254052110597924,0.449299585026453,-0.00818184883238315,0.00249257829063391,0.000842146868967628,-0.0000636684192213413,-0.00000226317807903787,-0.014304382347844,-0.00285811138863278,-0.0000580234308509388,0.0000714549837448552,0.000533527615223941,0.00022285175710065,0.00810450580456454,-0.0000408787535990641,0.000710865819087797,-0.00106376012938395,0.000142850992786748,0.00000333336769393036,0.000000738785470707837,0.00163057098222988,-0.529218218297013,-0.000197686659765216,-0.0000000000000030009307154375,-0.00072482022830432,0.000196232269899956,-1.23713870835356,0.0000177882962083447,0.00494770906343558,-0.0000000000000749109856930326,-0.387728665572777,-0.000186540817790343,0.0000166731197776256,-0.00000483030620975625,0.000331612911552114,0.000128604543909625,0.00000164003884918435,-0.0000292845733187441,-0.000000000000000420839868336915
"t12",NA,NA,4.48509930805055,0.753991796922846,0.438042353145171,-0.320205799082811,1.19968120521636,1.32168362746721,0.310944693457255,-1.21906004397743,1.41187799508921,0.627927187882552,"t12",-2.3501871938957,0.694319476314527,-0.0337495928814848,0.0118079986997754,-0.355787713518141,-0.000504736005097892,-3.08649888704541,0.0529808961969708,0.0520529233202877,-0.136532483863319,0.0829414021063414,0.00266579668007663,0.0653043332254942,-0.000644882290961558,-0.000356778468629193,-0.00350340843137128,-0.00801699435226398,-0.0000584494905724521,-0.00275968216642603,-0.011786367327249,-0.000108291437015156,0.000129555896535762,0.000865365958926907,0.0000788919818888513,0.000454963608808378,0.00000888013372112868,-0.00199124674284178,0.896321259514552,0.000913757242936845,0.0000223381103065797,0.00000501604904265451,0.00486336092003786,0.00243510923372629,-0.00052908120470945,0.0000000000000194657435483813,-0.62905945546872,-0.00137793231873086,0.0000405503176305312,0.0000118435051144404,0.000430879166346601,-1.01270775000003,-0.0000761222496748813,-0.000261069714173064,0.0000191293955560092,-0.00000534902547049458,0.000726661066503553,0.000286354415409208,0.000001911179430872,-0.0000346624801084956,0.00000000000000417994361910828
"t13",NA,NA,4.17268882692305,2.30989612824082,-0.275369303267585,-2.00269872500829,-1.32670932879426,-1.5911805605229,-1.36116426620734,-0.530538772157823,0.683872386701014,-0.337772724153743,"t13",-2.3501871938957,0.694319476314522,-0.0337495928814831,0.0118079986997724,-0.355787713518135,-0.000504736005097263,-3.08649888704543,0.0529808961969798,0.0520529233202876,-0.136532483863312,0.0829414021063433,0.0026657966800762,0.0653043332254906,-0.000644882290961999,-0.000356778468631875,-0.00350340843136464,-0.00801699435225918,-0.000058449490565942,-0.00275968216643037,-0.0117863673272403,-0.000108291437015462,0.000129555896528829,0.000865365958907683,0.0000788919818884064,0.000454963608810437,0.0000088801337151677,-0.00199124674280148,0.896321259514529,0.000913757242945676,0.0000223381103015203,0.00000501604903160969,0.0048633609200467,0.00243510923380058,-0.000529081204671031,0.0000000000000155579734307086,-0.62905945546872,-0.00137793231891205,0.0000405503175515735,0.0000118435049680029,0.00043087916608172,1.01270775000003,-0.0000761222499055524,-0.000261069714247799,0.0000191293957608506,-0.00000534902539466869,0.000726661066813869,0.000286354415700565,0.00000191117941724267,-0.0000346624801046031,-0.00000000000000295247971876276
"t14",NA,NA,0.406561981587524,-1.71407846661601,0.589030658151981,1.41792346781024,0.521104159527658,0.257815407896154,0.357305884037797,-0.749908113405891,1.21219759511239,0.284335114202679,"t14",-2.33378732236169,0.663831992865474,-0.0311337748417806,0.000024987588466493,-2.21911586652689,-0.0174793948723823,0.485982097411032,-1.32117025053437,0.0348087484134752,-0.0407083567368224,0.0761554181406668,0.00362804095622771,0.596062939131547,-0.0108195608270449,0.00326498886389005,0.00106570579439203,-0.00007574681648041,-0.00000267157665861695,1.77523672419667,-0.00370882919578466,-0.0000738970723050432,0.0000904370666960759,0.000675830963349474,0.000536578671722503,0.0451003629658469,-0.0000383666351407514,0.00079802520831726,-0.00132262488937213,0.000206216275766496,0.00000560879097650994,0.00000126520949152451,0.00685020193908921,0.000672253786307299,0.0000290175492650532,-0.00000000000000258759995730073,0.000179168140387664,-0.0000632637620150711,-0.000847604434717357,-0.0000313193928806687,-1.23369055392185,-0.00000000000015148158064724,-0.00162871832333255,-0.000717697544157838,0.0000451334372195317,-0.00000931094012996776,0.000588291805385597,0.000215834091415261,0.00000260609998081227,-0.0000449821644105386,-0.00000000000000074221213526148
"t15",NA,NA,2.95389687132993,2.40914649711078,-2.63953125091925,0.633412321946123,-0.533435282651935,-0.715427338297794,-0.287133137601811,0.76090285558417,-1.13316863281543,-1.31027560512262,"t15",2.80727681543426,1.30679500391943,0.265998828998066,1.76142080331029,0.047786571718639,-1.64500987979378,0.00942147466447948,0.000922617597865601,0.0219947836742833,0.000840824128082188,0.00810609518989705,0.00252397450771073,0.0295574815459306,1.53241883889146,0.00499615134064205,0.0000212764082980326,-0.00685751237326424,0.0927218043783223,-0.0000416839669271863,-0.00011268785158632,-0.00186137970182142,0.0292974983296365,0.000353073022299453,0.000040813217558848,0.0000211045617320225,-0.0000137699457810172,0.00000890062035826838,-0.00000278442535336022,-0.000674972006953141,-0.0000342294082099635,-0.00000806046867116506,-0.000115567234491872,-0.000319849699826238,1.20630934757239,-0.0000000000000327193877187804,-0.000738299447710448,0.000141917495359802,0.0000217599269401414,0.00000214233925645098,0.000107227111819308,0.0000000000000115973892682103,-0.0000138137844623938,-0.000576744040071327,0.0000616661172639844,-0.71567633909366,0.0000245330063609823,0.0000121692516941736,0.00000318973241053505,-0.0000387176268630594,0.000000000000000759426617253762
"t16",NA,NA,2.95203105441871,1.38047028031313,-0.0962580894511618,-1.91179861098624,3.05021432176946,2.8077055379657,1.74083828694914,1.04752129249659,-0.602285291900123,0.343774315808231,"t16",-2.35529246427292,0.674024535119207,-0.0316975658924877,0.0000258088135596119,-2.33363796466919,-0.0188459738771898,0.587457943683407,2.02225758506916,0.013482036880337,-0.0173792253969147,0.0465013880503784,0.00262796398418902,0.465696567822045,-0.00848130128878964,0.00258459589325158,0.000874274867520511,-0.0000662515157377263,-0.00000235570249690088,-0.0150992199183036,-0.00314760015688656,-0.0000651205676058669,0.0000813190298502375,0.000636691471649768,0.000299158869389004,0.0109206399034395,-0.0000562508286833131,0.0010033577435637,-0.00162211652885327,0.000279730819163455,0.00000830979738921772,0.00000189023447754666,0.0126776287137484,0.189035395074403,0.00000130958969094628,-0.00000000000000285547470271717,-0.0000230638135814772,0.00000980039004734792,-0.147739791302522,0.00000187717524567886,0.0000625860538741206,0.000000000000132033345173472,1.25639694205578,-0.000506504983085773,0.0000242220384077527,-0.00000435426144773223,0.000277647456133221,0.00010361738505316,0.00000128380587525145,-0.0000226230582275369,-0.00000000000000044511286403537
"t17",NA,NA,2.94385224886465,2.46914673841398,-4.11655903230711,1.91945055277425,0.163697975282245,-0.373660520134129,-1.13484525704791,-0.439352904118813,0.559983449020187,0.713728766825074,"t17",0.738174254322513,-2.94687651810095,-4.89117926735394,0.131588018034339,0.127898851274052,-0.0197985354992692,0.0337915917128713,0.00435927662550363,0.0706757952500316,-0.00346698125559981,0.20073570892619,0.00824076654971734,-0.00118413959385514,0.00283030581221666,0.0000836485917698246,-0.0000749736474075681,-0.457557726538365,-0.0254640459369653,0.0000532118337752831,-0.000202113908887999,-0.000144402885688992,0.000240017003520864,0.473082147820078,-0.000338205227206748,-0.00019551793507912,0.288342952377212,0.0000337676823168908,0.0000024114323315692,0.0000053979175266162,0.000000453973454610934,0.000000107252873462076,0.0000088117817949281,0.00000105109027806441,0.00000822840098117537,0.0000000000000077704699603884,0.00000245891290756361,-0.000000846267259093175,-0.00000126509930318732,-0.000000206693076157229,-0.0000210014876370367,0.000000000000122542765266753,0.000011757014110193,0.0012005952028374,-1.09395336577167,-0.0000155102062065631,0.0000417467197183952,0.0000146099240235237,0.558345395797085,-0.0000216099635552507,-0.00000000000000489997350270153
"t18",4.2658539764207,4.74464517715167,3.51830662658765,1.04283605439257,-1.37580461955047,0.746309371080431,-1.13243591204808,-1.42958263506791,-1.05043981412445,0.925095154788318,-0.791960800790708,-1.75720455985124,"t18",2.81239315573217,1.31064547936582,0.266910928544688,1.77164370328932,0.0481869149933764,-1.66369083286811,0.00960638668946421,0.000953861130294319,0.0228554626627954,0.000874145882900423,0.00845661387410901,0.00264381778411019,0.0310519055600091,1.61013767293397,0.00525190003010872,0.0000224047836783124,-0.00724621526636336,0.098021305453705,-0.0000450231580766964,-0.000130885673468965,-0.00224270716955831,0.0363355889111072,0.00049055296204827,0.0000889645529441409,0.0000469913362381328,-0.0000349742667787198,0.0000275982657897211,-0.0000376809007797798,0.000522457894056375,0.00000656299255582433,0.00000131458280331565,-0.0000206720884824377,-0.000144820153844372,0.599115699429282,-0.0000000000000164839168509956,-0.000370886668378361,0.0000716798224421156,0.0000112064207405083,0.00000109795840241519,0.0000536973765097001,-0.0000000000000588614709816705,-0.0000060141129555147,-0.000221260738536225,0.0000190301578192642,1.09800809372138,0.0000543949838033384,0.0000159966647465282,0.00000337536322541171,-0.0000377933443537357,-0.00000000000000205597769002918
"t19",-0.859428112536449,0.478846850100734,1.42377613007732,-0.00583318479972969,-1.6504182989312,1.13304738177144,-1.1661102885707,-0.862988257858154,-0.548356267027613,0.420510275109502,-0.208520521365119,-0.921169262563457,"t19",0.732324066220972,-2.90907721043265,-4.81813352189147,0.128254240365831,0.123210149217592,-0.0188120101072287,0.0308604828202107,0.00369946775050932,0.0582673224511126,-0.00285030997507151,0.16167906564253,0.00647511115222879,-0.000913438325849049,0.00218121295136732,0.0000642802359181317,-0.0000569671664947041,-0.33983928245593,-0.0188563074039366,0.0000336119146196832,-0.0000476287732260479,-0.00000322103701940493,-0.0000363039903243638,-0.410286865484389,0.00132993349238518,0.000797183230686001,-1.43145073083193,-0.000211243423292928,-0.0000305141090867032,0.000340759495303087,0.0000105162112334677,0.00000239040556510606,0.000135720011184617,0.0000655267599941559,-0.000114524790744342,-0.000000000000000631403516331605,-0.0000249005912178075,0.00000732550803245643,0.00000386810490769285,0.000000458980620247322,0.0000283716818960177,-0.0000000000000150855500506797,-0.00000493463058538395,-0.000247906783499063,0.0541339918094035,-0.00000472834025881358,0.0000176431301537091,0.0000070579430469334,0.00422306898222374,-0.0000217771574097183,-0.855729573299998
"t2",-5.42506270843607,-2.83918382738492,-4.34825866300677,-0.866705775893118,-1.53399202403174,-0.976190400181396,-0.348690797229756,-0.423175893441046,0.117858215451311,0.0813164138050109,-0.164782943230238,0.487326150171479,"t2",0.612075810240499,-2.12572966067942,-3.29893815479533,0.0576633689117186,0.0219008708688439,0.00303213508242248,-0.0390744899361814,-0.0147291062506756,-0.313571406461412,0.0157604995534468,-1.08201140839719,-0.0537647054194657,0.00884188432616263,-0.0212782259255854,-0.000641937125887439,0.000623346583661085,4.45809153332986,0.253275631908272,-0.00177928319519021,-0.00259485443134609,-0.00115705485212315,0.00139162099467465,0.274093959198164,0.00162609292154502,0.000865986890772477,-0.0196645241946059,0.000542556046497517,-0.000855230317212917,0.00281050145676878,0.0000786389240103266,0.0000177765494003701,0.000937497612760765,0.000416434753197948,-0.00070977384281819,0.000000000000000313951062875299,-0.000153551866050225,0.000045046678376587,0.0000231927243119036,0.00000272262790797538,0.000164776367975465,-0.00000000000000318008960225132,-0.0000259805774089233,-0.00112284735839246,0.00285070621863464,-0.0000321777900296581,0.000114691389071745,0.0000448529370269755,0.000257851453718219,-0.000135217314550769,0.0000000000000000314144988443142
"t20",-3.7008075467869,-1.93788547438768,-1.89739246519287,1.75794453145215,-2.69912155368202,0.823215353251097,1.09593843956468,0.859218270875337,-0.474019736205937,-0.769370886418627,0.240112408400244,1.75157238663512,"t20",0.732324066220972,-2.90907721043265,-4.81813352189147,0.128254240365831,0.123210149217592,-0.0188120101072288,0.0308604828202104,0.00369946775050989,0.058267322451112,-0.00285030997507286,0.16167906564253,0.00647511115222804,-0.000913438325849108,0.00218121295136705,0.000064280235918554,-0.0000569671664950713,-0.339839282455929,-0.0188563074039364,0.0000336119146209435,-0.0000476287732268105,-0.00000322103701957349,-0.0000363039903240331,-0.41028686548439,0.00132993349238603,0.00079718323068575,-1.43145073083193,-0.000211243423290951,-0.0000305141090898423,0.000340759495304111,0.0000105162112337426,0.0000023904055647907,0.000135720011185445,0.0000655267599980288,-0.000114524790742953,-0.000000000000000415286555965852,-0.0000249005912172701,0.00000732550803515078,0.00000386810490514042,0.000000458980611436106,0.0000283716818944886,-0.00000000000000656887258465038,-0.00000493463058506009,-0.000247906783497603,0.0541339918093959,-0.00000472834025530264,0.0000176431301640969,0.00000705794295574864,0.0042230689822295,-0.0000217771574173653,0.855729573299999
"t21",-1.6406091260744,-0.505400555329784,0.178957672985498,-0.507149010526313,-1.8074185214549,2.93636786435354,0.17969653168025,-0.0464380293255656,-0.6736082699057,-0.66665934909305,-0.218272167485634,-0.14709934987632,"t21",0.739147304136067,-2.95313978546216,-4.90326317161591,0.132135164059194,0.128661856676445,-0.0199575241325756,0.0342517146017415,0.00445848559928271,0.0725132201425919,-0.00355816625646125,0.206451833832187,0.00849612749644403,-0.0012229589887901,0.00292334777157929,0.000086421288422928,-0.0000775384456327905,-0.474160971912634,-0.0263948375873775,0.0000558150029139838,-0.00021932988873936,-0.000158961409776793,0.000266929957892145,0.543810124271126,-0.000417700221787916,-0.000241979633837725,0.360966338818095,0.0000428425767286662,0.00000317773073225382,0.00000785577269979694,0.000000709291481530743,0.000000168670057665571,0.000016258118550344,0.0000116269191809954,-0.0000202497941360089,0.00000000000000246328634999514,-0.00000433285461783706,0.00000125959053027363,0.000000526663456133986,0.0000000512590423577389,0.00000144849301647737,0.000000000000016307896991545,0.00000148712616628493,0.00020425590949774,-0.219431599337694,-0.00000382773141957057,0.00000942527906747442,0.00000185894388579722,-0.88607901643765,-0.0000261306444804964,0.0000000000000120089619639746
"t22",1.13147896817324,2.26487873762372,2.34251298420872,-0.17928802242399,-1.1804403017836,1.83053279171578,-1.05753163385042,-1.43580100385561,-1.63896540726239,2.19870947602439,-2.32167037989257,-2.25281427951396,"t22",-2.89221581728449,1.02116388361182,-0.0545801848918687,0.0443640497079372,1.49501154102523,0.000470075854252033,0.353977852808487,0.00738467498593622,0.0438559362250643,-0.412735557868665,-0.00612048461405593,0.0000208038211522332,0.000428513936431383,-0.00000294211746925516,0.00000158575660569275,0.732256278383767,-0.000734929003613757,-0.00000520640461636594,-0.000110447557524705,1.54351228156141,-0.000123798935962102,0.000110372963992591,0.000579358549121823,0.000176539247251595,0.00125217227851236,-0.0000502267565024241,0.0448557677713313,-0.00168473740541088,0.000133186550266489,0.0000035798116948983,0.000000806256586965489,0.000765645089212966,0.000199208932155662,-0.00000828762936702657,-0.00000000000000307650927012991,-0.0000502065393150178,0.000308461068099124,-0.00000661969630741629,-0.0000256057900699755,-0.000142799576446579,0.000000000000165980801677505,0.0000536918967999763,0.000244983155855052,-0.0000236812718806009,0.0000247330683143671,-1.08323790272905,0.171244835226922,0.00000514793747540285,-0.0000705939024881203,0.0000000000000139711661958355
"t23",4.04797495003904,6.29191447150753,5.21168413713769,3.35345054029543,-3.19412638298896,-1.51113182316731,-2.66113179907239,-1.88979129910175,-2.3068303974801,-1.25590574587288,1.47867994961951,0.590641143192933,"t23",0.0930807934732541,-3.60001970527455,2.52142137730158,0.0870557128842307,0.139297560145675,-0.013182196813193,0.029405073702643,0.00266291404723278,0.0306942331651996,-0.00225466212461492,0.0817660974918637,0.00361566920138255,0.00645135103447014,0.00418112373013093,-1.08129269718402,0.0000431709964927471,-0.00016364560162205,-0.00000414726884787915,-0.0000757688031267044,-0.000190385776234881,-0.0000528630361743442,0.000059471779515103,0.000312628297922401,0.000449765759642216,0.0000000308759930095892,0.00000251082359819768,-0.00000858071821006839,0.000037509594664288,-0.000210840608653211,-0.00000823727742811595,-0.00000190840731180406,-0.000231409308331789,-0.000254602484091198,0.000446370107393521,0.000000000000000862361266733411,0.000158275364841317,-0.0000489923421031828,-0.0000417718036182243,-0.00000607043835230352,-0.000545957741420269,0.0000000000000412815381492249,0.00035978350404359,1.1873596401154,0.00137036167554814,-0.000092518947766815,0.000353422726053365,0.000106207624292672,0.0000101590046449773,0.495001952102605,0.0000000000000016059774091756
"t24",0.928353575809039,1.59352136435479,2.53650149945392,0.63291285141133,-2.71020464783432,2.4627450095621,1.24631913290445,0.410153049733436,0.465079696066243,-0.962235827458934,0.424888513291027,1.31838482307702,"t24",0.739466641305544,-2.9551952247959,-4.90722874892347,0.132314711855719,0.128912225686095,-0.0200096906456007,0.0344026621738276,0.00449102307557024,0.0731157803529644,-0.00358806895169593,0.208326226157208,0.00857985745022876,-0.00123568675002161,0.00295385346764556,0.000087330365972424,-0.0000783793335842915,-0.479604134010463,-0.0266999833524686,0.0000566681031573431,-0.000224966052039161,-0.000163725546658721,0.000275734309308341,0.566926083822791,-0.000443630439523044,-0.000257133994716333,0.384646776244475,0.0000458006273528609,0.00000342727796652788,0.00000865437790855341,0.000000792130156782922,0.00000018859454096274,0.0000186671860531647,0.0000150108740489854,-0.0000292815597903738,-0.0000000000000013332329370139,-0.00000648180966774619,0.00000192496265178356,0.00000108426702418686,0.000000130948334205226,0.00000828556967157431,-0.00000000000000940113988665546,-0.00000150922115947264,-0.0000795045910016433,0.0227151804770557,-0.00000112701530424271,0.00000364237612657034,0.00000081707817336709,-0.420863741474475,-0.0000123262891326701,-0.0000000000000140380882292352
"t25",2.81276218831883,1.74287138113861,1.80499660236537,-1.09614511876504,0.721892418632952,1.28529984053609,0.0771309671677639,0.378917556149816,0.283205149207328,-0.354199633004186,0.192771700112736,0.914193625282011,"t25",-2.83496874767389,0.987078249806509,-0.052420730776509,0.0411041117663801,1.31877758521967,0.000384580083434586,0.185870864966763,-0.0101611097335362,-0.197891910399334,2.10232750177069,0.093569775470748,0.00185811407526211,0.0395139803173948,-0.000388311111745856,-0.000212022500156356,-0.100117242593385,-0.00413904042455725,-0.0000299952329119232,-0.00126539808586428,-0.0734169222844706,-0.0000454944892848843,0.0000573076216140652,0.000434344895790015,0.000152104475141293,0.00107443333064118,-0.0000406952860278268,0.0140925790973545,-0.00187054380774165,0.00014976789130311,0.00000416015053206127,0.000000939774052135164,0.000956146526601417,0.000365786751588703,-0.0000285946249850141,-0.00000000000000168027151722348,-0.000233440324515087,0.000680118979629044,0.0000155070773574155,0.225144507127998,0.0000706727569569773,0.0000000000000385387108672832,-0.00000629295176353327,-0.0000134588970651435,0.000000418110814889395,0.000000506754084405229,-0.00120489929183911,-0.000723776218294282,-0.000000782930725311209,0.0000205780970800892,0.0000000000000161409481461098
"t26",1.02079933501212,1.94358397721129,-0.127904355146937,0.437038081362963,-0.579644459581571,-0.319345970318347,0.213461071968473,0.837505852786571,0.0987352458299129,-0.470109858352498,0.219800334144378,0.300813758781153,"t26",-2.35913020790389,0.67579479473834,-0.0317943235061005,0.000025941322001478,-2.35081653166531,-0.0190325716835859,0.597300030363109,2.07869152511956,0.0139113174010918,-0.0179389836386024,0.0481216778283844,0.00272751700719908,0.484347934174148,-0.00882190962882352,0.00268924609938364,0.000910794556133751,-0.0000691847519434646,-0.00000246075521749373,-0.0159963530856814,-0.00346905152529552,-0.0000729492992973334,0.0000921495157017953,0.000748330233594827,0.000379360361243259,0.0138781158352412,-0.0000723242017953526,0.00130766262637967,-0.00219511579141873,0.000415681795083588,0.0000131503473960018,0.00000300820161104583,0.0229799285609172,0.751124016753575,0.000132978612882806,0.00000000000000291186762682133,0.000418470459994317,-0.000103839479710358,0.273806331456057,-0.00000243219303925286,-0.0000493718180477001,-0.0000000000000504441713157115,-0.380224542442466,0.0000993098275582022,-0.00000285402339684281,-0.000000275169194223151,0.0000364020334792498,0.0000189718470515882,0.000000308406978592183,-0.00000631393321150018,0.00000000000000123090278916666
"t27",-0.468333483712862,0.904559509473636,0.0625291842858813,3.22218846247138,-3.07537156414803,-2.62137844989553,-0.817671427642211,-1.04639371065755,0.104161615818432,1.69161667200714,-1.52563667888923,-1.62685385220682,"t27",-2.35913020790389,0.67579479473834,-0.0317943235061005,0.0000259413220019486,-2.35081653166531,-0.0190325716835849,0.597300030363108,2.07869152511956,0.0139113174010916,-0.0179389836386017,0.0481216778283833,0.00272751700720036,0.484347934174148,-0.00882190962882097,0.00268924609938386,0.000910794556133359,-0.0000691847519428052,-0.00000246075521944011,-0.0159963530856813,-0.00346905152529644,-0.0000729492992965522,0.0000921495157017204,0.000748330233593478,0.000379360361241844,0.0138781158352424,-0.0000723242017974969,0.00130766262638206,-0.00219511579141851,0.000415681795085963,0.000013150347397673,0.00000300820160896584,0.0229799285609148,0.751124016753576,0.000132978612878877,0.00000000000000516739129402606,0.00041847045999116,-0.000103839479705843,0.273806331456056,-0.000002432193045133,-0.0000493718180484319,-0.0000000000000617931160837459,-0.380224542442449,0.0000993098275521692,-0.00000285402339570247,-0.000000275169197646191,0.0000364020334480479,0.0000189718470649539,0.00000030840697692055,-0.00000631393320483381,-0.00000000000000220060495502002
"t28",0.82572899491547,2.85243008040678,0.147547146553885,0.730145110595557,-3.32076845276885,-1.16604142398933,0.636132230423125,0.377764461433994,0.25455812829276,0.773048078275529,-0.13928635018069,-0.359989586093254,"t28",-2.33820513305852,0.665857961947176,-0.0312442199861426,0.0000251367508330207,-2.23811858409287,-0.0176808361030572,0.495473810539376,-1.36426114085998,0.0361052967851792,-0.042242284552966,0.0792617049401771,0.00378904035232987,0.624042001979879,-0.0113288292794761,0.0034199441685183,0.00111789992419995,-0.0000796811398330405,-0.00000281135528080643,1.89941043411453,-0.0041591765040955,-0.0000845045403827466,0.000104862676913398,0.000819174473569331,0.000714501148994747,0.0602170710528676,-0.0000519846121012314,0.00109995816110159,-0.0019126770378412,0.000337094915003487,0.00000998347450045369,0.00000226952195709382,0.0147833421084293,0.00786503892380542,-0.000125689755393656,0.00000000000000151972376671922,-0.000563935234883781,0.000170709091389959,0.000854704890130218,0.0000235095068659277,0.587287218189569,0.0000000000000661657392868415,0.000271404808479834,0.0000657648420577529,-0.00000156681560233867,-0.000000962582814591088,0.0000927402985826396,0.00004319612604317,0.000000645856114250246,-0.0000126343074858317,0.000000000000000367955047031474
"t29",-1.7946380344237,0.8515520136213,-1.10259584227139,-1.90536151222751,-0.557131719204513,1.01717706090533,0.433910205228092,0.804757042490653,1.61920341045127,-1.45736021572576,1.52475743061969,1.25935123456868,"t29",-2.33820513305852,0.665857961947176,-0.0312442199861426,0.0000251367508332531,-2.23811858409287,-0.0176808361030568,0.495473810539377,-1.36426114085998,0.0361052967851801,-0.0422422845529668,0.0792617049401775,0.00378904035233048,0.62404200197988,-0.011328829279476,0.00341994416851821,0.00111789992420082,-0.0000796811398321974,-0.00000281135528063512,1.89941043411453,-0.00415917650409504,-0.0000845045403822209,0.000104862676913116,0.000819174473571157,0.000714501148994543,0.060217071052866,-0.0000519846120985252,0.00109995816110017,-0.00191267703784116,0.000337094915004206,0.00000998347450065941,0.00000226952195784815,0.0147833421084293,0.007865038923805,-0.000125689755394629,0.00000000000000119554830776204,-0.000563935234879889,0.000170709091391591,0.000854704890129474,0.0000235095068689231,0.587287218189569,0.0000000000000730029319316818,0.00027140480848221,0.0000657648420551377,-0.00000156681559816222,-0.000000962582814492332,0.0000927402985929625,0.0000431961260520826,0.000000645856116669939,-0.0000126343074848786,0.000000000000000297919616387311
"t3",-1.09663830935571,-1.05944521737999,-0.963338374743138,4.9728165607115,-4.73989746891723,-3.39547555118907,-0.833020100321713,-0.906659410649389,0.0698891976604158,0.0275665997574387,0.147567298317203,-0.461477373726338,"t3",0.711721225205147,-2.77616800362872,-4.56146510444721,0.116578752889014,0.106847885653966,-0.015383358192587,0.0207866037084684,0.00147370143117974,0.0166904802210714,-0.000785351402376512,0.0314924481020087,0.000620956611787538,-0.0000193472538534438,0.0000377607285640943,0.000000359066415642913,0.00000232367625700134,0.0460378943347525,0.00279108214141129,-0.0000288462379369572,0.00040097078191341,0.000387432146644919,-0.000771290752845648,-2.38204940440262,0.00116150505627287,0.000541353968356554,0.959201205030843,0.000741140446828836,-0.0008118416669272,0.00213716187711574,0.000056027442256144,0.000012608491247355,0.00061940956102662,0.000248139181326037,-0.000410718333523232,0.00000000000000022028342835684,-0.0000883996189395257,0.0000258622485454875,0.0000130561975659311,0.00000152419652599202,0.0000916089211798125,-0.0000000000000102756645272746,-0.0000144193695613647,-0.00063510197497301,0.0246528445956764,-0.0000169009091041505,0.0000602450559521661,0.0000235166169286559,0.00204408280736238,-0.0000703859952399119,-0.000000000000000700107479914222
"t30",-0.902597477593258,1.82971704367623,0.0682722871970645,3.03220487646847,-3.85953847182953,-3.45257203135299,-1.46598175401101,-1.11753597255205,-0.668461218536827,0.0415823998213763,-0.385111406584779,-0.495694335060699,"t30",2.74575676291678,1.25066818522005,0.25151177479703,1.50288422414127,0.0283115435787553,2.46312290750741,0.019208689523097,0.00243779630929692,0.0872205191378548,0.00355857597259011,0.0975266696347709,-0.00712121464555785,-0.0034322596798481,-0.0520812170298539,0.00102202889471714,0.0000237515676093079,-0.0427240743565355,0.893165156621882,-0.0000106017609395897,-0.000155315559080948,-0.907006269455947,-0.000265908213661526,0.000308581816009627,0.000083476534025838,0.0000444564242154072,-0.000034595496810997,0.0000287589252333032,-0.0000457970183791245,0.00109974055573347,0.0000302961890181354,0.00000683807608149984,0.0000471931824302115,0.0000180311203743561,-0.000741029207125658,-0.00000000000000299286466554369,-0.00000504662084984385,0.00000148792516992435,0.000000613384017386471,0.0000000633088254899239,0.00000291592708593177,0.00000000000000346828522245534,-0.000000128953524008681,0.000000523741953051185,-0.000000697366718625664,0.0000236249648558564,-0.0000046329300201653,-0.00000250196647614097,-0.000000908632117869698,0.0000146524642913642,0.00000000000000376772704140595
"t31",1.24443026012002,1.54191944965758,1.33537564540319,-3.45314420368299,2.57257438692387,4.32905853163988,-0.510946531364068,-0.218322086164975,0.174945684210462,1.03741179266259,-1.08340671502882,-0.0474734009105687,"t31",2.41349903553862,0.949200001939809,0.171957094142628,-2.42399843774033,0.061446057492949,-0.0731552324368357,0.00312009408003927,-0.00713495131192882,-2.35026873047926,-0.253059999540854,0.622906317372472,1.32893407542913,-0.00670566943877887,-0.0220765356297337,0.00260427813992062,0.0000356738756551282,-0.00936364021651872,0.0499717147971339,-0.000143990314705139,-0.000376137406688219,-0.00147805594611597,0.0017508567393347,0.00156325329512282,0.000340110373441629,0.000180934759476234,-0.000140294366279517,0.000116658378751045,-0.000190807562963164,0.0445769430358155,0.00121856393501842,0.000274949341910023,0.000149824119000656,0.0000684630879471556,-0.000812524684051489,-0.000000000000000539285708921747,-0.0000238669032842197,0.00000701204910134367,0.00000347055914156939,0.000000399238040138794,0.0000233010015097071,-0.0000000000000164172125716224,-0.0000033656166480603,-0.000139730082592189,0.0000144627414549037,-0.0000233568398863675,0.0000104446558411697,0.00000354664483387902,0.000000673361470751783,-0.00000567897342981075,0.000000000000000979790261760725
"t32",-2.01043359481531,-0.716933146959456,1.10284148935292,-0.819876543550752,-1.72752489776659,1.81938743716938,-1.85770221716622,-1.08932594644727,-0.137542143453403,0.790576349216903,-0.354928081983465,-1.05377055991478,"t32",0.740350386623853,-2.96088277513199,-4.91820117531422,0.13281137041533,0.129604586688854,-0.0201539026501378,0.034819586366447,0.00458076915720995,0.0747769939659047,-0.00367050481531838,0.213491929886807,0.0088105286700361,-0.00127074205979837,0.00303787239960856,0.0000898340548343241,-0.0000806948747750569,-0.494588533043523,-0.0275399833501104,0.0000590125669888502,-0.000240386365226908,-0.000176737461477012,0.000299752317643352,0.629758661648754,-0.000513639012728459,-0.000298041763563178,0.448509110317323,0.0000537694139555034,0.0000040976211334119,0.0000107860282714063,0.0000010124180753689,0.000000241561757732805,0.0000250293852332128,0.0000237549646168502,-0.0000522945083551732,-0.00000000000000368842131593126,-0.000011939053763842,0.00000361137940211557,0.00000247125518711877,0.00000032761239862,0.0000249285173981722,-0.0000000000000593981111020504,-0.00000856890644154169,-0.000738360133279375,0.576681164215069,0.00000467259690151395,-0.00000818704877119544,-0.00000118746003498278,0.368853468517716,0.00000725401454734727,0.00000000000000371544793828146
"t33",-2.65419297782187,-0.4885593064179,0.588058785835727,-1.05901341034891,-1.2900197386686,1.92386475684933,-2.45854885351389,-3.02644229839437,-1.93868462378887,2.47052072772961,-2.3509449760958,-3.70152385475183,"t33",0.740350386623853,-2.96088277513199,-4.91820117531422,0.13281137041533,0.129604586688853,-0.0201539026501376,0.0348195863664471,0.00458076915721015,0.0747769939659049,-0.00367050481531869,0.213491929886807,0.00881052867003537,-0.00127074205979776,0.00303787239960863,0.0000898340548344057,-0.0000806948747757294,-0.494588533043523,-0.0275399833501106,0.0000590125669888324,-0.00024038636522696,-0.000176737461476882,0.000299752317643218,0.629758661648755,-0.000513639012729514,-0.000298041763563481,0.448509110317326,0.0000537694139545579,0.00000409762113811659,0.0000107860282720927,0.00000101241807518268,0.000000241561757955952,0.0000250293852343524,0.000023754964614226,-0.0000522945083557444,-0.00000000000000364292301267904,-0.0000119390537666759,0.00000361137940422606,0.00000247125519046584,0.000000327612401713725,0.0000249285174002223,-0.0000000000000585335242414383,-0.00000856890644114832,-0.000738360133280079,0.576681164215065,0.00000467259690056297,-0.00000818704876708445,-0.00000118746003011453,0.368853468517717,0.00000725401454979713,0.00000000000000312724617573683
"t34",2.61878058488198,3.59875596735037,4.82695134161338,1.59289125708192,-1.04614095726283,0.825733415052866,-0.57523710050676,0.40628247267143,-0.596336474179469,1.43957055032143,-0.745693151518715,-1.51723430870068,"t34",2.83494403869637,1.32809217116575,0.271093998615831,1.82151746000713,0.0502850739695712,-1.77079033991224,0.011037569945247,0.00153766131275036,0.0551161579585702,0.00225226196195785,0.063898060031626,-0.00588045561214574,-0.021538950009263,-1.05733901242885,-0.00291824068715698,-0.00000603974878317139,-0.000275924867248625,0.0063390189524128,-0.0000215820187673634,-0.0000322711900008823,0.00180033523206732,-1.30835568282405,0.000948799525070039,0.000160832482372699,0.0000852994155789625,-0.000065087384875961,0.0000531492080816448,-0.0000820383113634612,0.00192735134117455,0.0000533025488147176,0.0000120393743698253,0.0000852295693008853,0.0000404856410692551,-0.0174531845931564,0.000000000000000118902092028453,-0.00000220057292386282,0.00000171002707267437,0.00000156183658829847,0.00000018657655834703,0.0000113440313354436,-0.0000000000000105539223674716,-0.0000017435128786018,-0.0000740820153668322,0.00000784249741705923,-0.000578150728742461,0.00000663593482785954,0.00000246524586760515,0.000000563474923343067,-0.00000624832745220524,0.00000000000000179841516123946
"t35",4.9369448035583,5.43104170253198,5.88263539866155,3.47165725143449,-3.26139202727659,-1.87086378227096,-0.61242554646773,-0.9451446555269,-0.138105483551591,1.43672586752353,-1.40247007388873,-1.24196123127302,"t35",0.0928518278904675,-3.58469685538126,2.50856994804373,0.0861948570499796,0.137007008961709,-0.0128381850345035,0.0273827520815901,0.00197825007134634,0.0177470413073453,-0.00125537608969192,0.0286875059705044,-0.00040181763679744,-0.00560400121746665,-0.00388383800325348,1.22454067000278,-0.000106180406121338,-0.013152842310349,-0.0000922492942321943,-0.000152731851103178,-0.000327110814458825,-0.0000905102263663214,0.000100489327007042,0.000361833711038466,-1.02514477076214,0.00766904743665509,-0.00071771475133593,0.000534756729629666,-0.000507557386505002,0.000804036452447661,0.0000208424412882595,0.00000468823341154011,0.00034361188106102,0.000138226061998071,-0.000154252590417118,-0.000000000000000687351009185751,-0.0000495944628524647,0.00001451913931092,0.00000744637488624014,0.000000880061904647018,0.0000548190892522052,-0.00000000000000337387631238851,-0.0000123072093052965,-0.017603984909193,0.00000125378309611916,-0.00000402924764015334,0.0000223289214383087,0.00000876891792605675,0.00000144614652114084,-0.00160795548139285,0.000000000000000402868323359406
"t36",0.986335492732182,1.93217218781066,1.92098342611712,-0.745611979585227,-0.0225023493602354,0.094835528539902,-0.135991184827297,-0.712352356425001,-0.672097289645669,0.0546850037154117,0.642170479593745,-0.499080466186617,"t36",-2.93107968277977,1.04362645499545,-0.0559849433660497,0.04634968559708,1.59456586247057,0.000514073045150178,0.417801493517667,0.0102516814415986,0.0655297398455127,-0.621321805101053,-0.00975161112486671,0.0000356851872691626,0.00077996046602134,-0.00000537206253166582,0.00000292351269992534,1.40368887536371,-0.00153276379148189,-0.0000109861535051635,-0.000667391947812767,-0.668855519107621,0.0000153172162005378,-0.000000323748635815095,0.000113220026644688,0.0000616381825196198,0.000440419815293351,-0.000018325850338703,0.0169774730797582,-0.000690145378327957,0.0000617219468947501,0.00000175464994990608,0.00000039694469794582,0.000411130917963814,0.000150248557821631,-0.0000104932837433751,-0.00000000000000295344063865817,-0.0000828097871065899,0.000637653265511444,0.00000298628631810514,0.00000360996677016248,-0.00000833919837352776,0.000000000000171983220801754,0.000010587834205846,0.0000536596452678906,-0.00000546847165590287,0.00000522847322002287,-0.0974181102943558,-0.705145359462649,0.00000322457707892015,-0.000037351186546405,-0.000000000000050289395680598
"t37",3.55780796141939,4.20535238099984,3.47553420853303,1.13468924485016,-1.66053772330691,1.06672245394854,1.01367396744966,0.275993866201198,0.606502992598648,-0.190605963230989,0.449615380469492,0.738116087692224,"t37",-2.93107968277977,1.04362645499545,-0.0559849433660439,0.0463496855970785,1.59456586247057,0.000514073045150951,0.417801493517665,0.010251681441596,0.0655297398455086,-0.62132180510105,-0.00975161112486347,0.0000356851872700021,0.000779960466022827,-0.00000537206252978926,0.00000292351270162281,1.40368887536372,-0.00153276379148672,-0.0000109861535057506,-0.00066739194781215,-0.668855519107623,0.0000153172161982249,-0.000000323748637636304,0.000113220026647184,0.0000616381825209857,0.000440419815290684,-0.0000183258503348365,0.01697747307976,-0.000690145378312918,0.0000617219468882588,0.00000175464994709489,0.000000396944705769556,0.000411130917963373,0.000150248557822381,-0.0000104932837326885,-0.00000000000000196425026377751,-0.0000828097871226878,0.000637653265505934,0.00000298628632625393,0.00000360996677811448,-0.00000833919837721748,0.000000000000115506817021772,0.0000105878342058112,0.0000536596452620701,-0.00000546847166524333,0.00000522847322759662,-0.097418110294334,-0.705145359462631,0.00000322457709837062,-0.0000373511865407765,-0.0000000000000162996998731032
"t38",3.06712697928332,4.94920213554978,3.50166480425491,1.69808153365474,-0.780745317706782,-1.28801719969156,1.92918744203242,2.16675480325772,1.44787262829375,0.0339850124450305,0.308432251823896,-0.197206786344276,"t38",2.67040568400305,1.19427842121803,0.238222379461229,1.36369101339612,0.0243753561296817,1.97656603798838,0.0116488930646229,0.000201029538668646,-0.0190012058749551,-0.000893179067810018,-0.0509625685610125,0.00665572734700656,0.00455205882963718,0.0702534551404472,-0.00145051058876284,-0.0000409464851320682,0.107553076321493,-2.36258596018651,-0.000148698434854153,-0.000314600821996089,-0.0532378969432449,0.00586194008055748,0.00124563968182378,0.00026660389942675,0.000141701617916627,-0.000109258533243225,0.0000901063878729174,-0.000141828007928542,0.00341707434680391,0.0000953499579593031,0.0000215500040060232,0.000153969318961407,0.0000699986355033268,-0.00333169396398502,0.000000000000000744666060397441,-0.0000235925707057272,0.00000712103373367785,0.00000380393693045117,0.000000447546832967022,0.0000271278188297671,0.00000000000000711545048503733,-0.00000427458849358551,-0.000184364838719968,0.0000198232862929069,-0.000146255999661183,0.0000187802263073697,0.00000732642943425597,0.0000018169875919231,-0.0000219308977106249,-0.00000000000000017090239987219
"t39",3.05571252982183,4.15775044417353,3.28191603062206,1.00713148224287,-1.00057689560158,0.834239010857465,1.30288146801938,1.45272409147472,0.69379093448076,-0.839911204333232,1.13454268059517,1.88151950704964,"t39",2.82478007967921,1.31996505397946,0.269118281338615,1.79636942280374,0.0491546038955688,-1.70881337553117,0.0100521790601705,0.00102895414533395,0.024921877120257,0.000954140536860389,0.00929749727647105,0.00293108372869454,0.0346319845125629,1.79631738786359,0.00586450606171912,0.000025106708109688,-0.00817635601249216,0.110701588438958,-0.0000529819936656871,-0.000173798516119179,-0.00313806148250334,0.0528113088252212,0.000809386887281188,0.000198589088821271,0.000105897257355342,-0.0000830942208780496,0.0000698977956240483,-0.000115964787515875,0.00315656279923574,0.0000952165912919537,0.0000216679698684527,0.00018076459652716,0.000196318742049919,-0.509551219115746,0.0000000000000144023424703534,0.000288671622507306,-0.0000531332078309493,-0.00000560257469160478,-0.00000047915453747888,-0.000019000249347356,0.00000000000000389560976275787,0.00000141559742077518,0.0000445608555687903,-0.00000331071000183813,-0.110847650356848,-0.00000378360682834561,-0.000000701772939606903,-0.0000000469833000395268,-0.000000282409827763995,0.000000000000000668969982568677
"t4",-0.176269890822779,-1.40092509798692,0.187964432723242,1.94330756085968,-1.75512079683302,1.20594466756114,0.69122029547592,0.962942199112618,0.388977883631563,0.863515887053648,-0.524870106582146,-0.561337342130841,"t4",2.49679717899351,1.00570290214883,0.184217721181184,-2.76484907622755,0.076550652960549,-0.105111724013182,0.0160443549896707,0.00108510861760896,-0.23540284875963,-0.0307069473276507,0.204349463179791,-1.39505051034652,0.000553402957450215,0.00159044539630454,-0.000115584998478883,0.00000100024821606109,-0.00095089420135987,0.00539448182540394,-0.0000308856909130039,-0.0000564807411257999,-0.000119674811984628,0.0000386184658631005,-0.000345185564488844,-0.000382673983758911,-0.000210454780561605,0.000194767117495668,-0.000197774482576873,0.000562595393719561,-1.22558411627656,1.43912901283361,-0.346261386885229,0.000802016386368007,0.000206181036387977,-0.0022438470490761,0.000000000000000377811530917414,-0.0000651765170062847,0.0000190456741216535,0.0000092095942467397,0.00000105984374069649,0.0000624115537358545,0.00000000000000066583126047137,-0.00000942762829664522,-0.000401664443060769,0.0000427621410118357,-0.0000787114942094607,0.0000390508127381847,0.0000151031905588984,0.00000371087729263014,-0.000044554889828165,0.0000000000000000841151421572321
"t40",-1.96988634608137,-0.339709791535409,-1.28647312344413,3.75075507724216,-3.53115565086708,-1.82589362973821,-0.728395274193212,0.277517807190653,-0.0834883280215943,0.538453674130946,-1.24447642262287,-0.0681111850694922,"t40",2.75078349086805,1.25435603605555,0.252373462433511,1.51153113471841,0.0285447057737868,2.49035594176486,0.0195662288195816,0.00251275772759338,0.0902717973212812,0.00368447033316248,0.101252027849844,-0.00741629296531136,-0.00358238179064375,-0.0543652162052597,0.00106720694448972,0.0000248336991325481,-0.0447834520533417,0.936519109998001,-0.0000112800142474787,-0.000171877184213883,-1.01940514375128,-0.000302082832505992,0.000362257958159485,0.000104344412937485,0.0000556629768842916,-0.0000437086940138703,0.0000367098837805864,-0.0000600883045335322,0.00153592305641575,0.0000439395745772742,0.00000994951676169784,0.0000735225110711492,0.000035916486659129,-0.00176501821717575,0.00000000000000124727539795342,-0.000012583122572116,0.00000381247139685184,0.00000210467734896487,0.000000250668637471406,0.0000154955174534289,-0.00000000000000574403684406644,-0.00000254205620863594,-0.00011139395667484,0.0000121579063671684,-0.0000947043790213125,0.0000125781103704174,0.0000050845264388797,0.00000133322867807182,-0.0000170003584396279,-0.00000000000000153933072763186
"t41",1.65960177409522,2.72343435808788,2.04800866682007,0.843342780286838,-1.48541595965899,-0.835485803133703,1.62283794202181,1.25608228760368,1.66782791596129,0.340624989980623,-0.889691863188087,-0.103741302478405,"t41",-2.93997551390143,1.04882452079709,-0.056311615672116,0.0468236522451752,1.6191097358021,0.000525399515507015,0.437107947162453,0.0117045523865377,0.081091515367715,-0.777446901137184,-0.0137054544388233,0.0000713343321941045,0.00765029500225955,-0.0000800539295933928,-0.0000536158891403958,-1.36579661135665,-0.000342494660368713,-0.00000301391049987995,-0.00048156774292001,-0.166628219287074,-0.0000212466539348849,0.0000328846606634654,0.000341882331331373,0.000327989342550034,0.0024735441837239,-0.000155616010494029,0.541544953717479,0.00188037396172296,0.00000964711286110758,0.000000933053174080497,0.000000220424635691494,0.000381449212548368,0.000336989424149436,-0.0000782246820024954,0.0000000000000321063660686518,-0.00159668403804117,0.520942234806553,-0.00000317047309422172,0.00000108932351078556,0.0000249001628133123,0.0000000000000483572375142341,-0.00000696236311646373,-0.0000256175777708895,0.00000197257994182339,-0.000000640073331237682,0.00214254636798712,0.000857772106158534,0.000000211628607490033,-0.00000396415611032734,-0.00000000000000294570006909772
"t42",2.78778030737286,5.2601887378105,3.32446707716919,0.649532851505576,0.200637675513631,-0.65720897021476,2.98453304240567,2.12585110194747,2.21219704453629,0.892454325152434,-0.569801014750253,-0.586133406810072,"t42",2.67114438363487,1.19480961364796,0.238345397384668,1.36486939362994,0.0244053907749394,1.97982158130811,0.0116808256193092,0.0002019235764965,-0.019096747302742,-0.000897718115587698,-0.0512410519111414,0.00669499488326552,0.00458031266896897,0.0706905892244833,-0.00145960338851039,-0.0000412105227553403,0.108284039141486,-2.3787475023878,-0.000150010037561661,-0.000318965479353582,-0.0540771643866722,0.00596183161293846,0.0012715404208973,0.00027390452670714,0.000145605487478502,-0.000112365475648535,0.0000927582556236297,-0.000146367524387025,0.00354502493784985,0.0000992092759296286,0.0000224276499058829,0.000161014526384018,0.0000742133033665942,-0.00355843646186054,-0.000000000000000145492449855571,-0.0000252390680432371,0.00000762501877570931,0.00000410633233185672,0.000000484595660159217,0.0000295166867038166,-0.0000000000000063502414244956,-0.00000469648624050351,-0.000203311807075924,0.0000219350076329411,-0.000163723268443149,0.0000211623903199576,0.00000830931284673258,0.00000207978627049615,-0.000025306060857687,-0.00000000000000000059831636082339
"t43",2.57565283118401,5.44166699511461,3.60615992266754,1.9613580480924,0.0140672039631962,-0.73002874743835,-0.284499209409872,0.882437847522216,0.192686069528553,1.57290288033265,-1.62051514563669,-0.772098701363995,"t43",2.67114438363487,1.19480961364796,0.238345397384668,1.36486939362994,0.0244053907749394,1.97982158130811,0.0116808256193096,0.000201923576497208,-0.0190967473027415,-0.000897718115588993,-0.0512410519111417,0.00669499488326529,0.0045803126689681,0.0706905892244835,-0.0014596033885102,-0.0000412105227543642,0.108284039141487,-2.3787475023878,-0.000150010037561132,-0.000318965479351098,-0.0540771643866713,0.00596183161293838,0.00127154042089922,0.000273904526707225,0.000145605487479073,-0.000112365475647779,0.0000927582556242787,-0.000146367524388021,0.00354502493785078,0.000099209275929651,0.0000224276499055337,0.000161014526385463,0.0000742133033661951,-0.00355843646186251,0.000000000000000946466892072286,-0.0000252390680423321,0.00000762501877699427,0.00000410633233140029,0.000000484595662389254,0.0000295166867047161,-0.00000000000000629061474445339,-0.00000469648624141644,-0.000203311807077157,0.0000219350076330439,-0.000163723268443559,0.0000211623903181681,0.00000830931285165813,0.000002079786269146,-0.0000253060608580283,0.0000000000000004342518026035
"t44",1.30320501282944,2.39102478463639,2.40862001753088,3.09672806043812,-2.21321679621674,-2.11887762603986,1.55361810722344,2.08188937627833,1.57292219926198,-1.94932280810704,1.62376878868264,0.939915512842086,"t44",2.84926272618519,1.3389943400914,0.27368967899734,1.8513747061661,0.0514899246591613,-1.82916617267137,0.0116942868342875,0.00170900746508677,0.0624508947546996,0.00255678136786559,0.0735497191898518,-0.00688415823689005,-0.0255387186107414,-1.25451265932905,-0.00346935827362919,-0.00000723725275889117,-0.000335990292483966,0.00773538154760427,-0.0000296722140323434,-0.000162551020423008,-0.00458575873494339,0.947121285352888,0.000204185889024611,0.0000851639252337768,0.0000455030355040813,-0.0000359910573102983,0.0000304177809715555,-0.000050309664003175,0.00129789006390495,0.0000372165477122924,0.00000842854916539494,0.0000624997755457427,0.0000325679443214788,-0.0146030819592942,0.00000000000000162256056950235,-0.00000185635737031445,0.00000144918949556517,0.00000137663183139198,0.000000166828621884414,0.0000103766554834506,-0.00000000000000152048034107641,-0.00000166874743096954,-0.0000721408788688622,0.00000775987818256032,-0.000604283168505358,0.00000715558073241116,0.00000273899558385105,0.000000651059148487651,-0.00000741127739074092,0.0000000000000025260597392665
"t45",0.691904374604424,1.65594230355556,1.01954441527738,2.06355352875729,-1.60911951413074,-1.25412624207552,-0.509373281496703,-0.56449553877892,0.180350576389813,-0.994009425667108,0.92280985602197,0.358920126487569,"t45",2.8492627261852,1.3389943400914,0.27368967899734,1.8513747061661,0.0514899246591613,-1.82916617267137,0.011694286834289,0.00170900746508716,0.0624508947546998,0.00255678136786449,0.0735497191898524,-0.00688415823688996,-0.0255387186107402,-1.25451265932905,-0.0034693582736296,-0.00000723725275818931,-0.000335990292483903,0.00773538154760374,-0.0000296722140324476,-0.000162551020423962,-0.00458575873494483,0.94712128535289,0.00020418588902464,0.0000851639252339553,0.000045503035504172,-0.0000359910573089368,0.0000304177809700363,-0.0000503096640011904,0.00129789006390434,0.0000372165477123884,0.00000842854916513452,0.0000624997755468869,0.0000325679443232921,-0.0146030819592949,0.00000000000000162256059323024,-0.00000185635736736185,0.00000144918949659564,0.00000137663182668728,0.000000166828622186875,0.0000103766554845987,0.00000000000000729433052516396,-0.00000166874743251708,-0.0000721408788693131,0.00000775987818366002,-0.000604283168507528,0.00000715558073320923,0.00000273899558782454,0.000000651059148366722,-0.00000741127739091302,0.00000000000000178447934955995
"t46",0.841752701626146,-0.574943923569526,-0.406944367725096,3.81344350660689,-4.35781569756428,-2.80174516962638,-0.571128829568522,-0.114101617116131,-0.47589919173581,-0.858282641542307,0.493793001595397,0.29236289121559,"t46",2.56954901727163,1.05432067582397,0.194700218502798,-3.04732474810759,0.0886595932247151,-0.129788989692707,0.0251237542071562,0.00656371016860622,1.38975819497049,0.145282433687309,-0.334933718158886,0.916609009242492,-0.000173364070791333,-0.000476530412803461,0.0000300604102942346,-0.000000126070399895138,-0.0000689483215570608,0.000505203106218077,-0.0000204974078374061,-0.000120805305176562,-0.000541718129991103,0.000692584438344541,0.000756246774819307,0.000242990676698076,0.000130841899728199,-0.000108579712504427,0.0000981892471587535,-0.000211397326497097,0.264059097407871,0.168388918614083,-0.0337486793115854,-0.0000855965391545268,0.000000681105056488182,-0.0000848248694233854,-0.000000000000000829290882185683,-0.00000288176250537266,0.000000908633562892451,0.000000688942955758998,0.0000000886699383476312,0.00000604378490562954,-0.00000000000000167948482118898,-0.00000114140542695331,-0.0000522331576404268,0.00000591908715377863,-0.0000134083524191721,0.00000757989434063034,0.00000342318775220233,0.0000011736992956205,-0.0000272765181979494,-0.0000000000000185192112835302
"t47",2.16746753014287,2.69303962975413,3.15899672262265,0.962892371042086,-2.14918131478525,-0.0106945035767397,0.928801483615751,0.918353080116169,1.7091023292312,1.47060580951067,-1.16022481496662,-1.38276841572515,"t47",-2.93610115344225,1.04650723292321,-0.0561645249126336,0.0465995477376468,1.60687975695551,0.000519407368602422,0.425117491879611,0.0105493733043496,0.067697487546304,-0.642109548967818,-0.0101041969612907,0.0000370862407823735,0.00081230737315551,-0.0000055954542266294,0.00000304606684760773,1.46436268656288,-0.00160291565357797,-0.0000114925483063617,-0.000708132692322163,-0.737815689286368,0.0000171623635872408,-0.00000036672252567784,0.00013266212090291,0.0000772119768703546,0.000552703730268346,-0.0000232254360161533,0.0217607717414843,-0.000912071430918112,0.0000876298479921321,0.00000260538525811247,0.000000591696585592535,0.000666884292808274,0.000343854257628017,-0.0000325669445017992,0.00000000000000402161131447297,-0.000280763093198375,0.00228460864093836,0.0000234281085826106,0.000056034258826785,0.000187295903701802,-0.0000000000000841133699795474,-0.0000355180089605701,-0.000131081368815677,0.0000105083738360474,-0.00000535620955618733,0.0746016795567252,0.415406406478902,-0.00000133259148211008,0.000011333531901071,0.0000000000000224739308017395
"t48",-0.15279071285493,2.23406029789022,1.36899924127591,0.329078110154552,0.596650493083309,0.68830459121369,-0.313103355239395,0.472816157982667,0.508591321704945,-1.35898480090984,1.06746311169188,2.05064527137847,"t48",2.74020527057273,1.24652789427513,0.250537563573348,1.49276795218762,0.0280286153123417,2.42867441036196,0.0187027853401562,0.00231035241144162,0.0816811256309392,0.00332861030436274,0.0904129730095201,-0.00652791266890705,-0.00311898731746529,-0.0473060181975151,0.00092703575847038,0.0000214252859448624,-0.038099709641569,0.795264212483615,-0.00000859394654762414,-0.0000141731411212404,1.4041442493469,0.00609411970951622,0.000810394746579121,0.000161807249731038,0.0000859746514835433,-0.0000662058188877025,0.0000545570437841971,-0.0000858705225689942,0.00207787324688549,0.0000581741508826067,0.0000131516665689841,0.0000945126024753426,0.0000436480656896832,-0.00209347820187298,0.000000000000000846608129690302,-0.000014848552615322,0.00000448589354391826,0.00000241512780177579,0.000000284959313164064,0.0000173503389404292,-0.0000000000000101663489471972,-0.00000275811578730275,-0.000119353751777993,0.0000128723247604484,-0.0000959688654384898,0.0000123979009810425,0.00000486603550703328,0.00000121765821310452,-0.0000148194638970555,0.000000000000000748521486768165
"t49",-2.44764900069547,-0.734915647628538,-3.67622215427982,0.0710888212145677,-3.60620571413024,-3.30976711635326,-1.16460714319088,-0.86033322749068,-0.927263599946976,-0.211521604395004,-0.417794605371262,0.184425656936379,"t49",-2.29731534288239,0.646581765256811,-0.0301807182717097,0.0000236112118797823,-2.03011201214436,-0.0152864075982642,0.34972979435946,-0.248581579080833,-0.0113725013922339,0.0158652250816703,-0.0755517977940307,-0.00848978484073165,-2.71481947040732,0.051184443505966,-0.0173888400975172,-0.00979759481156205,-0.0276948869253434,-0.000191243251119692,-0.0548810450600996,-0.00762223424835455,-0.000151550967736882,0.000186457315665974,0.00144530516752318,0.000716730360099797,0.025637027565269,-0.00013876007153784,0.0025221527833112,-0.0043519850737688,0.000956958412324399,0.0000372466838376099,0.00000874176254720555,0.732784915294546,-0.000740926298786405,-0.0000228611308525674,0.0000000000000000897721653340877,-0.000116450678712026,0.0000369743424857708,0.000169671441248509,0.00000361091349038306,0.00141969097338143,-0.00000000000000898375312635998,-0.000247621403399283,-0.000143949785261903,0.0000106452596346884,-0.00000306134592164192,0.000216753222959421,0.0000865200697505426,0.0000011434638967462,-0.0000209626439589782,-0.00000000000000000633334848466136
"t5",1.29270060246274,-0.209837031696753,0.301005129879853,0.871178762879332,-0.622550624672431,-1.10086054938492,0.083804383749519,0.226343196768025,0.409735157675457,0.875626631377501,-1.05248217176484,-0.800880552592909,"t5",2.51988584101063,1.02146708018461,0.187648118771316,-2.86158636069464,0.0809075338667362,-0.114515874586464,0.020112869284357,0.00437716567548973,0.861004604551707,0.0893644774941189,-0.195380772340693,0.501078537567992,-0.0000902284490440077,-0.000247382546459649,0.0000154853331976829,-0.0000000629890346365044,-0.0000323586312721841,0.000235135754605699,-0.00000584288737963928,0.0000293548438309801,0.000254938185344362,-0.000439959364256621,-0.000892153456958408,-0.000590959572207121,-0.000323186244191487,0.000290959308715036,-0.000287587912879148,0.000773016696419867,-1.51438723890452,-1.24559526312015,0.255079943431705,0.0010280224367398,0.000246094036241048,-0.00263360099031713,-0.00000000000000249791579893507,-0.0000762724676862431,0.000022252871851767,0.0000106361301559514,0.00000121972391421698,0.000071475973891313,-0.00000000000000025838228018292,-0.0000107135138147411,-0.000455361257886091,0.0000483832304968109,-0.0000885835948892407,0.0000438541010556085,0.0000169373025659009,0.00000416217147687733,-0.000050407255193622,-0.000000000000000334254839994405
"t50",-1.12375221482784,0.84854355950558,-2.39153738943338,0.513926415793664,-3.45888307588629,-3.62244605691519,0.275776776993734,0.397626440902534,0.327961828273733,-0.32544197933135,0.0897732854101375,1.09177375166298,"t50",-2.29731534288239,0.646581765256811,-0.0301807182717095,0.0000236112118799961,-2.03011201214436,-0.0152864075982646,0.349729794359461,-0.248581579080833,-0.011372501392234,0.0158652250816695,-0.0755517977940308,-0.00848978484073115,-2.71481947040732,0.0511844435059658,-0.0173888400975175,-0.00979759481156249,-0.0276948869253433,-0.000191243251119682,-0.0548810450601008,-0.00762223424835521,-0.000151550967737581,0.000186457315667231,0.0014453051675253,0.00071673036009896,0.0256370275652676,-0.000138760071536067,0.00252215278331062,-0.0043519850737711,0.000956958412323947,0.0000372466838376905,0.00000874176254720491,0.732784915294542,-0.000740926298781848,-0.000022861130852186,0.000000000000000365605565464979,-0.000116450678708327,0.0000369743424852652,0.000169671441249087,0.00000361091348948363,0.0014196909733792,0.000000000000000238506720168849,-0.000247621403396554,-0.000143949785259823,0.0000106452596336756,-0.00000306134592235984,0.000216753222956233,0.0000865200697499756,0.00000114346389426872,-0.0000209626439586045,-0.000000000000000106415189542926
"t51",0.320200594481844,0.189225261436096,0.226301836631426,1.41461173488073,-0.701012078774821,-0.815914226800599,-0.45387782606264,-0.239777135356033,0.134900675318361,-0.118255220034672,-0.0641350487680527,0.0863678477943089,"t51",-2.3564635094435,0.697319456978411,-0.0339193478723047,0.0119086839427249,-0.360174469860456,-0.000513188578752376,-3.17633199710043,0.0556676413060014,0.0551143550084808,-0.144667672832591,0.0883473989137486,0.00285715762679781,0.0703068446284907,-0.000694440649786647,-0.00038446121227487,-0.0037854059917695,-0.00870848449738969,-0.0000635346293936801,-0.00310179805454807,-0.0149188775555998,-0.000146090233774108,0.000184156578647065,0.00154120776567835,0.000849869880315651,0.00612613423967426,-0.000259463496877217,0.0111603156702848,-1.2320980659515,-0.000155511140198843,0.000000776300021105936,0.000000236269060110526,0.00104757578327412,0.000816424779280933,-0.000100396968185611,0.00000000000000180212111814322,-0.0466346183771619,0.0000534594081538185,0.0000457832707063533,0.0000108666223268868,0.000347196769669537,-0.0000000000000213861025751401,-0.0000565089860470069,-0.000191465651841081,0.0000139261524391705,-0.0000038499992166741,0.000522028691290498,0.00020562762717351,0.000001373323612502,-0.0000249378780949179,-0.00000000000000373140430690751
"t52",0.90790521841946,0.376524530079368,0.442803023608527,1.37256866913759,0.0229654950966671,-0.00573836780929777,-0.47126861982251,-0.786653512232747,-0.404784855216462,0.840256129851288,-0.521394304908565,-0.459177464720097,"t52",-2.35646350944351,0.697319456978406,-0.0339193478723085,0.0119086839427248,-0.36017446986046,-0.000513188578751524,-3.17633199710044,0.0556676413060072,0.0551143550084825,-0.144667672832595,0.0883473989137547,0.00285715762680279,0.0703068446284925,-0.000694440649787464,-0.000384461212275658,-0.00378540599176784,-0.00870848449739546,-0.0000635346293955477,-0.00310179805454927,-0.0149188775555945,-0.000146090233775044,0.000184156578647276,0.00154120776568351,0.000849869880315894,0.00612613423967394,-0.000259463496879295,0.0111603156702869,-1.23209806595148,-0.000155511140200205,0.000000776300016598799,0.000000236269056439872,0.00104757578325771,0.000816424779288214,-0.000100396968186699,0.00000000000000233550865742861,-0.0466346183771717,0.0000534594081478107,0.0000457832706893621,0.0000108666223185334,0.000347196769668995,0.00000000000000365710304258902,-0.0000565089860412196,-0.000191465651831334,0.0000139261524338545,-0.00000384999922046766,0.000522028691284895,0.000205627627179035,0.00000137332362110285,-0.0000249378781142478,0.00000000000000261254732854787
"t53",-3.80829364544766,-1.59429728853188,-3.43090691348954,-4.56957031057785,1.64034198870897,1.37474647460148,-0.452446892449222,-0.439151469521516,-0.46736382225201,-0.784707543076204,0.621881325691545,0.717179880048622,"t53",-2.34649323558049,0.669712255318171,-0.0314556093199359,0.0000254310071645535,-2.27688866419777,-0.0181087233548512,0.518226041592718,-1.49728190987538,0.0405982813688724,-0.0476210041426153,0.0911891056248511,0.00448666854532145,0.758048696628229,-0.0137812627666547,0.00417864345151875,0.00139148267774602,-0.000103727684416345,-0.0000036847538743089,-1.4746743906068,-0.00410585786865236,-0.0000900617890485929,0.000117767231765666,0.0011301654063895,0.00856080318845958,1.13842555201966,0.000382636369895648,-0.00263953066783852,0.000980084197589217,0.0000480208837822623,0.00000256273078604736,0.00000059802273801256,0.00522232453143092,0.00314573808643271,-0.0000457257606051504,0.000000000000000314470297741474,-0.000197742815294777,0.0000584228655918136,0.000197050339517243,0.00000385873450541757,0.00525146247721413,-0.00000000000000345834744244831,-0.000219327783342002,-0.000121637871250102,0.00000885982041130248,-0.0000024497579043125,0.000170704103350523,0.0000672866512356756,0.00000087678480239794,-0.0000159175017361104,-0.000000000000000010595337069571
"t54",-2.72957919295215,-0.374403105977958,-2.448396137585,-4.6884571299887,2.13326006392099,1.73859182865268,-0.136693909278516,0.193261011025595,0.17834709634357,0.726582875969558,-1.07963196877653,-0.629546127587902,"t54",-2.34649323558049,0.669712255318171,-0.0314556093199362,0.0000254310071637161,-2.27688866419777,-0.0181087233548511,0.51822604159272,-1.49728190987538,0.0405982813688722,-0.0476210041426157,0.0911891056248506,0.00448666854532046,0.758048696628228,-0.0137812627666552,0.00417864345151922,0.00139148267774371,-0.000103727684418262,-0.00000368475387420304,-1.4746743906068,-0.00410585786865116,-0.0000900617890487098,0.000117767231766045,0.00113016540639086,0.00856080318845919,1.13842555201966,0.000382636369896088,-0.00263953066784024,0.000980084197586624,0.000048020883782996,0.00000256273078453085,0.000000598022739788371,0.00522232453143306,0.00314573808643594,-0.0000457257606075233,-0.0000000000000000438288637831416,-0.00019774281528937,0.0000584228655915326,0.000197050339512264,0.00000385873450470592,0.00525146247721437,-0.000000000000000725457940513582,-0.00021932778334394,-0.000121637871250219,0.00000885982041061897,-0.00000244975790269673,0.000170704103347438,0.0000672866512341171,0.000000876784803930364,-0.0000159175017382132,0.000000000000000497130245777536
"t55",0.345852643111556,-0.959895501336258,-0.422128714492157,3.69862594507466,-4.71838054556341,-3.37253668356661,0.319854017984589,0.716475262267053,0.854877352905531,-0.975808841765537,0.123880123387785,0.377316791189262,"t55",2.56977889934343,1.05447228983752,0.194732720814086,-3.04817542856517,0.0886948607935469,-0.129857948589723,0.0251459251372103,0.00657307741190374,1.39199818439512,0.145519075792649,-0.335519923961367,0.918339677338553,-0.000173708240292468,-0.0004774787630721,0.0000301206753290022,-0.000000126330304278582,-0.0000690980400920518,0.000506307168266524,-0.000020554956292408,-0.000121333840993982,-0.000544401920112508,0.000696284803830955,0.000761143532208159,0.00024503834284088,0.000131950855366291,-0.000109528099220385,0.0000990752790704298,-0.000213462453154499,0.267048057653091,0.170438326487558,-0.0341617870706334,-0.0000867634840518888,0.00000069302543072698,-0.0000864809163578505,0.000000000000000508960731957284,-0.0000029392896872482,0.000000926998179740806,0.000000704360047059357,0.0000000907251728293365,0.0000061915326721379,0.00000000000000219624938155482,-0.000001172151952355,-0.0000536888066495682,0.00000608906792490051,-0.0000138314880552924,0.0000078310886341064,0.00000354185239815978,0.0000012168838692278,-0.0000283299804987216,-0.0000000000000192511820311991
"t56",2.19005846704006,0.807808879172629,1.25246719440303,3.57706325481467,-3.36340113474125,-1.62699637986234,0.0459382200007696,0.711789993109879,-0.245035383190488,-0.27636865549231,0.703031077563533,0.441391931749113,"t56",2.56977889934343,1.05447228983752,0.194732720814086,-3.04817542856517,0.0886948607935472,-0.129857948589723,0.0251459251372115,0.00657307741190407,1.39199818439512,0.145519075792649,-0.335519923961367,0.918339677338553,-0.000173708240291971,-0.000477478763071894,0.0000301206753289773,-0.000000126330302434484,-0.0000690980400917388,0.000506307168266779,-0.0000205549562910716,-0.000121333840994724,-0.000544401920112801,0.00069628480383037,0.00076114353220962,0.000245038342841188,0.000131950855367759,-0.000109528099219386,0.0000990752790663958,-0.000213462453157013,0.26704805765309,0.170438326487557,-0.034161787070632,-0.000086763484055366,0.000000693025431077614,-0.0000864809163575153,0.000000000000000389527706273193,-0.00000293928968336796,0.000000926998182094424,0.000000704360047144146,0.0000000907251689215124,0.00000619153267154572,-0.00000000000000148072922104827,-0.00000117215195330297,-0.0000536888066496309,0.00000608906792588265,-0.0000138314880551295,0.00000783108863760686,0.00000354185239885858,0.00000121688387046782,-0.0000283299804997005,-0.0000000000000188250071501911
"t57",-2.77661585515704,-0.115130942301785,-0.975541966232136,0.453756629294214,-0.0684827090961131,0.0260216817876304,1.90183984101877,1.50366411415404,1.7072486855825,1.5944187490997,-1.80209366266842,-1.09494786253556,"t57",2.74047941407134,1.24672834493864,0.250584332370694,1.49323392386748,0.0280410820833408,2.43011720711122,0.0187212371435744,0.00231403790666997,0.0818282746018173,0.00333467024263314,0.090589833568101,-0.00654168772064037,-0.00312590725515795,-0.0474112311482833,0.000929112772566998,0.0000214746475107708,-0.0381921604821655,0.797206375197395,-0.00000862090439501668,-0.0000142423861366195,1.41191097000705,0.00613046750838574,0.000816250396979484,0.000163327875200278,0.0000867872678452228,-0.0000668506467662932,0.0000551059597002238,-0.0000868056149478742,0.00210407799977705,0.0000589627668067599,0.0000133309738689365,0.0000959470876738347,0.0000444974405977997,-0.00213889236213296,-0.000000000000000120774661579193,-0.0000151778663344675,0.00000458661392635445,0.0000024751244213366,0.000000292289599504171,0.000017820875695063,0.00000000000000353784968250459,-0.00000284047054820637,-0.000123039574479505,0.0000132818394835232,-0.0000993208307679587,0.0000128524028203077,0.00000505254065327991,0.00000126716000698914,-0.000015451479575449,0.0000000000000000199954557403256
"t58",-1.62548320551997,0.789521233455146,-0.972122599461061,1.12067729688669,-0.669841948249499,-0.321382399433243,0.705087570148859,0.830053610741366,0.939403065918359,0.179559062051566,-0.511264090584954,-0.519673258189108,"t58",2.74047941407134,1.24672834493864,0.250584332370694,1.49323392386749,0.0280410820833407,2.43011720711122,0.0187212371435757,0.00231403790667057,0.0818282746018175,0.0033346702426331,0.0905898335681006,-0.00654168772064044,-0.00312590725515959,-0.0474112311482833,0.000929112772567722,0.0000214746475108646,-0.0381921604821647,0.797206375197395,-0.00000862090439532163,-0.0000142423861329028,1.41191097000705,0.00613046750838565,0.000816250396979581,0.000163327875200854,0.0000867872678457721,-0.0000668506467656846,0.0000551059597007879,-0.0000868056149459449,0.00210407799977771,0.0000589627668074658,0.0000133309738683824,0.0000959470876738271,0.0000444974405972212,-0.00213889236213116,0.000000000000000402455886286553,-0.000015177866332748,0.00000458661392498436,0.00000247512441925298,0.000000292289598981817,0.0000178208756967662,-0.00000000000000188817820133672,-0.00000284047054571009,-0.000123039574479646,0.000013281839484003,-0.0000993208307679376,0.0000128524028159663,0.00000505254065119501,0.00000126716000473055,-0.0000154514795740152,-0.000000000000000612770453478618
"t59",1.75029708300364,2.73736764456378,2.25554254568983,2.04227340172004,-1.84014917580817,-1.63240748777125,-0.809138336396211,-0.415426779196604,0.708174002575385,0.0674854113762545,-0.851050477283703,-0.587058190724629,"t59",0.0937341924933223,-3.64090041833362,2.55475079362999,0.0890059528793395,0.143808462144743,-0.0137617983276372,0.0316500811604321,0.00301666414635764,0.035421100120402,-0.0026064107682796,0.0957159981334152,0.00429482238382217,0.00774421288242067,0.00502170555079336,-1.30077003699683,0.0000522602143766213,-0.000200556246454784,-0.0000050907726016323,-0.000100299499533192,-0.000322327819096062,-0.000101010745146299,0.000124953984236698,0.00095755408757658,0.0226113541686905,0.00000273225653272298,-0.0000709933254781168,0.0000960123287182934,-0.000157276904884512,0.000348576004231946,0.00000971839171318499,0.00000219565960013799,0.000169950310163244,0.0000636701587732648,-0.0000571787163197813,0.000000000000000927967038269369,-0.0000168969620859883,0.00000466849454324072,0.000000412680618489835,-0.000000102194047951019,-0.0000304187669965227,0.00000000000000731420608517803,0.0000451946308577405,0.17982932792114,0.0002409694065523,-0.0000254484174236355,0.000127691713562428,0.0000541971221437904,0.000014304887753268,-0.712207913833034,-0.00000000000000154719250626385
"t6",-1.41521093594967,0.230935047039823,-2.34569717874872,-1.41367790366021,-2.12811045900327,-3.7229583793054,-1.216868638055,0.01430289757988,-1.15171493121592,-1.48180287333941,1.85210269320537,0.165540542008771,"t6",-2.2854580578248,0.64120118868823,-0.0298887873366578,0.0000232268690457593,-1.98270494644998,-0.0148059609420641,0.331097900420942,-0.226459285524234,-0.0102165529655081,0.0142338486292609,-0.067141640831915,-0.00746152187545726,-2.36699206077167,0.0446084971555713,-0.0151362482535105,-0.008487790084533,-0.023768081883673,-0.000163928485130312,-0.044397353745135,-0.00509152947283185,-0.0000920369066068377,0.000105060367910141,0.000605297849864965,0.0000636417796982961,0.00202132173231823,-0.00000333964648872027,-0.000103084683963797,0.000997936470606012,-0.000724193795377706,-0.0000434491449964437,-0.0000105395317818665,-1.64613358294269,0.028196317566294,-0.000317961166848661,0.00000000000000000420370936611859,-0.00131564228683344,0.000379813961986342,0.00105661953091016,0.0000201606970066606,0.00694031620942535,0.00000000000000117265804083017,-0.00101410328967964,-0.000561603235515227,0.000039959306196087,-0.0000103896832855368,0.000704835748948131,0.000271699604918227,0.00000344746347373958,-0.0000613760821499105,0.000000000000000383034934374989
"t60",3.66931208852335,4.72035233754002,3.82914668558865,1.90564029799071,-1.72116068030539,-0.854327713936639,-0.0172132793828655,-0.292994891172572,-0.418000332361529,0.822586151252711,-0.65885310804777,-0.733380728210228,"t60",0.0937341924933223,-3.64090041833362,2.55475079362999,0.0890059528793396,0.143808462144742,-0.0137617983276373,0.0316500811604332,0.00301666414635749,0.0354211001204021,-0.00260641076827959,0.0957159981334153,0.00429482238382256,0.00774421288242041,0.00502170555079328,-1.30077003699683,0.0000522602143763363,-0.000200556246455931,-0.00000509077260160453,-0.000100299499533868,-0.000322327819095374,-0.000101010745145744,0.000124953984236938,0.000957554087577236,0.0226113541686905,0.00000273225653238098,-0.000070993325477921,0.0000960123287173026,-0.000157276904881397,0.000348576004231459,0.00000971839171293475,0.00000219565959997188,0.000169950310163026,0.0000636701587751461,-0.0000571787163198491,0.000000000000000165870499849491,-0.0000168969620848627,0.00000466849454390031,0.000000412680620094061,-0.000000102194046714316,-0.0000304187669977281,0.00000000000000484466775342974,0.0000451946308580167,0.179829327921142,0.000240969406552303,-0.0000254484174247727,0.000127691713564243,0.0000541971221410505,0.000014304887753236,-0.712207913833032,-0.00000000000000484190825466085
"t61",-0.161123904792303,0.949372482139523,1.20217714772318,2.44060373322221,-3.01949032061518,-0.733714657409987,-0.69853548766817,-0.289840956913368,-1.67555021760609,-1.13399874582907,0.5222510524779,0.470759018411001,"t61",2.82598569412469,1.32087091674268,0.269332714247949,1.79876477842811,0.0492480767565964,-1.71315754984843,0.010094723545705,0.00103602276312023,0.0251154768556233,0.000961631861128068,0.00937599927177435,0.00295780679816689,0.0349641882420843,1.81359125046174,0.00592132240056826,0.000025356930406684,-0.00826224980857681,0.111872122457043,-0.000053704765714287,-0.000177533013245206,-0.00321472141246659,0.0542063858289999,0.000835503699919877,0.000207043884826329,0.000110433326893317,-0.0000867690081701576,0.0000730979107173822,-0.000121743043224282,0.0033408500997917,0.000101230678849102,0.000023045141937999,0.000193691440372127,0.000214868811928012,-0.564094425309747,0.0000000000000156019590938487,0.000320373900118125,-0.000059052420076329,-0.00000630538810663296,-0.000000541806183399491,-0.0000216470266732174,0.0000000000000108619935476897,0.00000163729801510103,0.0000518359812119405,-0.00000387160309346928,-0.131980680432922,-0.00000455138923415567,-0.000000852709276438889,-0.0000000579111368924555,-0.000000352493339628413,0.000000000000000710625553056588
"t62",-0.663320786549421,0.975035795756207,0.62634340809233,2.19087286342742,-3.26129492443201,-1.46790378040171,-0.489019562197929,-0.168292631612469,0.820270754096696,0.638724095101269,-0.573817108186437,-0.628170171129987,"t62",2.82598569412469,1.32087091674268,0.269332714247949,1.79876477842811,0.0492480767565968,-1.71315754984843,0.010094723545706,0.00103602276312022,0.0251154768556233,0.000961631861128916,0.00937599927177452,0.00295780679816766,0.0349641882420843,1.81359125046174,0.00592132240056801,0.0000253569304062742,-0.00826224980857657,0.111872122457043,-0.0000537047657144045,-0.000177533013245529,-0.00321472141246517,0.0542063858290011,0.000835503699920433,0.000207043884826075,0.000110433326893124,-0.0000867690081704195,0.0000730979107171733,-0.000121743043222716,0.00334085009979225,0.000101230678848903,0.0000230451419373772,0.000193691440371958,0.000214868811928703,-0.564094425309742,0.0000000000000153175947595309,0.000320373900120716,-0.0000590524200756078,-0.00000630538810319911,-0.000000541806182346936,-0.0000216470266734856,0.0000000000000172420483122064,0.00000163729801351371,0.0000518359812117391,-0.00000387160309249429,-0.131980680432922,-0.00000455138923259355,-0.00000085270927712099,-0.000000057911137639513,-0.000000352493340822539,0.000000000000000291121062423656
"t63",1.66602848332528,0.66658231303378,0.959482676210885,3.7585755016603,-3.13604671732574,-1.2016050831081,-0.294590831263628,-0.0107267298701925,-0.830756677759615,1.83898663278479,-2.26274700690882,-2.22089988622654,"t63",2.52355967216619,1.02320686469838,0.187955968894578,-2.86069861747486,0.0804205749619157,-0.112400999241192,0.0180336943634809,0.00133197680450194,-0.298780107973656,-0.0390987107258604,0.266312680486973,-1.86894365478273,0.000756564926183087,0.00217657263447099,-0.000158677461370798,0.00000139010250374937,-0.00135424294793694,0.00770722703919338,-0.0000518681574584687,-0.000201668966174257,-0.000857336418957853,0.00106569899445318,0.00109117449086924,0.000320103612853539,0.000171970102460903,-0.000140954796340921,0.000125662604741952,-0.000260007302024191,0.291024859561381,-0.0252347493963607,1.06107019349341,-0.0000681396146767508,0.0000122546786600035,-0.000229249722584871,0.000000000000000304514956404908,-0.0000071602872654973,0.000002171387059465,0.00000133498001252118,0.00000016370648506442,0.0000104770781652205,0.000000000000000308071180218097,-0.0000017873672006616,-0.0000789108763779856,0.0000086484896170403,-0.0000172267825709119,0.0000088501398905275,0.00000352397249612072,0.000000896463852816073,-0.0000110414343670912,0.000000000000000349666900858716
"t64",-0.21762762213315,-0.810425987685903,-0.582356913384134,4.12681316966343,-3.65390880625202,-2.50695784750077,-0.573739737590231,-0.0889714328981234,-0.445141684906768,0.670382742931811,-1.53808974175652,-0.353726482063534,"t64",2.52355967216619,1.02320686469838,0.187955968894578,-2.86069861747486,0.0804205749619159,-0.112400999241192,0.0180336943634809,0.0013319768045015,-0.298780107973656,-0.0390987107258596,0.266312680486972,-1.86894365478273,0.000756564926182949,0.0021765726344708,-0.000158677461370762,0.00000139010250346186,-0.00135424294793684,0.00770722703919348,-0.0000518681574581992,-0.000201668966174333,-0.000857336418956666,0.00106569899445204,0.00109117449087101,0.000320103612853905,0.000171970102460609,-0.00014095479634008,0.000125662604740956,-0.000260007302023811,0.291024859561383,-0.0252347493963621,1.06107019349341,-0.0000681396146765663,0.0000122546786593769,-0.000229249722585154,0.0000000000000000969290599680611,-0.00000716028726524842,0.00000217138706082083,0.00000133498001491986,0.000000163706487009942,0.0000104770781659783,-0.000000000000000983840220696502,-0.00000178736720214029,-0.0000789108763791276,0.00000864848961731472,-0.000017226782570894,0.00000885013989417349,0.00000352397249391677,0.000000896463854064682,-0.0000110414343674864,-0.000000000000000284914779757797
"t65",0.226831741272359,0.358658627818297,1.57388747715129,-1.81828114898617,0.69845660832245,2.8017890448072,1.11322375895442,1.2262867917125,0.859546637142256,-0.259243880509302,0.243418376642067,0.679526738868174,"t65",-2.89883946101751,1.024932767614,-0.0548142930286041,0.0446839862858703,1.51046332680286,0.000476607691292868,0.362290196605062,0.00767293929782852,0.0458078432594972,-0.431316085465437,-0.00641841911954706,0.0000219042117381235,0.000452467516629145,-0.00000310702558862705,0.00000167536469751431,0.774934321218769,-0.000780308729117157,-0.00000553019561985226,-0.000119574672383624,1.76107321043423,-0.000144273660534087,0.000130549228305958,0.000717747720223193,0.000239972514800306,0.00170645514022853,-0.0000694035061185997,0.06297802325031,-0.00247070610452005,0.000216769544226353,0.00000622954982774096,0.00000141129781069351,0.00152730926546808,0.000738823523652141,-0.0000687652663835122,0.00000000000000163495950840735,-0.000591177567773189,0.00480358393702425,0.0000488595647382148,0.00011675104989198,0.000390733031431851,-0.0000000000000848785790400891,-0.0000753549401999969,-0.000282188030807118,0.0000230885675887494,-0.0000145699927367216,0.489783564893103,-0.0599392808922784,-0.0000012374681970596,0.0000118108774772549,-0.00000000000000528777505173019
"t66",-1.16617426920698,-0.828926351973104,0.731773831444877,-2.7134682799103,1.43836244285817,3.26029719026255,0.131309303226899,-0.480811516204048,0.156059462903005,-0.0524138269158492,0.0950194949051818,0.516960202709874,"t66",-2.89883946101751,1.024932767614,-0.0548142930286039,0.0446839862858697,1.51046332680286,0.000476607691293212,0.362290196605058,0.00767293929783366,0.0458078432594964,-0.431316085465434,-0.00641841911954626,0.0000219042117389841,0.000452467516630554,-0.00000310702559058958,0.0000016753646988833,0.774934321218772,-0.000780308729116848,-0.00000553019562155989,-0.000119574672385709,1.76107321043422,-0.0001442736605359,0.000130549228304065,0.000717747720224869,0.00023997251480016,0.00170645514022538,-0.0000694035061177058,0.0629780232503143,-0.0024707061045156,0.000216769544224661,0.00000622954982959168,0.00000141129781247075,0.00152730926547247,0.000738823523656581,-0.0000687652663837533,0.00000000000000191713487410741,-0.000591177567786436,0.00480358393702445,0.0000488595647313259,0.00011675104989797,0.00039073303142736,-0.0000000000000836462943192167,-0.0000753549401959971,-0.000282188030805979,0.0000230885675900105,-0.00001456999273906,0.489783564893099,-0.0599392808922888,-0.0000012374681991856,0.0000118108774696559,-0.00000000000000531982490499214
"t67",-4.21669670989274,-2.48736401481618,-3.74873900311448,3.27765515426072,-4.59329585660858,-2.14442144951267,1.32414080815333,0.58838952156902,1.77982087538155,0.272695601757349,0.693135182366575,-0.441482261341334,"t67",2.75207208055135,1.255300883268,0.252594179255158,1.51374345523159,0.0286042880939524,2.49730554796703,0.019657140085223,0.0025317108656069,0.0910417962215347,0.00371623449005183,0.10219077567651,-0.00749054220190492,-0.00362011794298936,-0.0549393151032821,0.00107856101049069,0.0000251054966077495,-0.0453001069626935,0.947394115017935,-0.0000114490351518678,-0.000175935576899906,-1.04677519283337,-0.000310854208798927,0.00037511069877728,0.000109231873958434,0.0000582861935193021,-0.0000458355399721063,0.000038559280731631,-0.0000633836789150031,0.00163466563166124,0.0000469964959506207,0.0000106460678709316,0.0000793164742446341,0.000039661198736953,-0.00197363608536957,0.000000000000000154316650911937,-0.0000141092566038839,0.00000428156690541776,0.00000239651437488931,0.000000286908797558292,0.0000178833731339471,-0.00000000000000660862370467852,-0.00000298289823083015,-0.000131539706010115,0.00001444037280071,-0.000114736025649908,0.0000154118654791488,0.00000629948993353228,0.00000167808917536151,-0.0000216963826002795,-0.000000000000000674237753499037
"t68",-3.77431867151869,-2.11042207875151,-3.34845123249632,3.72151652222297,-4.36548105496278,-2.37996577624704,0.864632212385482,1.09309208786113,1.46708604672184,0.461201912092261,0.271708162919894,-0.124103922927536,"t68",2.75207208055135,1.255300883268,0.252594179255158,1.51374345523159,0.0286042880939525,2.49730554796703,0.0196571400852221,0.00253171086560747,0.0910417962215353,0.00371623449005178,0.102190775676511,-0.00749054220190528,-0.00362011794298919,-0.0549393151032818,0.00107856101049091,0.0000251054966081941,-0.0453001069626938,0.947394115017937,-0.0000114490351528127,-0.000175935576901304,-1.04677519283337,-0.000310854208798038,0.000375110698777587,0.000109231873958307,0.0000582861935190421,-0.0000458355399715115,0.0000385592807311875,-0.0000633836789153352,0.00163466563166037,0.0000469964959506908,0.0000106460678711747,0.0000793164742462801,0.0000396611987390191,-0.0019736360853711,0.000000000000000745794543900507,-0.0000141092566061012,0.00000428156690305986,0.00000239651437291223,0.000000286908798013424,0.0000178833731322058,-0.00000000000000256394724181513,-0.0000029828982300554,-0.000131539706009137,0.0000144403728030857,-0.000114736025650585,0.0000154118654770543,0.00000629948993363443,0.00000167808917661051,-0.0000216963826005483,-0.00000000000000105675608539734
"t69",0.757356353911566,1.99130987166774,1.01655195144084,1.06074903407488,-1.40009707203739,-1.80358643179482,-2.1702294183598,-1.84004995289117,-2.21373172690774,-0.198736030636062,0.49995555620443,-0.18871953925006,"t69",-2.94131958359479,1.04959552614655,-0.056359677574937,0.0468905320462802,1.62240775850974,0.000526830250006627,0.439089613607039,0.01179068253798,0.081766295689498,-0.783985430038373,-0.0138294116844066,0.0000720309928614341,0.00772890367130347,-0.0000808785502420751,-0.000054172306366379,-1.38037762927093,-0.000346348752224661,-0.00000304804761807845,-0.000488604951016248,-0.170463647704789,-0.0000218026609323114,0.0000338152320929823,0.000353700025316392,0.000342948659675809,0.00258705029872087,-0.000162988631733756,0.56810597224886,0.00198074946658583,0.0000102505073988016,0.000000996191378061568,0.000000235433892949626,0.000410674209586985,0.000371106040594882,-0.0000871964371923701,0.0000000000000373882605827799,-0.00178456788483447,0.583125483932624,-0.00000359663936927066,0.00000124194745178425,0.0000286170498547859,0.0000000000000211873469749994,-0.00000813084874735007,-0.0000300995847336362,0.00000233071616879981,-0.000000770854453752397,0.00260851527328692,0.00105550461665919,0.000000264387270205833,-0.00000501863038700293,0.000000000000000131468364513234
"t7",-2.60348621675733,-0.410152575036942,-2.92664671106949,-0.242525222902207,-1.75048361215257,-1.66308649981861,-2.582657655863,-2.10750824706574,-2.57284489840497,-1.33180993888933,1.69737504872725,1.11071377449581,"t7",-2.33536175846042,0.66457929403604,-0.0311751236728954,0.0000250477131558201,-2.22742661447033,-0.017576392794289,0.492019615461652,-1.36764799019246,0.0365479199318817,-0.0428107066028107,0.0811574485410308,0.00394587805319777,0.660909675985772,-0.0120099581399751,0.00363668784293272,0.00120468329967076,-0.0000888721489467644,-0.00000315276641290347,-1.17961370990576,-0.00250887467377055,-0.0000464038763486605,0.0000517425736307166,0.000156951074407438,-0.0092376544907471,-1.29388239490543,-0.00057032228765167,0.00531724181361031,-0.00475266285788713,0.000549935480823167,0.0000145826333762044,0.00000329004090574833,0.0189355579465995,0.0077103850563503,-0.000102763270638214,-1.159124289,-0.000437979004457057,0.000128403531798444,0.000409859939300153,0.00000789802842828182,0.0105142399506992,-0.0000000000000024446938817307,-0.00042434637338426,-0.00023288763336205,0.0000168161698387732,-0.00000453793569780829,0.000312729944279479,0.000122117157953129,0.00000157324600959937,-0.0000283203100289554,0.00000000000000020686515075259
"t70",1.63811993762928,2.66968813519696,1.70568841427667,0.271656339263035,-0.442458098327158,-1.18055847499713,-0.353155447218547,-0.298985682845165,-0.467717835320812,-0.764008516914479,0.170511878864929,-0.495305748515649,"t70",-2.94131958359479,1.04959552614655,-0.0563596775749367,0.0468905320462805,1.62240775850974,0.000526830250006703,0.439089613607039,0.0117906825379803,0.0817662956895007,-0.783985430038372,-0.0138294116844073,0.0000720309928621289,0.00772890367130379,-0.0000808785502423356,-0.0000541723063677595,-1.38037762927093,-0.00034634875222545,-0.00000304804761727122,-0.000488604951016504,-0.170463647704788,-0.0000218026609306804,0.0000338152320940769,0.000353700025313195,0.000342948659677408,0.0025870502987191,-0.000162988631735673,0.568105972248858,0.00198074946658602,0.0000102505073991371,0.000000996191377199068,0.000000235433893677647,0.000410674209589275,0.000371106040593967,-0.0000871964371914539,0.0000000000000374623117398514,-0.00178456788483429,0.583125483932615,-0.0000035966393718205,0.00000124194745045992,0.0000286170498551111,0.0000000000000297338377810498,-0.00000813084874585661,-0.0000300995847333902,0.00000233071616952838,-0.000000770854453987824,0.00260851527328098,0.00105550461666686,0.000000264387265452503,-0.00000501863038487187,0.000000000000000821329302776028
"t71",2.92225072140931,2.30779059902774,2.60097657442796,-1.32151278099801,0.61999146979567,1.85085955457767,-2.02695161405775,-1.74365581622735,-0.955638072225273,-0.454316060882374,-0.0280145026214633,-0.52684749741879,"t71",-2.83975881571591,0.989764037672013,-0.0525864408459323,0.0413222373118993,1.32879078904097,0.000388498415831855,0.189055092130883,-0.010448120281787,-0.204246896172148,2.17059698723688,0.0968490852648284,0.00192871917781961,0.0410982853764841,-0.000403921375817675,-0.000220613388361999,-0.104297435194387,-0.00432180146799769,-0.0000313288982131331,-0.00133937676774146,-0.0805258606205858,-0.0000506014056005153,0.0000643576981525898,0.000502312871981159,0.000185976213145216,0.00131563742063144,-0.0000502287214215781,0.0175519115596702,-0.00238658447558331,0.000201767748592491,0.00000579034936235926,0.00000131167261112067,0.0014149883933637,0.000664936243488795,-0.0000600690460860144,0.00000000000000678229681308588,-0.000508519577811075,0.00151371453657961,0.0000431262479203475,0.694696791628784,0.000266628796112273,0.0000000000000244370010373,-0.0000456888042912633,-0.000156822767680783,0.0000115585856603716,-0.00000342399231305315,0.00455305547315607,0.00186316096125556,0.00000134218547339278,-0.0000265393505726361,-0.000000000000003363914154406
"t72",1.15860773588764,1.36124173722163,1.87916967767198,-0.674763550700926,0.555289202220471,1.68546114681195,-0.366347574050973,-0.0607545316688843,0.0832594141611815,-1.02828196298026,0.581727021710163,0.305651599099137,"t72",-2.83975881571591,0.989764037672013,-0.0525864408459323,0.041322237311898,1.32879078904097,0.000388498415832111,0.189055092130884,-0.0104481202817868,-0.204246896172148,2.17059698723688,0.0968490852648281,0.00192871917781635,0.0410982853764838,-0.000403921375819554,-0.000220613388362412,-0.104297435194383,-0.00432180146799833,-0.0000313288982127052,-0.00133937676774029,-0.0805258606205878,-0.0000506014056039737,0.0000643576981565354,0.000502312871979573,0.000185976213141642,0.00131563742062981,-0.0000502287214254113,0.0175519115596671,-0.00238658447559105,0.000201767748590916,0.00000579034935822687,0.00000131167261227883,0.00141498839336329,0.000664936243495431,-0.0000600690460835862,0.00000000000000739592717085167,-0.000508519577804434,0.00151371453657759,0.0000431262479196902,0.694696791628783,0.000266628796109395,0.0000000000000385883997673183,-0.0000456888042917223,-0.000156822767677815,0.0000115585856608922,-0.00000342399231342151,0.00455305547315582,0.00186316096124352,0.00000134218547806597,-0.0000265393505736508,-0.00000000000000202990230410695
"t73",4.28327080038736,5.92601860803233,5.90145762914174,2.99593140094421,-2.22796835335577,-1.38142407566402,1.08055439401523,1.51613856363754,0.536563006428983,-0.518794249646046,0.293000602035825,0.870661371870338,"t73",0.0939339391833161,-3.65340206594165,2.56494467267827,0.089602859340644,0.145190141492198,-0.0139394797603688,0.0323398612388901,0.00312574331321814,0.0368804316602473,-0.00271501899211127,0.100026780571477,0.00450488958278776,0.00814436932116541,0.00528188448499986,-1.36871000931484,0.0000550749061360257,-0.000211995129199529,-0.00000538319960726122,-0.000107935638243277,-0.000363878221522776,-0.000116241776193032,0.000145733102063869,0.00116414510916489,0.0298374558413361,0.00000361349221895755,-0.0000950319725258828,0.000130316017534131,-0.000221648377582646,0.000536612597772901,0.000015814969223616,0.0000035903258393529,0.000308805159111375,0.000180678015249953,-0.000249958087276679,-0.000000000000000514725993351298,-0.000084624717924431,0.0000255357481643769,0.0000177798243528346,0.00000241644766885848,0.000197012046409622,-0.0000000000000183153285529662,-0.000110115853853433,-0.345309262440213,-0.000382630883328301,0.0000238659997683388,-0.0000930609958514011,-0.0000314088889174815,-0.00000608308460238262,0.231971277266784,0.000000000000000275679923388849
"t74",4.05539800852129,5.86489641054576,5.60426194828466,2.93153676029173,-2.18765434381024,-1.01820417813709,1.23596908471608,1.71633779187597,1.18512012171303,0.794095581694517,-0.211994651185375,-1.5283871834333,"t74",0.0939339391833161,-3.65340206594165,2.56494467267827,0.0896028593406438,0.145190141492197,-0.0139394797603688,0.0323398612388893,0.00312574331321748,0.0368804316602477,-0.00271501899211132,0.100026780571477,0.00450488958278764,0.00814436932116578,0.00528188448500108,-1.36871000931484,0.0000550749061354516,-0.000211995129199434,-0.00000538319960651799,-0.000107935638243294,-0.000363878221522943,-0.000116241776192848,0.000145733102063804,0.00116414510916529,0.0298374558413346,0.00000361349222001003,-0.0000950319725264182,0.000130316017532428,-0.000221648377586315,0.000536612597773678,0.000015814969223682,0.00000359032583941399,0.000308805159112409,0.000180678015246034,-0.000249958087277198,-0.000000000000000560224348324079,-0.0000846247179242274,0.0000255357481655476,0.0000177798243529457,0.00000241644767145514,0.000197012046411705,-0.0000000000000186084930631737,-0.000110115853848941,-0.345309262440215,-0.000382630883325348,0.0000238659997684804,-0.0000930609958516006,-0.0000314088889149763,-0.00000608308460417108,0.231971277266778,0.0000000000000028416320805441
"t75",2.95003617782191,1.95198465256976,3.14336218394094,1.44701953890709,-0.273299007253881,1.32441183831371,-0.0494851171510488,0.19269369669561,0.48617618208978,-0.00875194051249309,0.455593413124776,0.838873402498492,"t75",2.52374175508631,1.02332606961879,0.187981437410117,-2.86135294720162,0.0804470505507719,-0.112450991466545,0.0180474303671946,0.00133370065539586,-0.299224456569385,-0.0391575691331388,0.266748469526747,-1.87228715445189,0.000758001585074397,0.00218071790895503,-0.000158982330880881,0.00000139286437551406,-0.00135710803093679,0.00772366064845941,-0.0000520196760174634,-0.000202771436744659,-0.00086306913532659,0.00107382091239234,0.00110325407081491,0.000327115644883198,0.000175808672782453,-0.000144441052036551,0.000129168065502571,-0.000270289103412456,0.328454854666764,-0.478982223568791,-0.935198198198702,-0.0000619188251057292,0.000011861960316443,-0.000223309924735623,0.000000000000000217914992222318,-0.0000069812966637795,0.00000211813256722895,0.00000130642888642142,0.000000160343955999362,0.0000102735614425006,-0.00000000000000604217024427751,-0.00000175556665390197,-0.0000775445588578477,0.0000085021026996322,-0.0000169533171646096,0.00000871374007300461,0.00000347101421131328,0.000000883401013681496,-0.0000108842248707224,0.000000000000000331413395241528
"t76",1.79234529560489,0.652752786549126,1.98042516006347,1.45705289718297,-0.640576825601637,1.23282407929919,-0.83776873004655,-0.490693841838528,0.317998006647709,-1.20091102922578,0.965507921800122,0.678178067440588,"t76",2.52374175508631,1.02332606961878,0.187981437410117,-2.86135294720162,0.0804470505507722,-0.112450991466545,0.0180474303671946,0.0013337006553955,-0.299224456569386,-0.0391575691331394,0.266748469526748,-1.87228715445189,0.00075800158507468,0.0021807179089552,-0.000158982330880385,0.00000139286437349328,-0.00135710803093727,0.00772366064845933,-0.0000520196760180491,-0.000202771436745191,-0.000863069135325978,0.00107382091239245,0.00110325407081495,0.000327115644883218,0.000175808672781621,-0.000144441052035762,0.0001291680655041,-0.000270289103416378,0.328454854666766,-0.478982223568792,-0.935198198198705,-0.0000619188251049864,0.0000118619603140489,-0.000223309924736921,0.000000000000000303224448295063,-0.00000698129666036307,0.00000211813256582085,0.00000130642888817165,0.000000160343952870358,0.0000102735614423474,-0.00000000000000647943256458706,-0.00000175556665287838,-0.0000775445588570507,0.00000850210270059801,-0.0000169533171653674,0.0000087137400728879,0.00000347101420440914,0.000000883401014434538,-0.0000108842248706453,-0.000000000000000467033334813882
"t77",5.42918161138405,5.69277473074005,5.37143271488579,2.73922928457097,-2.66536424331524,-1.17885407830034,0.448514050393754,0.191703134814225,0.36117253527859,-0.715290287230147,0.102590265032258,-0.109359851901263,"t77",0.0929360694703318,-3.58992919180664,2.51282217222314,0.0864396368763891,0.137562517796752,-0.0129078661899569,0.0276310498024,0.00200752558163497,0.0180445817219588,-0.00127665214893821,0.0292110026475034,-0.000409746367645109,-0.00572046014585397,-0.00396475440975712,1.25024754853388,-0.000108474796924388,-0.0134527570471723,-0.0000943668349660565,-0.000157284234743609,-0.000342726258934793,-0.0000954535928991944,0.000106449701097469,0.000388385340781358,-1.12669419698599,0.00843382404029293,-0.000791840344510953,0.000592133986667464,-0.000567374357128912,0.000917271412850329,0.0000240537657711066,0.0000054157821852493,0.000404753741845858,0.000172620477422363,-0.00019916479115241,0.00000000000000123267257038714,-0.0000645181373716701,0.0000189696891339513,0.000010116043846365,0.00000121381933117596,0.0000775102589738397,-0.00000000000000284220508201212,-0.0000183333887109699,-0.0267735062169553,0.00000194454857123071,-0.00000670548156733197,0.0000387933973988397,0.000015926875981429,0.00000281011546936318,-0.00333099108271202,0.0000000000000003426378232119
